;FLAVOR:Marlin
;TIME:1720
;Filament used: 1.19831m
;Layer height: 0.1
;MINX:90.013
;MINY:58.02
;MINZ:0.15
;MAXX:109.987
;MAXY:131.5
;MAXZ:8.55
;ARCWELDERPROCESSED
; Postprocessed by [ArcWelder](https://github.com/FormerLurker/ArcWelderLib)
; Copyright(C) 2021 - Brad Hochgesang
; Version: 1.2.0, Branch: master, BuildDate: 2021-11-22T09:56:32Z
; resolution=0.05mm
; path_tolerance=5.0%
; max_radius=9999.00mm
; default_xyz_precision=3
; default_e_precision=5
; extrusion_rate_variance_percent=5.0%

;Generated with Cura_SteamEngine main
M140 S60
M105
M190 S60
M104 S210
M105
M109 S210
M82 ;absolute extrusion mode
G21 ;metric values
G90 ;absolute positioning
M82 ;set extruder to absolute mode
M107 ;start with the fan off
G28 X0 Y0 ;move X/Y to min endstops
G28 Z0 ;move Z to min endstops
G1 Z15.0 F9000 ;move the platform down 15mm
G92 E0 ;zero the extruded length
G1 F200 E3 ;extrude 3 mm of feed stock
G92 E0 ;zero the extruded length again
G1 F9000
;Put printing message on LCD screen
M117 Printing...
G92 E0
G92 E0
G1 F2400 E-1
;LAYER_COUNT:85
;LAYER:0
M107
M204 S5000
M205 X30 Y30
G1 F600 Z1.15
G0 F2100 X91.871 Y62.199 Z1.15
G1 F600 Z1.15
G0 F2100 X90.014 Y68.45
M204 S3000
M205 X20 Y20
;TYPE:SKIRT
G1 F600 Z0.15
G1 F2400 E0
G3 X92.447 Y61.448 I10.344 J-0.330 E0.28367 F1650
G3 X100.183 Y58.020 I7.595 J6.696 E0.61028
G3 X109.986 Y68.392 I-0.215 J10.022 E1.20453
G1 X109.987 Y91.334 E2.06296
G3 X109.888 Y92.882 I-8.318 J0.245 E2.12107
G2 X107.680 Y113.341 I93.550 J20.445 E2.89250
G1 X107.68 Y126.327 E3.37841
G3 X107.013 Y129.331 I-5.147 J0.433 E3.49528
G3 X104.167 Y131.378 I-3.846 J-2.345 E3.62992
G1 X103.215 Y131.5 E3.66583
G3 X96.770 Y131.491 I-2.874 J-249.927 E3.90699
G3 X92.441 Y127.992 I0.059 J-4.501 E4.13137
G1 X92.319 Y127.026 E4.1678
G1 X92.319 Y113.405 E4.67747
G2 X90.113 Y92.890 I-96.338 J-0.017 E5.45097
G1 X90.013 Y92.021 E5.4837
G1 X90.014 Y68.45 E6.36567
M204 S5000
M205 X30 Y30
G0 F2100 X90.614 Y68.459
M204 S3000
M205 X20 Y20
G3 X92.891 Y61.854 I9.711 J-0.347 E6.63305 F1650
G3 X101.558 Y58.748 I7.132 J6.257 E6.99274
G3 X109.386 Y68.392 I-1.555 J9.262 E7.50014
G1 X109.387 Y91.326 E8.35828
G3 X109.300 Y92.764 I-7.743 J0.253 E8.41224
G2 X107.080 Y113.336 I93.952 J20.544 E9.18794
G1 X107.08 Y126.319 E9.67373
G3 X106.693 Y128.664 I-5.566 J0.286 E9.76352
G3 X102.847 Y130.900 I-3.601 J-1.767 E9.93996
G3 X96.778 Y130.891 I-2.685 J-235.347 E10.16705
G3 X92.920 Y126.981 I0.057 J-3.915 E10.39462
G1 X92.919 Y113.396 E10.90294
G2 X90.701 Y92.770 I-96.860 J-0.016 E11.68062
G1 X90.613 Y92.004 E11.70947
G1 X90.614 Y68.459 E12.59047
M204 S5000
M205 X30 Y30
G0 F2100 X91.214 Y68.468
M204 S3000
M205 X20 Y20
G3 X93.298 Y62.304 I9.113 J-0.353 E12.83942 F1650
G3 X94.640 Y61.030 I11.994 J11.290 E12.90869
G3 X107.345 Y63.173 I5.353 J6.999 E13.44917
G3 X108.786 Y68.392 I-7.684 J4.930 E13.65489
G1 X108.787 Y91.318 E14.51273
G3 X108.712 Y92.645 I-7.153 J0.261 E14.56251
G2 X106.480 Y113.332 I94.542 J20.664 E15.34254
G1 X106.48 Y126.311 E15.82818
G3 X106.297 Y128.045 I-5.604 J0.285 E15.89373
G3 X103.143 Y130.300 I-3.150 J-1.072 E16.04840
G3 X96.785 Y130.291 I-2.830 J-246.554 E16.28630
G3 X93.520 Y126.982 I0.049 J-3.314 E16.47883
G1 X93.519 Y113.388 E16.98749
G2 X91.289 Y92.650 I-97.454 J-0.009 E17.76939
G1 X91.214 Y92.006 E17.79365
G1 X91.214 Y68.468 E18.67438
M204 S5000
M205 X30 Y30
G1 F2400 E17.67438
G1 F600 Z1.15
;MESH:follower1.stl
G0 F2100 X98.734 Y89.311 Z1.15
M204 S3000
M205 X20 Y20
;TYPE:WALL-INNER
G1 F600 Z0.15
G1 F2400 E18.67438
G3 X100.001 Y91.151 I-1.847 J2.628 E18.75965 F1650
G3 X102.187 Y88.865 I3.119 J0.795 E18.88329
G1 X102.186 Y67.859 E19.66929
G2 X99.811 Y65.819 I-2.208 J0.168 E19.79918
G1 X99.103 Y66.009 E19.82661
G2 X98.300 Y66.624 I0.925 J2.040 E19.86470
G1 X97.958 Y67.213 E19.89018
G2 X97.814 Y67.965 I1.980 J0.769 E19.91895
G1 X97.813 Y88.862 E20.70087
G3 X98.734 Y89.311 I-0.800 J2.809 E20.73936
M204 S5000
M205 X30 Y30
G0 F2100 X101.615 Y89.8
M204 S3000
M205 X20 Y20
G3 X102.787 Y89.354 I1.286 J1.615 E20.78684 F1650
G1 X102.786 Y67.815 E21.59278
G2 X97.825 Y66.253 I-2.788 J0.196 E21.84245
G1 X97.432 Y66.868 E21.86976
G2 X97.214 Y67.937 I2.836 J1.135 E21.91074
G1 X97.213 Y89.352 E22.71204
G3 X99.450 Y91.384 I-0.337 J2.618 E22.83248
G1 F1434.8 X99.61 Y92 E22.85987
G1 F1269.2 X99.61 Y124.21 E24.42666
G1 X100.39 Y124.21 E24.4646
G1 X100.39 Y92 E26.03139
G1 F1434.8 X100.552 Y91.384 E26.05879
G3 X101.615 Y89.800 I2.619 J0.609 E26.13166 F1650
M204 S5000
M205 X30 Y30
G0 F2100 X98.038 Y90.288
M204 S3000
M205 X20 Y20
G3 X98.920 Y92.000 I-1.209 J1.706 E26.20642 F1650
G1 X98.92 Y124.9 E27.43746
G1 X101.08 Y124.9 E27.51828
G1 X101.08 Y92 E28.74932
G3 X103.387 Y89.900 I2.132 J0.025 E28.88027
G1 X103.386 Y67.771 E29.70829
G2 X102.924 Y66.279 I-3.716 J0.333 E29.76705
G2 X96.614 Y67.909 I-2.917 J1.735 E30.09408
G1 X96.613 Y89.9 E30.91694
G3 X98.038 Y90.288 I0.177 J2.160 E30.97319
M204 S5000
M205 X30 Y30
G0 F2100 X102.781 Y90.554
M204 S3000
M205 X20 Y20
G3 X103.987 Y90.500 I0.803 J4.440 E31.01845 F1650
G1 X103.986 Y67.727 E31.87056
G2 X96.014 Y67.882 I-3.982 J0.285 E32.32451
G1 X96.013 Y90.5 E33.17082
G3 X97.219 Y90.553 I0.403 J4.566 E33.21608
G3 X98.320 Y92.000 I-0.393 J1.441 E33.28895
G1 X98.32 Y125.5 E34.54244
G1 X101.68 Y125.5 E34.66816
G1 X101.68 Y92 E35.92165
G3 X102.781 Y90.554 I1.501 J0.001 E35.99446
M204 S5000
M205 X30 Y30
G0 F2100 X102.396 Y91.11
G0 X102.365 Y91.618
M204 S3000
M205 X20 Y20
G3 X103.181 Y91.100 I0.815 J0.382 E36.03250 F1650
G1 X104.587 Y91.1 E36.08511
G1 X104.586 Y67.683 E36.96132
G2 X95.414 Y67.854 I-4.582 J0.324 E37.48324
G1 X95.413 Y91.1 E38.35305
G1 X96.82 Y91.1 E38.4057
G3 X97.720 Y92.000 I0.001 J0.899 E38.45827
G1 X97.72 Y126.1 E39.73421
G1 X102.28 Y126.1 E39.90483
G1 X102.28 Y92 E41.18077
G1 X102.365 Y91.618 E41.19542
M204 S5000
M205 X30 Y30
G0 F2100 X102.281 Y91.618
G0 X96.994 Y91.1
G0 X96.994 Y91.755
M204 S3000
M205 X20 Y20
;TYPE:WALL-OUTER
G1 F1650 X97.12 Y91.951 E41.20414
G1 X97.12 Y126.7 E42.50436
G1 X102.88 Y126.7 E42.71989
G1 X102.88 Y92 E44.01828
G3 X103.181 Y91.700 I0.300 J-0.000 E44.03572
G1 X105.187 Y91.7 E44.11078
G1 X105.186 Y67.639 E45.01109
G2 X94.814 Y67.826 I-5.181 J0.368 E45.60099
G1 X94.813 Y91.7 E46.49429
G1 X96.879 Y91.7 E46.5716
G1 X96.994 Y91.755 E46.57637
M204 S5000
M205 X30 Y30
G0 F2100 X97.102 Y91.923
G0 X97.719 Y91.924
G0 X98.499 Y67.433
M204 S3000
M205 X20 Y20
;TYPE:SKIN
G2 X98.394 Y67.991 I1.504 J0.572 E46.59770 F1650
G1 X98.394 Y88.466 E47.36382
G3 X100.001 Y89.775 I-1.408 J3.370 E47.44237
G3 X101.607 Y88.469 I2.995 J2.043 E47.52083
G1 X101.606 Y67.909 E48.29014
G2 X98.499 Y67.433 I-1.606 J0.101 E48.45292
M204 S5000
M205 X30 Y30
G0 F2100 X99.819 Y66.726
M204 S3000
M205 X20 Y20
G1 F1650 X101.305 Y68.213 E48.53158
M204 S5000
M205 X30 Y30
G0 F2100 X101.305 Y69.061
M204 S3000
M205 X20 Y20
G1 F1650 X99.212 Y66.967 E48.64236
M204 S5000
M205 X30 Y30
G0 F2100 X98.839 Y67.443
M204 S3000
M205 X20 Y20
G1 F1650 X101.305 Y69.91 E48.77288
M204 S5000
M205 X30 Y30
G0 F2100 X101.305 Y70.758
M204 S3000
M205 X20 Y20
G1 F1650 X98.693 Y68.146 E48.91109
M204 S5000
M205 X30 Y30
G0 F2100 X98.693 Y68.994
M204 S3000
M205 X20 Y20
G1 F1650 X101.305 Y71.607 E49.04934
M204 S5000
M205 X30 Y30
G0 F2100 X101.305 Y72.455
M204 S3000
M205 X20 Y20
G1 F1650 X98.693 Y69.843 E49.18756
M204 S5000
M205 X30 Y30
G0 F2100 X98.693 Y70.691
M204 S3000
M205 X20 Y20
G1 F1650 X101.305 Y73.304 E49.3258
M204 S5000
M205 X30 Y30
G0 F2100 X101.305 Y74.152
M204 S3000
M205 X20 Y20
G1 F1650 X98.693 Y71.54 E49.46402
M204 S5000
M205 X30 Y30
G0 F2100 X98.693 Y72.388
M204 S3000
M205 X20 Y20
G1 F1650 X101.305 Y75.001 E49.60226
M204 S5000
M205 X30 Y30
G0 F2100 X101.305 Y75.849
M204 S3000
M205 X20 Y20
G1 F1650 X98.693 Y73.237 E49.74048
M204 S5000
M205 X30 Y30
G0 F2100 X98.693 Y74.085
M204 S3000
M205 X20 Y20
G1 F1650 X101.305 Y76.698 E49.87873
M204 S5000
M205 X30 Y30
G0 F2100 X101.305 Y77.546
M204 S3000
M205 X20 Y20
G1 F1650 X98.693 Y74.934 E50.01694
M204 S5000
M205 X30 Y30
G0 F2100 X98.693 Y75.782
M204 S3000
M205 X20 Y20
G1 F1650 X101.306 Y78.396 E50.15524
M204 S5000
M205 X30 Y30
G0 F2100 X101.306 Y79.244
M204 S3000
M205 X20 Y20
G1 F1650 X98.693 Y76.631 E50.29351
M204 S5000
M205 X30 Y30
G0 F2100 X98.693 Y77.479
M204 S3000
M205 X20 Y20
G1 F1650 X101.306 Y80.093 E50.43181
M204 S5000
M205 X30 Y30
G0 F2100 X101.306 Y80.941
M204 S3000
M205 X20 Y20
G1 F1650 X98.693 Y78.328 E50.57008
M204 S5000
M205 X30 Y30
G0 F2100 X98.693 Y79.176
M204 S3000
M205 X20 Y20
G1 F1650 X101.306 Y81.79 E50.70838
M204 S5000
M205 X30 Y30
G0 F2100 X101.306 Y82.638
M204 S3000
M205 X20 Y20
G1 F1650 X98.693 Y80.025 E50.84665
M204 S5000
M205 X30 Y30
G0 F2100 X98.693 Y80.873
M204 S3000
M205 X20 Y20
G1 F1650 X101.306 Y83.487 E50.98495
M204 S5000
M205 X30 Y30
G0 F2100 X101.306 Y84.335
M204 S3000
M205 X20 Y20
G1 F1650 X98.693 Y81.722 E51.12322
M204 S5000
M205 X30 Y30
G0 F2100 X98.693 Y82.57
M204 S3000
M205 X20 Y20
G1 F1650 X101.306 Y85.184 E51.26151
M204 S5000
M205 X30 Y30
G0 F2100 X101.306 Y86.032
M204 S3000
M205 X20 Y20
G1 F1650 X98.693 Y83.419 E51.39979
M204 S5000
M205 X30 Y30
G0 F2100 X98.693 Y84.268
M204 S3000
M205 X20 Y20
G1 F1650 X101.306 Y86.881 E51.53806
M204 S5000
M205 X30 Y30
G0 F2100 X101.306 Y87.73
M204 S3000
M205 X20 Y20
G1 F1650 X98.693 Y85.116 E51.67635
M204 S5000
M205 X30 Y30
G0 F2100 X98.693 Y85.965
M204 S3000
M205 X20 Y20
G1 F1650 X101.107 Y88.379 E51.80409
M204 S5000
M205 X30 Y30
G0 F2100 X100.603 Y88.724
M204 S3000
M205 X20 Y20
G1 F1650 X98.693 Y86.813 E51.90519
M204 S5000
M205 X30 Y30
G0 F2100 X98.693 Y87.662
M204 S3000
M205 X20 Y20
G1 F1650 X100.153 Y89.122 E51.98245
G1 X100.223 Y89.192
M204 S5000
M205 X30 Y30
G1 F2400 E50.98245
;MESH:NONMESH
G0 F600 X100.223 Y89.192 Z0.25
G0 F2100 X98.027 Y90.224
;TIME_ELAPSED:58.781633
;LAYER:1
M106 S51
M204 S3000
M205 X20 Y20
;TYPE:WALL-INNER
;MESH:follower1.stl
G1 F2400 E51.98245
G3 X98.927 Y92.000 I-1.294 J1.772 E52.01676 F2475
G1 X98.927 Y124.8 E52.56223
G1 X101.073 Y124.8 E52.59792
G1 X101.073 Y92 E53.14338
G3 X102.671 Y89.883 I2.199 J-0.001 E53.19066
G1 X103.341 Y89.791 E53.20191
G1 X103.341 Y67.908 E53.56582
G1 X103.275 Y67.355 E53.57509
G1 X103.01 Y66.533 E53.58945
G2 X100.893 Y64.774 I-3.104 J1.583 E53.63651
G1 X99.966 Y64.652 E53.65206
G2 X96.659 Y67.901 I0.057 J3.365 E53.73704
G1 X96.659 Y89.791 E54.10107
G3 X97.743 Y90.048 I0.023 J2.317 E54.11973
G1 X98.027 Y90.224 E54.12528
M204 S5000
M205 X30 Y30
G0 F3150 X98.058 Y90.787
M204 S3000
M205 X20 Y20
G3 X98.527 Y92.000 I-1.316 J1.206 E54.14736 F2475
G1 X98.527 Y125.2 E54.69947
G1 X101.473 Y125.2 E54.74847
G1 X101.473 Y92 E55.30058
G3 X103.273 Y90.200 I1.798 J-0.002 E55.34751
G1 X103.741 Y90.2 E55.3553
G1 X103.741 Y67.883 E55.72643
G2 X96.259 Y67.877 I-3.741 J0.121 E55.91777
G1 X96.259 Y90.2 E56.28901
G3 X97.558 Y90.402 I0.234 J2.773 E56.31111
G3 X98.058 Y90.787 I-0.835 J1.602 E56.32165
M204 S5000
M205 X30 Y30
G0 F3150 X97.763 Y91.057
M204 S3000
M205 X20 Y20
G3 X98.127 Y92.000 I-1.022 J0.936 E56.33880 F2475
G1 X98.127 Y125.6 E56.89757
G1 X101.873 Y125.6 E56.95987
G1 X101.873 Y92 E57.51864
G3 X103.273 Y90.600 I1.398 J-0.002 E57.55511
G1 X104.141 Y90.6 E57.56955
G1 X104.141 Y67.859 E57.94773
G2 X95.859 Y67.852 I-4.141 J0.149 E58.15922
G1 X95.859 Y90.6 E58.53752
G3 X97.110 Y90.653 I0.434 J4.547 E58.55838
G3 X97.763 Y91.057 I-0.372 J1.330 E58.57127
M204 S5000
M205 X30 Y30
G0 F3150 X97.001 Y91.038
M204 S3000
M205 X20 Y20
G3 X97.727 Y92.000 I-0.271 J0.959 E58.59268 F2475
G1 X97.727 Y126 E59.15811
G1 X102.273 Y126 E59.23371
G1 X102.273 Y92 E59.79913
G3 X103.273 Y91.000 I0.997 J-0.003 E59.82514
G1 X104.541 Y91 E59.84623
G1 X104.541 Y67.835 E60.23147
G2 X95.459 Y67.827 I-4.541 J0.174 E60.46303
G1 X95.459 Y91 E60.8484
G1 X96.727 Y91 E60.86949
G1 X97.001 Y91.038 E60.87409
M204 S5000
M205 X30 Y30
G0 F3150 X97.082 Y91.515
M204 S3000
M205 X20 Y20
G3 X97.327 Y91.907 I-0.405 J0.526 E60.88189 F2475
G1 X97.327 Y126.4 E61.45551
G1 X102.673 Y126.4 E61.54441
G1 X102.673 Y91.907 E62.11803
G3 X103.153 Y91.400 I0.647 J0.132 E62.13018
G1 X104.941 Y91.4 E62.15992
G1 X104.941 Y67.811 E62.5522
G2 X95.059 Y67.802 I-4.941 J0.197 E62.80389
G1 X95.059 Y91.4 E63.19633
G1 X96.847 Y91.4 E63.22607
G1 X97.082 Y91.515 E63.23042
M204 S5000
M205 X30 Y30
G0 F3150 X96.86 Y91.849
M204 S3000
M205 X20 Y20
;TYPE:WALL-OUTER
G1 F1650 X96.923 Y91.955 E63.23247
G1 X96.927 Y126.8 E63.81194
G1 X103.073 Y126.8 E63.91415
G1 X103.077 Y91.955 E64.49362
G3 X103.231 Y91.800 I0.206 J0.051 E64.49739
G1 X105.341 Y91.8 E64.53248
G1 X105.341 Y67.787 E64.93182
G2 X94.659 Y67.777 I-5.341 J0.222 E65.20363
G1 X94.659 Y91.8 E65.60314
G1 X96.769 Y91.8 E65.63823
G1 X96.86 Y91.849 E65.63995
M204 S5000
M205 X30 Y30
G3 X96.923 Y92.032 I-0.122 J0.145 F3150
G0 X97.627 Y92.032
G0 X98.851 Y90.532
M204 S3000
M205 X20 Y20
;TYPE:SKIN
G3 X99.306 Y91.977 I-2.100 J1.455 E65.66548 F1650
G1 X99.307 Y124.42 E66.20501
G1 X100.693 Y124.42 E66.22806
G1 X100.694 Y91.977 E66.76759
G3 X102.961 Y89.460 I2.532 J0.001 E66.82927
G1 X102.961 Y67.931 E67.1873
G2 X97.576 Y66.307 I-2.961 J0.078 E67.31064
G1 X97.204 Y67.02 E67.32402
G2 X97.039 Y67.927 I3.475 J1.101 E67.33938
G1 X97.04 Y89.46 E67.69748
G3 X98.851 Y90.532 I-0.245 J2.479 E67.73361
M204 S5000
M205 X30 Y30
G0 F3150 X97.345 Y67.268
M204 S3000
M205 X20 Y20
G1 F1650 X99.265 Y65.349 E67.77876
M204 S5000
M205 X30 Y30
G0 F3150 X99.94 Y65.239
M204 S3000
M205 X20 Y20
G1 F1650 X97.239 Y67.94 E67.84228
M204 S5000
M205 X30 Y30
G0 F3150 X97.239 Y68.506
M204 S3000
M205 X20 Y20
G1 F1650 X100.445 Y65.3 E67.91768
M204 S5000
M205 X30 Y30
G0 F3150 X100.923 Y65.387
M204 S3000
M205 X20 Y20
G1 F1650 X97.239 Y69.072 E68.00433
M204 S5000
M205 X30 Y30
G0 F3150 X97.239 Y69.637
M204 S3000
M205 X20 Y20
G1 F1650 X101.297 Y65.579 E68.09977
M204 S5000
M205 X30 Y30
G0 F3150 X101.648 Y65.794
M204 S3000
M205 X20 Y20
G1 F1650 X97.239 Y70.203 E68.20346
M204 S5000
M205 X30 Y30
G0 F3150 X97.239 Y70.769
M204 S3000
M205 X20 Y20
G1 F1650 X101.949 Y66.058 E68.31425
M204 S5000
M205 X30 Y30
G0 F3150 X102.217 Y66.357
M204 S3000
M205 X20 Y20
G1 F1650 X97.239 Y71.335 E68.43132
M204 S5000
M205 X30 Y30
G0 F3150 X97.239 Y71.9
M204 S3000
M205 X20 Y20
G1 F1650 X102.434 Y66.705 E68.5535
M204 S5000
M205 X30 Y30
G0 F3150 X102.588 Y67.117
M204 S3000
M205 X20 Y20
G1 F1650 X97.239 Y72.466 E68.6793
M204 S5000
M205 X30 Y30
G0 F3150 X97.239 Y73.032
M204 S3000
M205 X20 Y20
G1 F1650 X102.713 Y67.557 E68.80805
M204 S5000
M205 X30 Y30
G0 F3150 X102.76 Y68.076
M204 S3000
M205 X20 Y20
G1 F1650 X97.239 Y73.597 E68.9379
M204 S5000
M205 X30 Y30
G0 F3150 X97.239 Y74.163
M204 S3000
M205 X20 Y20
G1 F1650 X102.76 Y68.642 E69.06774
M204 S5000
M205 X30 Y30
G0 F3150 X102.76 Y69.208
M204 S3000
M205 X20 Y20
G1 F1650 X97.239 Y74.729 E69.19759
M204 S5000
M205 X30 Y30
G0 F3150 X97.239 Y75.294
M204 S3000
M205 X20 Y20
G1 F1650 X102.76 Y69.773 E69.32743
M204 S5000
M205 X30 Y30
G0 F3150 X102.76 Y70.339
M204 S3000
M205 X20 Y20
G1 F1650 X97.239 Y75.86 E69.45728
M204 S5000
M205 X30 Y30
G0 F3150 X97.239 Y76.426
M204 S3000
M205 X20 Y20
G1 F1650 X102.76 Y70.905 E69.58713
M204 S5000
M205 X30 Y30
G0 F3150 X102.76 Y71.47
M204 S3000
M205 X20 Y20
G1 F1650 X97.239 Y76.991 E69.71697
M204 S5000
M205 X30 Y30
G0 F3150 X97.239 Y77.557
M204 S3000
M205 X20 Y20
G1 F1650 X102.76 Y72.036 E69.84682
M204 S5000
M205 X30 Y30
G0 F3150 X102.76 Y72.602
M204 S3000
M205 X20 Y20
G1 F1650 X97.239 Y78.123 E69.97666
M204 S5000
M205 X30 Y30
G0 F3150 X97.239 Y78.688
M204 S3000
M205 X20 Y20
G1 F1650 X102.76 Y73.167 E70.10651
M204 S5000
M205 X30 Y30
G0 F3150 X102.76 Y73.733
M204 S3000
M205 X20 Y20
G1 F1650 X97.239 Y79.254 E70.23635
M204 S5000
M205 X30 Y30
G0 F3150 X97.239 Y79.82
M204 S3000
M205 X20 Y20
G1 F1650 X102.76 Y74.299 E70.3662
M204 S5000
M205 X30 Y30
G0 F3150 X102.76 Y74.864
M204 S3000
M205 X20 Y20
G1 F1650 X97.239 Y80.386 E70.49606
M204 S5000
M205 X30 Y30
G0 F3150 X97.239 Y80.951
M204 S3000
M205 X20 Y20
G1 F1650 X102.76 Y75.43 E70.6259
M204 S5000
M205 X30 Y30
G0 F3150 X102.76 Y75.996
M204 S3000
M205 X20 Y20
G1 F1650 X97.239 Y81.517 E70.75575
M204 S5000
M205 X30 Y30
G0 F3150 X97.239 Y82.083
M204 S3000
M205 X20 Y20
G1 F1650 X102.76 Y76.561 E70.8856
M204 S5000
M205 X30 Y30
G0 F3150 X102.76 Y77.127
