;FLAVOR:Marlin
;TIME:19270
;Filament used: 21.6499m
;Layer height: 0.2
;MINX:25.502
;MINY:20.001
;MINZ:0.3
;MAXX:174.498
;MAXY:168.998
;MAXZ:10.1
;ARCWELDERPROCESSED
; Postprocessed by [ArcWelder](https://github.com/FormerLurker/ArcWelderLib)
; Copyright(C) 2021 - Brad Hochgesang
; Version: 1.2.0, Branch: master, BuildDate: 2021-11-22T09:56:32Z
; resolution=0.05mm
; path_tolerance=5.0%
; max_radius=9999.00mm
; default_xyz_precision=3
; default_e_precision=5
; extrusion_rate_variance_percent=5.0%

;Generated with Cura_SteamEngine main
M140 S60
M105
M190 S60
M104 S210
M105
M109 S210
M82 ;absolute extrusion mode
G21 ;metric values
G90 ;absolute positioning
M82 ;set extruder to absolute mode
M107 ;start with the fan off
G28 X0 Y0 ;move X/Y to min endstops
G28 Z0 ;move Z to min endstops
G1 Z15.0 F9000 ;move the platform down 15mm
G92 E0 ;zero the extruded length
G1 F200 E3 ;extrude 3 mm of feed stock
G92 E0 ;zero the extruded length again
G1 F9000
;Put printing message on LCD screen
M117 Printing...
G92 E0
G92 E0
G1 F2400 E-1
;LAYER_COUNT:50
;LAYER:0
M107
M204 S5000
M205 X30 Y30
G1 F600 Z1.3
G0 F2100 X27.743 Y23.365 Z1.3
G1 F600 Z1.3
G0 F2100 X25.505 Y29.88
M204 S3000
M205 X20 Y20
;TYPE:SKIRT
G1 F600 Z0.3
G1 F2400 E0
G3 X35.253 Y20.004 I9.500 J-0.372 E1.16266 F1650
G1 X164.398 Y20.001 E10.82726
G3 X174.026 Y26.544 I0.497 J9.624 E11.76291
G3 X174.498 Y29.687 I-9.813 J3.081 E12.00164
G1 X174.496 Y159.236 E21.69648
G3 X164.747 Y168.996 I-9.523 J0.237 E22.85059
G1 X35.507 Y168.998 E32.52231
G3 X25.502 Y159.314 I-0.467 J-9.528 E33.68957
G1 X25.505 Y29.88 E43.3758
M204 S5000
M205 X30 Y30
G0 F2100 X26.105 Y29.892
M204 S3000
M205 X20 Y20
G3 X35.253 Y20.604 I8.900 J-0.384 E44.46917 F1650
G1 X164.398 Y20.601 E54.13378
G3 X167.787 Y21.056 I0.487 J9.222 E54.39096
G3 X173.898 Y29.687 I-2.802 J8.463 E55.23781
G1 X173.896 Y159.228 E64.93205
G3 X164.747 Y168.396 I-8.928 J0.239 E66.01659
G1 X35.52 Y168.398 E75.68733
G3 X26.102 Y159.314 I-0.462 J-8.945 E76.78518
G1 X26.105 Y29.892 E86.47052
M204 S5000
M205 X30 Y30
G0 F2100 X26.705 Y29.903
M204 S3000
M205 X20 Y20
G3 X33.097 Y21.425 I8.310 J-0.384 E87.33153 F1650
G1 X34.338 Y21.216 E87.42571
G1 X35.253 Y21.204 E87.49419
G1 X164.398 Y21.201 E97.15879
G3 X170.361 Y23.162 I0.427 J8.748 E97.63945
G3 X173.298 Y29.687 I-5.388 J6.349 E98.19250
G1 X173.296 Y159.219 E107.88607
G3 X166.903 Y167.575 I-8.307 J0.268 E108.73816
G1 X165.662 Y167.784 E108.83234
G1 X164.747 Y167.796 E108.90082
G1 X35.532 Y167.798 E118.57066
G3 X26.702 Y159.314 I-0.471 J-8.346 E119.59901
G1 X26.705 Y29.903 E129.28352
M204 S5000
M205 X30 Y30
G1 F2400 E128.28352
G1 F600 Z1.3
;MESH:cover.stl
G0 F2100 X34.532 Y31.107 Z1.3
M204 S3000
M205 X20 Y20
;TYPE:WALL-INNER
G1 F600 Z0.3
G1 F2400 E129.28352
G3 X39.644 Y29.771 I2.970 J0.915 E129.75642 F1650
G3 X40.251 Y30.555 I-2.183 J2.317 E129.83084
G1 X40.543 Y31.368 E129.89548
G3 X39.536 Y34.337 I-3.009 J0.635 E130.14105
G1 X38.85 Y34.811 E130.20345
G3 X34.413 Y31.769 I-1.302 J-2.858 E130.68802
G1 X34.532 Y31.107 E130.73836
M204 S5000
M205 X30 Y30
G0 F2100 X35.388 Y33.229
G0 X35.853 Y33.78
G0 X43.525 Y39.221
M204 S3000
M205 X20 Y20
G3 X44.887 Y38.004 I1.476 J0.281 E130.88484 F1650
G1 X71.762 Y37.999 E132.89604
G3 X73.168 Y39.391 I-0.104 J1.511 E133.05687
G1 X73.165 Y87.091 E136.62652
G3 X71.781 Y88.500 I-1.507 J-0.096 E136.78702
G1 X44.896 Y88.497 E138.79896
G3 X43.503 Y87.100 I0.103 J-1.496 E138.95968
G1 X43.5 Y39.5 E142.52184
G1 X43.525 Y39.221 E142.5428
M204 S5000
M205 X30 Y30
G0 F2100 X44.172 Y38.672
G0 X73.567 Y32.219
M204 S3000
M205 X20 Y20
G3 X79.398 Y30.532 I3.104 J-0.191 E143.17196 F1650
G1 X79.725 Y31.364 E143.23886
G1 X79.757 Y32.435 E143.31904
G3 X79.094 Y33.921 I-3.303 J-0.583 E143.44190
G1 X78.51 Y34.503 E143.5036
G3 X76.126 Y35.069 I-1.907 J-2.727 E143.69121
G1 X75.223 Y34.766 E143.76249
G3 X73.793 Y33.189 I1.696 J-2.975 E143.92420
G3 X73.567 Y32.219 I5.849 J-1.874 E143.99878
M204 S5000
M205 X30 Y30
G0 F2100 X75.006 Y33.793
G0 X75.54 Y34.174
G0 X76.239 Y34.409
G0 X120.254 Y32.472
M204 S3000
M205 X20 Y20
G3 X121.627 Y29.424 I3.243 J-0.372 E144.26216 F1650
G3 X126.423 Y32.344 I1.709 J2.591 E144.78648
G1 X126.181 Y33.282 E144.85897
G1 X125.551 Y34.195 E144.94198
G3 X123.444 Y35.115 I-2.335 J-2.476 E145.11727
G1 X122.446 Y34.992 E145.19252
G1 X121.658 Y34.619 E145.25776
G3 X120.578 Y33.467 I2.012 J-2.968 E145.37667
G1 X120.254 Y32.472 E145.45498
M204 S5000
M205 X30 Y30
G0 F2100 X126.92 Y38.995
M204 S3000
M205 X20 Y20
G3 X128.195 Y38.000 I1.426 J0.513 E145.58215 F1650
G1 X155.104 Y38.003 E147.59589
G3 X156.497 Y39.400 I-0.097 J1.490 E147.75663
G1 X156.499 Y87.077 E151.32456
G3 X155.114 Y88.496 I-1.498 J-0.077 E151.48602
G1 X128.219 Y88.5 E153.49871
G3 X126.835 Y87.091 I0.120 J-1.502 E153.65921
G1 X126.833 Y39.5 E157.2207
G1 X126.92 Y38.995 E157.25905
M204 S5000
M205 X30 Y30
G0 F2100 X159.458 Y32.633
M204 S3000
M205 X20 Y20
G3 X164.194 Y29.405 I3.056 J-0.605 E157.80374 F1650
G1 X164.794 Y29.897 E157.86181
G1 X165.236 Y30.514 E157.91861
G3 X165.379 Y33.147 I-3.017 J1.484 E158.12172
G3 X160.259 Y34.152 I-2.889 J-1.174 E158.58446
G1 X159.778 Y33.526 E158.64354
G1 X159.458 Y32.633 E158.71453
M204 S5000
M205 X30 Y30
G0 F2100 X159.458 Y95.133
M204 S3000
M205 X20 Y20
G3 X160.464 Y92.163 I3.056 J-0.620 E158.96005 F1650
G1 X161.151 Y91.688 E159.02255
G1 X161.994 Y91.426 E159.08862
G1 X162.797 Y91.41 E159.14872
G3 X163.982 Y91.781 I-0.305 J3.051 E159.24211
G1 X164.644 Y92.271 E159.30374
G3 X163.089 Y97.553 I-2.172 J2.231 E159.80946
G1 X162.273 Y97.607 E159.87066
G1 X161.466 Y97.422 E159.93261
G3 X159.778 Y96.026 I1.081 J-3.026 E160.09952
G1 X159.458 Y95.133 E160.17051
M204 S5000
M205 X30 Y30
G0 F2100 X117.986 Y101.167
G0 X111.18 Y109.239
M204 S3000
M205 X20 Y20
G2 X117.201 Y101.321 I-11.242 J-14.797 E160.92408 F1650
G3 X118.421 Y100.499 I1.357 J0.698 E161.03874
G1 X155.104 Y100.503 E163.78393
G3 X156.497 Y101.900 I-0.097 J1.490 E163.94467
G1 X156.499 Y149.577 E167.51259
G3 X155.114 Y150.996 I-1.498 J-0.077 E167.67406
G1 X107.419 Y150.998 E171.24333
G3 X106.003 Y149.600 I0.079 J-1.497 E171.40574
G1 X106 Y113.04 E174.14172
G3 X106.787 Y111.712 I1.528 J0.008 E174.26259
G2 X111.180 Y109.239 I-6.866 J-17.336 E174.64100
M204 S5000
M205 X30 Y30
G0 F2100 X96.703 Y98.315
G0 X96.181 Y97.772
G0 X94.308 Y95.122
M204 S3000
M205 X20 Y20
G1 F1650 X94.31 Y93.958 E174.72811
G3 X98.384 Y89.032 I5.697 J0.564 E175.23502
G1 X99.382 Y88.808 E175.31156
G3 X103.739 Y90.193 I0.480 J6.036 E175.66263
G3 X105.690 Y93.879 I-4.047 J4.501 E175.98127
G1 X105.692 Y95.122 E176.07429
G3 X102.949 Y99.383 I-5.949 J-0.816 E176.46615
G3 X98.903 Y100.100 I-2.960 J-4.931 E176.78059
G1 X97.83 Y99.775 E176.86449
G3 X94.537 Y96.133 I2.147 J-5.251 E177.24404
G1 X94.308 Y95.122 E177.32161
M204 S5000
M205 X30 Y30
G0 F2100 X83.978 Y103.749
M204 S3000
M205 X20 Y20
G2 X93.177 Y111.700 I16.069 J-9.294 E178.24860 F1650
G3 X93.995 Y112.910 I-0.676 J1.339 E178.36238
G1 X93.999 Y149.577 E181.10637
G3 X92.614 Y150.996 I-1.498 J-0.077 E181.26783
G1 X44.896 Y150.997 E184.83882
G3 X43.501 Y149.568 I0.104 J-1.497 E185.00190
G1 X43.5 Y102 E188.56166
G3 X44.887 Y100.504 I1.497 J-0.003 E188.72911
G1 X81.546 Y100.502 E191.4725
G3 X82.799 Y101.321 I-0.086 J1.500 E191.58940
G2 X83.978 Y103.749 I18.162 J-7.319 E191.79155
M204 S5000
M205 X30 Y30
G0 F2100 X99.62 Y76.004
M204 S3000
M205 X20 Y20
G2 X87.481 Y80.851 I0.420 J18.677 E192.79069 F1650
G3 X85.167 Y79.698 I-0.807 J-1.280 E193.02192
G1 X85.168 Y39.429 E196.03546
G3 X86.531 Y38.000 I1.508 J0.073 E196.19605
G1 X113.333 Y38 E198.20179
G3 X114.833 Y39.456 I0.002 J1.499 E198.37439
G1 X114.833 Y79.695 E201.38569
G3 X112.449 Y80.791 I-1.500 J-0.122 E201.62352
G2 X99.620 Y76.004 I-12.477 J13.853 E202.67263
M204 S5000
M205 X30 Y30
G0 F2100 X72.495 Y87.828
G0 X37.1 Y92.088
G0 X36.215 Y92.42
G0 X35.698 Y92.847
G0 X34.45 Y95.108
M204 S3000
M205 X20 Y20
G3 X34.566 Y93.520 I3.109 J-0.571 E202.79290 F1650
G1 X34.925 Y92.778 E202.85458
G1 X35.356 Y92.271 E202.90438
G1 X36.015 Y91.782 E202.96579
G3 X40.222 Y92.974 I1.483 J2.788 E203.32718
G1 X40.543 Y93.87 E203.39841
G3 X39.536 Y96.837 I-3.008 J0.633 E203.64383
G1 X38.85 Y97.311 E203.70623
G3 X34.699 Y95.806 I-1.307 J-2.873 E204.07243
G1 X34.45 Y95.108 E204.12788
M204 S5000
M205 X30 Y30
G0 F2100 X34.532 Y156.107
M204 S3000
M205 X20 Y20
G3 X36.175 Y154.196 I2.992 J0.911 E204.32161 F1650
G1 X36.991 Y153.92 E204.38608
G1 X37.985 Y153.929 E204.46047
G1 X38.767 Y154.153 E204.52134
G3 X40.379 Y158.147 I-1.321 J2.855 E204.87621
G3 X34.763 Y158.483 I-2.889 J-1.180 E205.40068
G1 X34.452 Y157.617 E205.46954
G3 X34.532 Y156.107 I3.357 J-0.579 E205.58352
M204 S5000
M205 X30 Y30
G0 F2100 X31.501 Y159.549
M204 S3000
M205 X20 Y20
G1 F1650 X31.616 Y160.412 E205.64867
G2 X34.948 Y162.998 I3.396 J-0.936 E205.98691
G1 X165.257 Y162.996 E215.73862
G2 X168.496 Y159.757 I-0.289 J-3.528 E216.11151
G1 X168.498 Y29.451 E225.863
G1 X168.384 Y28.589 E225.92807
G2 X165.052 Y26.002 I-3.397 J0.936 E226.26635
G1 X34.743 Y26.005 E236.01807
G2 X31.504 Y29.198 I0.286 J3.530 E236.38750
G1 X31.501 Y159.549 E246.14235
M204 S5000
M205 X30 Y30
G0 F2100 X35.138 Y159.472
G0 X96.958 Y157.635
M204 S3000
M205 X20 Y20
G3 X97.964 Y154.663 I3.057 J-0.621 E246.38803 F1650
G1 X98.651 Y154.188 E246.45053
G3 X103.108 Y156.829 I1.305 J2.878 E246.90543
G3 X97.601 Y158.959 I-3.111 J0.141 E247.48660
G1 X97.25 Y158.449 E247.53293
G1 X96.958 Y157.635 E247.59764
M204 S5000
M205 X30 Y30
G0 F2100 X98.715 Y159.08
G0 X99.708 Y159.413
G0 X159.459 Y157.635
M204 S3000
M205 X20 Y20
G3 X160.464 Y154.663 I3.052 J-0.624 E247.84332 F1650
G1 X161.151 Y154.188 E247.90583
G3 X165.530 Y157.657 I1.299 J2.858 E248.42231
G3 X160.356 Y159.229 I-3.030 J-0.671 E248.91359
G3 X159.749 Y158.445 I2.183 J-2.317 E248.98801
G1 X159.459 Y157.635 E249.05239
M204 S5000
M205 X30 Y30
G0 F2100 X160.043 Y157.488
M204 S3000
M205 X20 Y20
G3 X161.278 Y159.178 I2.446 J-0.491 E250.06398 F1650
G1 X160.652 Y158.7 E250.12292
G1 X160.292 Y158.182 E250.17013
G1 X160.043 Y157.488 E250.22531
M204 S5000
M205 X30 Y30
G0 F2100 X160.292 Y95.683
M204 S3000
M205 X20 Y20
G1 F1650 X160.053 Y95.007 E250.27896
G3 X164.524 Y95.962 I2.445 J-0.502 E251.02034
G1 X164.165 Y96.377 E251.0614
G1 X163.541 Y96.78 E251.11699
G3 X160.292 Y95.683 I-1.026 J-2.322 E251.39847
M204 S5000
M205 X30 Y30
G0 F2100 X117.986 Y101.167
G0 X108.845 Y111.428
M204 S3000
M205 X20 Y20
G2 X117.743 Y101.572 I-8.795 J-16.884 E252.41329 F1650
G3 X118.540 Y101.099 I0.800 J0.440 E252.48578
G1 X155.063 Y101.102 E255.21899
G3 X155.899 Y101.940 I-0.065 J0.901 E255.31507
G1 X155.9 Y149.547 E258.87776
G3 X155.104 Y150.401 I-0.928 J-0.067 E258.97191
G1 X107.451 Y150.399 E262.53803
G3 X106.601 Y149.560 I0.048 J-0.899 E262.63538
G1 X106.6 Y113.04 E265.36837
G1 X106.701 Y112.623 E265.40047
G3 X107.093 Y112.236 I0.811 J0.430 E265.44218
G2 X108.845 Y111.428 I-6.213 J-15.776 E265.58662
M204 S5000
M205 X30 Y30
G0 F2100 X96.057 Y97.643
G3 X95.356 Y96.461 I3.931 J-3.130
G0 X95.009 Y95.213
G0 X94.908 Y93.994
G0 X94.909 Y93.994
M204 S3000
M205 X20 Y20
G3 X100.976 Y89.493 I5.105 J0.542 E266.22176 F1650
G1 X101.976 Y89.798 E266.3
G3 X101.466 Y99.387 I-1.981 J4.703 E267.23570
G1 X100.545 Y99.588 E267.30624
G3 X94.909 Y93.994 I-0.487 J-5.146 E267.98416
M204 S5000
M205 X30 Y30
G0 F2100 X94.908 Y93.994
G0 X83.458 Y104.05
G0 X83.458 Y104.049
M204 S3000
M205 X20 Y20
G2 X92.907 Y112.236 I16.571 J-9.580 E268.93724 F1650
G3 X93.397 Y112.962 I-0.411 J0.806 E269.00549
G1 X93.4 Y149.547 E271.74334
G3 X92.604 Y150.401 I-0.928 J-0.067 E271.83749
G1 X44.937 Y150.398 E275.40467
G3 X44.261 Y150.016 I0.064 J-0.902 E275.46423
G3 X44.100 Y149.541 I0.753 J-0.520 E275.50212
G1 X44.1 Y102 E279.05986
G1 X44.197 Y101.591 E279.09132
G3 X44.932 Y101.102 I0.801 J0.407 E279.15995
G1 X81.618 Y101.101 E281.90536
G3 X82.256 Y101.571 I-0.214 J0.959 E281.96615
G2 X83.458 Y104.049 I18.322 J-7.357 E282.17243
M204 S5000
M205 X30 Y30
G0 F2100 X83.458 Y104.05
G0 X89.105 Y78.814
M204 S3000
M205 X20 Y20
G2 X87.160 Y80.342 I11.032 J16.044 E282.35762 F1650
G1 X86.734 Y80.479 E282.3911
G3 X85.772 Y79.680 I-0.068 J-0.897 E282.49411
G1 X85.767 Y39.457 E285.50421
G3 X86.591 Y38.600 I0.904 J0.044 E285.60070
G1 X113.478 Y38.6 E287.6128
G3 X114.233 Y39.398 I-0.175 J0.922 E287.70015
G1 X114.228 Y79.677 E290.71444
G3 X112.759 Y80.273 I-0.896 J-0.099 E290.85885
G2 X89.105 Y78.814 I-12.751 J14.249 E292.77139
M204 S5000
M205 X30 Y30
G0 F2100 X86.791 Y80.559
G0 X85.834 Y80.109
G0 X74.196 Y32.342
G0 X74.196 Y32.344
M204 S3000
M205 X20 Y20
G3 X78.867 Y30.811 I2.480 J-0.327 E293.29088 F1650
G1 X79.128 Y31.487 E293.34511
G1 X79.152 Y32.341 E293.40904
G3 X77.474 Y34.377 I-2.597 J-0.431 E293.61601
G3 X74.969 Y33.834 I-0.773 J-2.483 E293.81678
G3 X74.196 Y32.344 I1.551 J-1.750 E293.94482
M204 S5000
M205 X30 Y30
G0 F2100 X74.196 Y32.342
G0 X44.172 Y38.672
G0 X44.197 Y39.091
M204 S3000
M205 X20 Y20
G3 X44.932 Y38.602 I0.801 J0.407 E294.01344 F1650
G1 X71.776 Y38.599 E296.02232
G3 X72.568 Y39.361 I-0.136 J0.934 E296.10961
G1 X72.566 Y87.055 E299.6788
G3 X71.765 Y87.895 I-0.898 J-0.055 E299.77270
G1 X44.937 Y87.898 E301.78038
G3 X44.101 Y87.060 I0.062 J-0.898 E301.87643
G1 X44.1 Y39.5 E305.43559
G1 X44.197 Y39.091 E305.46705
M204 S5000
M205 X30 Y30
G0 F2100 X44.1 Y39.091
G0 X36.251 Y34.102
G0 X35.697 Y33.654
G0 X35.039 Y32.476
M204 S3000
M205 X20 Y20
G3 X38.722 Y29.822 I2.463 J-0.464 E305.89125 F1650
G1 X39.348 Y30.3 E305.95019
G1 X39.708 Y30.818 E305.9974
G1 X39.957 Y31.513 E306.05265
G3 X35.264 Y33.103 I-2.454 J0.476 E306.59031
G1 X35.039 Y32.476 E306.64016
M204 S5000
M205 X30 Y30
G0 F2100 X35.039 Y94.975
M204 S3000
M205 X20 Y20
G3 X40.000 Y94.527 I2.460 J-0.451 E307.26389 F1650
G3 X35.264 Y95.603 I-2.496 J-0.024 E307.76277
G1 X35.039 Y94.975 E307.81269
M204 S5000
M205 X30 Y30
G0 F2100 X35.091 Y157.407
G0 X35.303 Y158.212
M204 S3000
M205 X20 Y20
G1 F1650 X35.039 Y157.476 E307.87121
G3 X37.086 Y154.522 I2.497 J-0.456 E308.16946
G1 X37.912 Y154.525 E308.23127
G3 X35.303 Y158.212 I-0.425 J2.466 E308.98603
M204 S5000
M205 X30 Y30
G0 F2100 X30.901 Y159.572
G0 X30.901 Y159.571
M204 S3000
M205 X20 Y20
G2 X34.926 Y163.598 I4.105 J-0.078 E309.45708 F1650
G1 X165.308 Y163.596 E319.21426
G2 X169.096 Y159.804 I-0.340 J-4.127 E319.65055
G1 X169.098 Y29.429 E329.4072
G2 X165.074 Y25.402 I-4.103 J0.076 E329.87825
G1 X34.692 Y25.405 E339.63542
G2 X30.904 Y29.329 I0.333 J4.112 E340.08143
G1 X30.901 Y159.571 E349.82813
M204 S5000
M205 X30 Y30
G0 F2100 X30.901 Y159.572
G0 X34.879 Y159.482
G0 X97.543 Y157.488
M204 S3000
M205 X20 Y20
G3 X100.748 Y154.621 I2.451 J-0.484 E350.21493 F1650
G3 X98.778 Y159.178 I-0.748 J2.381 E350.83984
G1 X98.15 Y158.699 E350.89894
G1 X97.792 Y158.182 E350.946
G1 X97.543 Y157.488 E351.00118
M204 S5000
M205 X30 Y30
G0 F2100 X97.63 Y156.405
G0 X106.667 Y112.486
G0 X127.433 Y39.197
G0 X127.485 Y39.197
M204 S3000
M205 X20 Y20
G3 X128.249 Y38.600 I0.854 J0.306 E351.07743 F1650
G1 X155.063 Y38.602 E353.08406
G3 X155.899 Y39.440 I-0.065 J0.901 E353.18015
G1 X155.9 Y87.047 E356.74283
G3 X155.104 Y87.901 I-0.928 J-0.067 E356.83698
G1 X128.235 Y87.895 E358.84773
G3 X127.434 Y87.055 I0.099 J-0.896 E358.94176
G1 X127.433 Y39.5 E362.50055
G1 X127.485 Y39.197 E362.52356
M204 S5000
M205 X30 Y30
G0 F2100 X127.433 Y39.197
G0 X121.524 Y33.647
G0 X121.025 Y32.798
G0 X120.851 Y31.643
G0 X120.857 Y31.647
M204 S3000
M205 X20 Y20
G3 X125.600 Y33.069 I2.472 J0.375 E363.16538 F1650
G1 X125.145 Y33.727 E363.22525
G3 X123.423 Y34.508 I-1.830 J-1.746 E363.36985
G1 X122.619 Y34.409 E363.43047
G3 X121.101 Y33.133 I0.773 J-2.461 E363.58238
G1 X120.852 Y32.38 E363.64173
G3 X120.857 Y31.647 I5.812 J-0.327 E363.69660
M204 S5000
M205 X30 Y30
G0 F2100 X120.851 Y31.643
G0 X121.335 Y30.59
G0 X121.821 Y30.072
G0 X122.559 Y29.676
G0 X160.002 Y32.035
M204 S3000
M205 X20 Y20
G3 X164.165 Y33.877 I2.498 J-0.020 E364.44332 F1650
G1 X163.541 Y34.28 E364.4989
G3 X160.002 Y32.035 I-1.024 J-2.297 E364.86957
M204 S5000
M205 X30 Y30
G0 F2100 X160.632 Y32.349
M204 S3000
M205 X20 Y20
;TYPE:WALL-OUTER
G3 X160.845 Y32.938 I1.865 J-0.341 E365.71384 F1650
G1 X160.632 Y32.349 E365.76071
M204 S5000
M205 X30 Y30
