;FLAVOR:Marlin
;TIME:2996
;Filament used: 3.307m
;Layer height: 0.2
;MINX:58.007
;MINY:73.771
;MINZ:0.3
;MAXX:142.004
;MAXY:115.336
;MAXZ:10.1
;ARCWELDERPROCESSED
; Postprocessed by [ArcWelder](https://github.com/FormerLurker/ArcWelderLib)
; Copyright(C) 2021 - Brad Hochgesang
; Version: 1.2.0, Branch: master, BuildDate: 2021-11-22T09:56:32Z
; resolution=0.05mm
; path_tolerance=5.0%
; max_radius=9999.00mm
; default_xyz_precision=3
; default_e_precision=5
; extrusion_rate_variance_percent=5.0%

;Generated with Cura_SteamEngine main
M140 S60
M105
M190 S60
M104 S210
M105
M109 S210
M82 ;absolute extrusion mode
G21 ;metric values
G90 ;absolute positioning
M82 ;set extruder to absolute mode
M107 ;start with the fan off
G28 X0 Y0 ;move X/Y to min endstops
G28 Z0 ;move Z to min endstops
G1 Z15.0 F9000 ;move the platform down 15mm
G92 E0 ;zero the extruded length
G1 F200 E3 ;extrude 3 mm of feed stock
G92 E0 ;zero the extruded length again
G1 F9000
;Put printing message on LCD screen
M117 Printing...
G92 E0
G92 E0
G1 F2400 E-1
;LAYER_COUNT:50
;LAYER:0
M107
M204 S5000
M205 X30 Y30
G1 F600 Z1.3
G0 F2100 X65.473 Y79.163 Z1.3
G1 F600 Z1.3
G0 F2100 X58.509 Y90.082
M204 S3000
M205 X20 Y20
;TYPE:SKIRT
G1 F600 Z0.3
G1 F2400 E0
G3 X69.002 Y76.937 I19.195 J4.562 E1.30023 F1650
G2 X73.175 Y74.538 I-55.598 J-101.541 E1.66046
G3 X75.049 Y73.924 I2.373 J4.075 E1.80903
G3 X80.531 Y74.037 I2.338 J19.597 E2.22079
G2 X95.263 Y76.689 I24.298 J-92.733 E3.34209
G1 X128.327 Y80.01 E5.8289
G3 X139.408 Y102.765 I-0.870 J14.499 E8.12857
G3 X128.902 Y108.927 I-11.866 J-8.194 E9.06902
G1 X95.55 Y112.282 E11.57753
G2 X80.353 Y115.055 I9.517 J95.187 E12.73480
G3 X74.373 Y115.044 I-2.959 J-16.642 E13.18487
G3 X72.610 Y114.216 I1.687 J-5.883 E13.33133
G2 X67.517 Y111.234 I-68.569 J111.270 E13.77303
G3 X58.509 Y90.082 I9.993 J-16.750 E15.61273
M204 S5000
M205 X30 Y30
G1 F2400 E14.61273
G1 F600 Z1.3
G0 F2100 X58.614 Y94.07 Z1.3
M204 S3000
M205 X20 Y20
G1 F600 Z0.3
G1 F2400 E15.61273
G3 X68.045 Y78.143 I18.965 J0.474 E17.05998 F1650
G2 X73.481 Y75.055 I-57.053 J-106.762 E17.52788
G3 X75.118 Y74.520 I2.072 J3.567 E17.65763
G3 X77.434 Y74.358 I5.597 J63.387 E17.83138
G3 X80.387 Y74.620 I-1.079 J28.929 E18.05341
G2 X95.201 Y77.286 I24.420 J-93.200 E19.18094
G1 X128.259 Y80.606 E21.66729
G3 X141.041 Y97.591 I-0.810 J13.911 E23.47679
G3 X128.823 Y108.332 I-13.536 J-3.078 E24.77739
G1 X95.482 Y111.686 E27.28507
G2 X80.203 Y114.474 I9.541 J95.548 E28.44859
G3 X74.476 Y114.452 I-2.801 J-16.177 E28.87959
G3 X72.919 Y113.702 I1.624 J-5.363 E29.00952
G2 X67.972 Y110.809 I-61.907 J100.184 E29.43843
G3 X58.614 Y94.070 I9.518 J-16.307 E30.94341
M204 S5000
M205 X30 Y30
G0 F2100 X59.202 Y94.759
M204 S3000
M205 X20 Y20
G3 X68.350 Y78.659 I18.366 J-0.214 E32.39562 F1650
G2 X73.786 Y75.571 I-56.796 J-106.311 E32.86352
G3 X75.175 Y75.119 I1.750 J3.017 E32.97358
G3 X77.436 Y74.959 I5.253 J58.183 E33.14321
G3 X80.243 Y75.202 I-1.102 J29.068 E33.35421
G2 X95.134 Y77.883 I24.611 J-94.001 E34.48761
G1 X128.19 Y81.203 E36.97382
G3 X139.680 Y99.850 I-0.748 J13.324 E38.89635
G3 X128.639 Y107.749 I-12.226 J-5.423 E39.96190
G1 X95.414 Y111.09 E42.46084
G2 X80.054 Y113.893 I9.599 J96.085 E43.63054
G3 X77.251 Y114.153 I-3.698 J-24.631 E43.84137
G3 X74.583 Y113.860 I1.707 J-27.834 E44.04236
G1 X73.959 Y113.641 E44.09185
G2 X68.162 Y110.222 I-68.022 J108.709 E44.59555
G3 X59.202 Y94.759 I9.353 J-15.747 E45.99236
M204 S5000
M205 X30 Y30
G1 F2400 E44.99236
G1 F600 Z1.3
G0 F2100 X77.343 Y110.267 Z1.3
M204 S3000
M205 X20 Y20
;TYPE:SUPPORT
G1 F600 Z0.3
G1 F2400 E45.99236
G1 F1650 X77.343 Y110.931 E46.04205
M204 S5000
M205 X30 Y30
G1 F2400 E45.04205
G1 F600 Z1.3
G0 F2100 X77.343 Y78.733 Z1.3
M204 S3000
M205 X20 Y20
G1 F600 Z0.3
G1 F2400 E46.04205
G1 F1650 X77.343 Y78.181 E46.08335
M204 S5000
M205 X30 Y30
G1 F2400 E45.08335
G1 F600 Z1.3
;MESH:handle-1.stl
G0 F2100 X71.918 Y94.033 Z1.3
M204 S3000
M205 X20 Y20
;TYPE:WALL-INNER
G1 F600 Z0.3
G1 F2400 E46.08335
G3 X73.054 Y91.084 I5.677 J0.494 E46.32286 F1650
G1 X73.825 Y90.263 E46.40714
G3 X74.717 Y89.903 I1.005 J1.205 E46.48000
G1 X80.33 Y89.9 E46.90005
G3 X81.190 Y90.279 I-0.217 J1.657 E46.97122
G3 X82.501 Y91.919 I-4.490 J4.934 E47.12883
G3 X83.026 Y93.582 I-5.891 J2.774 E47.25961
G3 X81.946 Y97.908 I-5.534 J0.916 E47.60251
G1 X81.192 Y98.72 E47.68543
G3 X80.330 Y99.099 I-1.074 J-1.272 E47.75674
G1 X74.693 Y99.096 E48.17859
G3 X73.754 Y98.661 I0.123 J-1.496 E48.25743
G3 X71.918 Y94.033 I3.734 J-4.160 E48.64361
M204 S5000
M205 X30 Y30
G0 F2100 X64.004 Y94.219
M204 S3000
M205 X20 Y20
G2 X78.621 Y107.952 I13.494 J0.282 E50.33546 F1650
G1 X128.359 Y102.956 E54.07635
G2 X128.363 Y86.045 I-0.859 J-8.456 E55.94513
G1 X78.631 Y81.049 E59.68557
G2 X64.004 Y94.219 I-1.141 J13.440 E61.33611
M204 S5000
M205 X30 Y30
G0 F2100 X74.455 Y90.565
G0 X80.544 Y90.564
G0 X123.02 Y94.931
M204 S3000
M205 X20 Y20
G3 X127.518 Y89.991 I4.494 J-0.426 E61.89848 F1650
G1 X128.618 Y90.128 E61.98143
G1 X129.572 Y90.497 E62.05798
G3 X126.223 Y98.808 I-2.075 J3.994 E63.05219
G3 X123.918 Y97.237 I1.282 J-4.358 E63.26429
G1 X123.4 Y96.418 E63.33681
G3 X123.020 Y94.931 I4.931 J-2.052 E63.45195
M204 S5000
M205 X30 Y30
G0 F2100 X123.718 Y93.521
M204 S3000
M205 X20 Y20
G3 X127.514 Y90.594 I3.811 J1.018 E63.83727 F1650
G1 X128.487 Y90.722 E63.91072
G3 X127.489 Y98.407 I-0.991 J3.779 E64.75363
G1 X126.537 Y98.286 E64.82545
G1 X125.707 Y97.97 E64.89191
G3 X123.718 Y93.521 I1.825 J-3.485 E65.28506
M204 S5000
M205 X30 Y30
G0 F2100 X80.544 Y90.564
G0 X74.455 Y90.565
G0 X73.574 Y91.498
G2 X72.937 Y92.630 I3.517 J2.724
G0 X72.516 Y94.083
M204 S3000
M205 X20 Y20
G3 X73.526 Y91.462 I5.009 J0.425 E65.49792 F1650
G1 X74.253 Y90.683 E65.57766
G3 X74.756 Y90.502 I0.580 J0.822 E65.61800
G1 X80.274 Y90.5 E66.03094
G3 X80.841 Y90.783 I-0.108 J0.926 E66.07903
G3 X80.791 Y98.270 I-3.342 J3.721 E66.71192
G3 X80.276 Y98.499 I-0.636 J-0.737 E66.75456
G1 X74.742 Y98.498 E67.1687
G3 X74.212 Y98.273 I0.079 J-0.923 E67.21224
G3 X73.030 Y96.787 I3.685 J-4.144 E67.35486
G3 X72.516 Y94.083 I4.715 J-2.297 E67.56305
M204 S5000
M205 X30 Y30
G0 F2100 X63.404 Y94.206
M204 S3000
M205 X20 Y20
G2 X78.670 Y108.550 I14.093 J0.297 E69.33009 F1650
G1 X128.433 Y103.551 E73.07286
G2 X128.437 Y85.449 I-0.933 J-9.051 E75.07169
G1 X78.68 Y80.451 E78.81401
G2 X63.404 Y94.206 I-1.191 J14.038 E80.53779
M204 S5000
M205 X30 Y30
G0 F2100 X62.804 Y94.193
M204 S3000
M205 X20 Y20
;TYPE:WALL-OUTER
G2 X78.718 Y109.148 I14.693 J0.309 E82.37995 F1650
G1 X128.507 Y104.147 E86.12468
G2 X128.511 Y84.853 I-1.008 J-9.647 E88.25360
G1 X78.729 Y79.853 E91.9978
G2 X62.804 Y94.193 I-1.241 J14.635 E93.79483
M204 S5000
M205 X30 Y30
G0 F2100 X62.804 Y94.393
G0 X63.403 Y94.393
G0 X72.523 Y94.04
G0 X73.114 Y94.133
M204 S3000
M205 X20 Y20
G3 X74.614 Y91.177 I4.386 J0.367 E94.04888 F1650
G1 X74.795 Y91.101 E94.06357
G1 X80.227 Y91.102 E94.47007
G1 X80.365 Y91.153 E94.48108
G3 X81.422 Y92.469 I-3.358 J3.779 E94.60784
G3 X80.404 Y97.805 I-3.995 J2.003 E95.04478
G1 X80.228 Y97.897 E95.05965
G1 X74.791 Y97.9 E95.46653
G1 X74.64 Y97.852 E95.47838
G3 X73.160 Y95.230 I2.905 J-3.368 E95.70819
G3 X73.114 Y94.133 I4.564 J-0.741 E95.79050
M204 S5000
M205 X30 Y30
G0 F2100 X73.145 Y93.936
G0 X72.554 Y93.843
G3 X73.216 Y92.037 I6.201 J1.249
G0 X73.574 Y91.498
G0 X74.455 Y90.565
G0 X80.544 Y90.564
G0 X123.616 Y94.836
G0 X124.216 Y94.836
M204 S3000
M205 X20 Y20
G3 X127.499 Y97.802 I3.282 J-0.333 E96.97851 F1650
G1 X126.683 Y97.699 E97.04006
G3 X124.216 Y94.836 I0.821 J-3.202 E97.34097
M204 S5000
M205 X30 Y30
G0 F2100 X124.216 Y94.636
G0 X123.616 Y94.636
G0 X122.445 Y95.048
M204 S3000
M205 X20 Y20
;TYPE:SKIN
G3 X127.529 Y89.407 I5.094 J-0.521 E97.98123 F1650
G1 X128.759 Y89.562 E98.074
G1 X129.829 Y89.975 E98.15984
G3 X131.560 Y91.431 I-2.422 J4.637 E98.33033
G1 X132.117 Y92.31 E98.4082
G1 X132.46 Y93.358 E98.49072
G1 X132.585 Y94.377 E98.56755
G3 X132.439 Y95.730 I-5.628 J0.077 E98.66958
G1 X132.031 Y96.823 E98.75689
G3 X123.459 Y97.599 I-4.535 J-2.358 E99.52216
G1 X122.874 Y96.667 E99.60451
G3 X122.445 Y95.048 I5.567 J-2.341 E99.73013
M204 S5000
M205 X30 Y30
G0 F2100 X80.545 Y98.435
G0 X74.456 Y98.436
G0 X73.743 Y97.68
G0 X71.323 Y94.695
M204 S3000
M205 X20 Y20
G3 X72.595 Y90.726 I6.181 J-0.207 E100.04800 F1650
G1 X73.422 Y89.844 E100.13848
G3 X74.670 Y89.325 I1.409 J1.627 E100.24111
G1 X80.382 Y89.321 E100.66857
G3 X81.599 Y89.865 I-0.251 J2.195 E100.76967
G3 X83.021 Y91.653 I-4.846 J5.314 E100.94117
G1 X83.44 Y92.781 E101.03122
G3 X82.422 Y98.252 I-5.976 J1.718 E101.46259
G1 X81.6 Y99.134 E101.55282
G3 X80.386 Y99.678 I-1.486 J-1.689 E101.65368
G1 X74.649 Y99.675 E102.08301
G3 X73.393 Y99.123 I0.177 J-2.107 E102.18735
G3 X71.979 Y97.346 I4.586 J-5.101 E102.35789
G1 X71.537 Y96.153 E102.4531
G3 X71.323 Y94.695 I6.500 J-1.699 E102.56354
M204 S5000
M205 X30 Y30
G0 F2100 X64.584 Y94.993
M204 S3000
M205 X20 Y20
G2 X78.644 Y107.367 I12.917 J-0.502 E104.13102 F1650
G1 X128.318 Y102.376 E107.8671
G2 X128.291 Y86.621 I-0.812 J-7.876 E109.60805
G1 X78.581 Y81.628 E113.34683
G2 X64.584 Y94.993 I-1.075 J12.886 E114.98332
M204 S5000
M205 X30 Y30
G0 F2100 X74.455 Y90.565
G0 X131.022 Y87.747
M204 S3000
M205 X20 Y20
G1 F1650 X134.241 Y90.966 E115.324
G1 X134.311 Y91.036
M204 S5000
M205 X30 Y30
G0 F2100 X134.809 Y92.382
M204 S3000
M205 X20 Y20
G1 F1650 X129.608 Y87.182 E115.87438
M204 S5000
M205 X30 Y30
G0 F2100 X128.539 Y86.961
M204 S3000
M205 X20 Y20
G1 F1650 X135.052 Y93.474 E116.56367
M204 S5000
M205 X30 Y30
G0 F2100 X135.117 Y94.388
M204 S3000
M205 X20 Y20
G1 F1650 X127.581 Y86.851 E117.36128
G1 X127.511 Y86.781
M204 S5000
M205 X30 Y30
G0 F2100 X132.55 Y92.669
M204 S3000
M205 X20 Y20
G1 F1650 X135.086 Y95.205 E117.62968
M204 S5000
M205 X30 Y30
G0 F2100 X134.971 Y95.938
M204 S3000
M205 X20 Y20
G1 F1650 X132.812 Y93.78 E117.85812
M204 S5000
M205 X30 Y30
G0 F2100 X132.869 Y94.685
M204 S3000
M205 X20 Y20
G1 F1650 X134.807 Y96.623 E118.06322
M204 S5000
M205 X30 Y30
G0 F2100 X134.592 Y97.257
M204 S3000
M205 X20 Y20
G1 F1650 X132.787 Y95.452 E118.25425
M204 S5000
M205 X30 Y30
G0 F2100 X132.612 Y96.125
M204 S3000
M205 X20 Y20
G1 F1650 X134.336 Y97.849 E118.43671
M204 S5000
M205 X30 Y30
G0 F2100 X134.041 Y98.403
M204 S3000
M205 X20 Y20
G1 F1650 X132.379 Y96.741 E118.6126
M204 S5000
M205 X30 Y30
G0 F2100 X132.086 Y97.296
M204 S3000
M205 X20 Y20
G1 F1650 X133.703 Y98.913 E118.78373
M204 S5000
M205 X30 Y30
G0 F2100 X133.332 Y99.39
M204 S3000
M205 X20 Y20
G1 F1650 X131.74 Y97.799 E118.95217
M204 S5000
M205 X30 Y30
G0 F2100 X131.348 Y98.256
M204 S3000
M205 X20 Y20
G1 F1650 X132.928 Y99.835 E119.11933
M204 S5000
M205 X30 Y30
G0 F2100 X132.493 Y100.249
M204 S3000
M205 X20 Y20
G1 F1650 X130.903 Y98.659 E119.2876
M204 S5000
M205 X30 Y30
G0 F2100 X130.409 Y99.014
M204 S3000
M205 X20 Y20
G1 F1650 X132.02 Y100.624 E119.45805
M204 S5000
M205 X30 Y30
G0 F2100 X131.513 Y100.966
M204 S3000
M205 X20 Y20
G1 F1650 X129.874 Y99.327 E119.63151
M204 S5000
M205 X30 Y30
G0 F2100 X129.276 Y99.577
M204 S3000
M205 X20 Y20
G1 F1650 X130.971 Y101.272 E119.8109
M204 S5000
M205 X30 Y30
G0 F2100 X130.391 Y101.541
M204 S3000
M205 X20 Y20
G1 F1650 X128.616 Y99.766 E119.99875
M204 S5000
M205 X30 Y30
G0 F2100 X127.859 Y99.857
M204 S3000
M205 X20 Y20
G1 F1650 X129.772 Y101.771 E120.20126
M204 S5000
M205 X30 Y30
G0 F2100 X129.095 Y101.942
M204 S3000
M205 X20 Y20
G1 F1650 X126.987 Y99.834 E120.42436
M204 S5000
M205 X30 Y30
G0 F2100 X125.948 Y99.644
M204 S3000
M205 X20 Y20
G1 F1650 X128.368 Y102.063 E120.68042
M204 S5000
M205 X30 Y30
G0 F2100 X127.602 Y102.146
M204 S3000
M205 X20 Y20
G1 F1650 X124.179 Y98.724 E121.04263
G1 X124.109 Y98.654
M204 S5000
M205 X30 Y30
G0 F2100 X123.677 Y94.884
G0 X123.677 Y94.111
G0 X124.088 Y92.732
G0 X124.709 Y91.861
G0 X125.478 Y91.249
G0 X129.351 Y89.47
M204 S3000
M205 X20 Y20
G1 F1650 X126.637 Y86.757 E121.32981
M204 S5000
M205 X30 Y30
G0 F2100 X125.694 Y86.662
M204 S3000
M205 X20 Y20
G1 F1650 X128.224 Y89.192 E121.59757
M204 S5000
M205 X30 Y30
G0 F2100 X127.309 Y89.125
M204 S3000
M205 X20 Y20
G1 F1650 X124.751 Y86.567 E121.86829
M204 S5000
M205 X30 Y30
G0 F2100 X123.808 Y86.472
M204 S3000
M205 X20 Y20
G1 F1650 X126.533 Y89.197 E122.15669
M204 S5000
M205 X30 Y30
G0 F2100 X125.865 Y89.379
M204 S3000
M205 X20 Y20
G1 F1650 X122.864 Y86.378 E122.47429
M204 S5000
M205 X30 Y30
G0 F2100 X121.921 Y86.283
M204 S3000
M205 X20 Y20
G1 F1650 X125.256 Y89.618 E122.82724
M204 S5000
M205 X30 Y30
G0 F2100 X124.709 Y89.919
M204 S3000
M205 X20 Y20
G1 F1650 X120.978 Y86.188 E123.22211
M204 S5000
M205 X30 Y30
G0 F2100 X120.034 Y86.093
M204 S3000
M205 X20 Y20
G1 F1650 X124.187 Y90.246 E123.66163
M204 S5000
M205 X30 Y30
G0 F2100 X123.75 Y90.658
M204 S3000
M205 X20 Y20
G1 F1650 X119.091 Y85.999 E124.15471
M204 S5000
M205 X30 Y30
G0 F2100 X118.148 Y85.904
M204 S3000
M205 X20 Y20
G1 F1650 X123.341 Y91.097 E124.7043
M204 S5000
M205 X30 Y30
G0 F2100 X122.986 Y91.59
M204 S3000
M205 X20 Y20
G1 F1650 X117.205 Y85.809 E125.31612
M204 S5000
M205 X30 Y30
G0 F2100 X116.261 Y85.714
M204 S3000
M205 X20 Y20
G1 F1650 X122.673 Y92.126 E125.99472
M204 S5000
M205 X30 Y30
G0 F2100 X122.436 Y92.737
M204 S3000
M205 X20 Y20
G1 F1650 X115.318 Y85.62 E126.74799
M204 S5000
M205 X30 Y30
G0 F2100 X114.375 Y85.525
M204 S3000
M205 X20 Y20
G1 F1650 X122.241 Y93.391 E127.58047
M204 S5000
M205 X30 Y30
G0 F2100 X122.136 Y94.135
M204 S3000
M205 X20 Y20
G1 F1650 X113.431 Y85.43 E128.50175
M204 S5000
M205 X30 Y30
G0 F2100 X112.488 Y85.335
M204 S3000
M205 X20 Y20
G1 F1650 X122.142 Y94.989 E129.52346
M204 S5000
M205 X30 Y30
G0 F2100 X122.361 Y96.056
M204 S3000
M205 X20 Y20
G1 F1650 X111.545 Y85.241 E130.6681
M204 S5000
M205 X30 Y30
G0 F2100 X110.601 Y85.145
M204 S3000
M205 X20 Y20
G1 F1650 X123.187 Y97.732 E132.00017
G1 X123.257 Y97.802
M204 S5000
M205 X30 Y30
G0 F2100 X126.831 Y102.224
M204 S3000
M205 X20 Y20
G1 F1650 X109.658 Y85.05 E133.8177
M204 S5000
M205 X30 Y30
G0 F2100 X108.714 Y84.956
M204 S3000
M205 X20 Y20
G1 F1650 X126.06 Y102.302 E135.65348
M204 S5000
M205 X30 Y30
G0 F2100 X125.289 Y102.379
M204 S3000
M205 X20 Y20
G1 F1650 X107.771 Y84.861 E137.50746
M204 S5000
M205 X30 Y30
G0 F2100 X106.828 Y84.766
M204 S3000
M205 X20 Y20
G1 F1650 X124.518 Y102.456 E139.37965
M204 S5000
M205 X30 Y30
G0 F2100 X123.747 Y102.534
M204 S3000
M205 X20 Y20
G1 F1650 X105.884 Y84.671 E141.27014
M204 S5000
M205 X30 Y30
G0 F2100 X104.941 Y84.577
M204 S3000
M205 X20 Y20
G1 F1650 X122.976 Y102.611 E143.17879
M204 S5000
M205 X30 Y30
G0 F2100 X122.205 Y102.688
M204 S3000
M205 X20 Y20
G1 F1650 X103.998 Y84.482 E145.10564
M204 S5000
M205 X30 Y30
G0 F2100 X103.055 Y84.387
M204 S3000
M205 X20 Y20
G1 F1650 X121.434 Y102.766 E147.05075
M204 S5000
M205 X30 Y30
G0 F2100 X120.662 Y102.843
M204 S3000
M205 X20 Y20
G1 F1650 X102.111 Y84.292 E149.01406
M204 S5000
M205 X30 Y30
G0 F2100 X101.168 Y84.198
M204 S3000
M205 X20 Y20
G1 F1650 X119.892 Y102.921 E150.99562
M204 S5000
M205 X30 Y30
G0 F2100 X119.12 Y102.998
M204 S3000
M205 X20 Y20
G1 F1650 X100.225 Y84.103 E152.99534
M204 S5000
M205 X30 Y30
G0 F2100 X99.282 Y84.008
M204 S3000
M205 X20 Y20
G1 F1650 X118.349 Y103.076 E155.01331
M204 S5000
M205 X30 Y30
G0 F2100 X117.578 Y103.153
M204 S3000
M205 X20 Y20
G1 F1650 X98.338 Y83.913 E157.04954
M204 S5000
M205 X30 Y30
G0 F2100 X97.395 Y83.819
M204 S3000
M205 X20 Y20
G1 F1650 X116.807 Y103.231 E159.10397
M204 S5000
M205 X30 Y30
G0 F2100 X116.036 Y103.308
M204 S3000
M205 X20 Y20
G1 F1650 X96.452 Y83.724 E161.17661
M204 S5000
M205 X30 Y30
G0 F2100 X95.508 Y83.629
M204 S3000
M205 X20 Y20
G1 F1650 X115.265 Y103.386 E163.26755
M204 S5000
M205 X30 Y30
G0 F2100 X114.494 Y103.463
M204 S3000
M205 X20 Y20
G1 F1650 X94.565 Y83.534 E165.3767
M204 S5000
M205 X30 Y30
G0 F2100 X93.622 Y83.44
M204 S3000
M205 X20 Y20
G1 F1650 X113.723 Y103.54 E167.504
M204 S5000
M205 X30 Y30
G0 F2100 X112.951 Y103.618
M204 S3000
M205 X20 Y20
G1 F1650 X92.679 Y83.345 E169.6495
M204 S5000
M205 X30 Y30
G0 F2100 X91.735 Y83.25
M204 S3000
M205 X20 Y20
G1 F1650 X112.181 Y103.695 E171.81331
M204 S5000
M205 X30 Y30
G0 F2100 X111.409 Y103.772
M204 S3000
M205 X20 Y20
G1 F1650 X90.792 Y83.155 E173.99527
M204 S5000
