;FLAVOR:Marlin
;TIME:460
;Filament used: 0.216334m
;Layer height: 0.2
;MINX:89.364
;MINY:83.874
;MINZ:0.3
;MAXX:110.636
;MAXY:105.126
;MAXZ:16.1
;ARCWELDERPROCESSED
; Postprocessed by [ArcWelder](https://github.com/FormerLurker/ArcWelderLib)
; Copyright(C) 2021 - Brad Hochgesang
; Version: 1.2.0, Branch: master, BuildDate: 2021-11-22T09:56:32Z
; resolution=0.05mm
; path_tolerance=5.0%
; max_radius=9999.00mm
; default_xyz_precision=3
; default_e_precision=5
; extrusion_rate_variance_percent=5.0%

;Generated with Cura_SteamEngine main
M140 S60
M105
M190 S60
M104 S210
M105
M109 S210
M82 ;absolute extrusion mode
G21 ;metric values
G90 ;absolute positioning
M82 ;set extruder to absolute mode
M107 ;start with the fan off
G28 X0 Y0 ;move X/Y to min endstops
G28 Z0 ;move Z to min endstops
G1 Z15.0 F9000 ;move the platform down 15mm
G92 E0 ;zero the extruded length
G1 F200 E3 ;extrude 3 mm of feed stock
G92 E0 ;zero the extruded length again
G1 F9000
;Put printing message on LCD screen
M117 Printing...
G92 E0
G92 E0
G1 F2400 E-1
;LAYER_COUNT:77
;LAYER:0
M107
M204 S5000
M205 X30 Y30
G1 F600 Z1.3
G0 F2100 X92.133 Y87.35 Z1.3
G1 F600 Z1.3
G0 F2100 X89.364 Y94.584
M204 S3000
M205 X20 Y20
;TYPE:SKIRT
G1 F600 Z0.3
G1 F2400 E0
G3 X100.643 Y83.881 I10.645 J-0.076 E1.30468 F1650
G3 X99.357 Y105.119 I-0.645 J10.619 E3.80581
G3 X89.364 Y94.584 I0.611 J-10.587 E5.00233
M204 S5000
M205 X30 Y30
G0 F2100 X89.957 Y94.38
M204 S3000
M205 X20 Y20
G3 X100.639 Y84.481 I10.057 J0.139 E6.22094 F1650
G3 X99.361 Y104.519 I-0.635 J10.019 E8.58099
G3 X89.957 Y94.380 I0.614 J-10.000 E9.72250
M204 S5000
M205 X30 Y30
G0 F2100 X90.558 Y94.395
M204 S3000
M205 X20 Y20
G3 X99.366 Y103.919 I9.438 J0.107 E13.09037 F1650
G3 X90.558 Y94.395 I0.639 J-9.426 E14.16064
M204 S5000
M205 X30 Y30
G0 F2100 X91.159 Y94.403
M204 S3000
M205 X20 Y20
G3 X108.239 Y97.678 I8.837 J0.090 E16.47488 F1650
G3 X99.370 Y103.319 I-8.253 J-3.183 E17.31731
G3 X91.159 Y94.403 I0.634 J-8.823 E18.31691
M204 S5000
M205 X30 Y30
G0 F2100 X91.769 Y95.186
M204 S3000
M205 X20 Y20
G3 X91.970 Y92.631 I10.839 J-0.433 E18.50922 F1650
G3 X99.375 Y102.719 I8.025 J1.871 E21.32072
G3 X91.769 Y95.186 I0.651 J-8.264 E22.19155
M204 S5000
M205 X30 Y30
G1 F2400 E21.19155
G1 F600 Z1.3
;MESH:handle-2-screw.stl
G0 F2100 X96.568 Y94.936 Z1.3
M204 S3000
M205 X20 Y20
;TYPE:WALL-INNER
G1 F600 Z0.3
G1 F2400 E22.19155
G2 X102.308 Y91.940 I3.421 J-0.443 E23.18532 F1650
G2 X96.568 Y94.936 I-2.308 J2.575 E23.81245
M204 S5000
M205 X30 Y30
G0 F2100 X96.139 Y95.762
M204 S3000
M205 X20 Y20
G2 X103.003 Y97.214 I3.860 J-1.296 E24.44565 F1650
G2 X102.710 Y91.493 I-3.004 J-2.714 E24.92210
G2 X96.997 Y91.786 I-2.710 J3.009 E25.39749
G2 X96.139 Y95.762 I3.084 J2.746 E25.71610
M204 S5000
M205 X30 Y30
G0 F2100 X95.97 Y95.009
G0 X95.372 Y95.087
M204 S3000
M205 X20 Y20
;TYPE:WALL-OUTER
G2 X101.452 Y98.933 I4.665 J-0.646 E26.32894 F1650
G2 X104.431 Y93.039 I-1.529 J-4.472 E26.87616
G2 X99.810 Y89.855 I-4.470 J1.542 E27.32604
G2 X95.372 Y95.087 I0.201 J4.668 E27.90223
M204 S5000
M205 X30 Y30
G0 F2100 X95.415 Y95.282
G2 X97.147 Y94.866 I-6.886 J-32.483
M204 S3000
M205 X20 Y20
;TYPE:SKIN
G2 X100.114 Y97.363 I2.880 J-0.411 E28.22018 F1650
G1 X100.88 Y97.235 E28.2783
G2 X99.886 Y91.638 I-0.886 J-2.729 E28.89365
G1 X99.12 Y91.765 E28.95176
G2 X97.147 Y94.866 I0.887 J2.743 E29.24914
M204 S5000
M205 X30 Y30
G0 F2100 X100.463 Y91.978
M204 S3000
M205 X20 Y20
G1 F1650 X102.523 Y94.038 E29.46715
M204 S5000
M205 X30 Y30
G0 F2100 X102.53 Y94.893
M204 S3000
M205 X20 Y20
G1 F1650 X99.621 Y91.984 E29.77502
M204 S5000
M205 X30 Y30
G0 F2100 X98.957 Y92.169
M204 S3000
M205 X20 Y20
G1 F1650 X102.333 Y95.544 E30.13226
M204 S5000
M205 X30 Y30
G0 F2100 X102.012 Y96.072
M204 S3000
M205 X20 Y20
G1 F1650 X98.426 Y92.486 E30.51178
M204 S5000
M205 X30 Y30
G0 F2100 X98 Y92.909
M204 S3000
M205 X20 Y20
G1 F1650 X101.589 Y96.498 E30.89161
M204 S5000
M205 X30 Y30
G0 F2100 X101.063 Y96.82
M204 S3000
M205 X20 Y20
G1 F1650 X97.676 Y93.433 E31.25007
M204 S5000
M205 X30 Y30
G0 F2100 X97.471 Y94.077
M204 S3000
M205 X20 Y20
G1 F1650 X100.405 Y97.011 E31.56059
M204 S5000
M205 X30 Y30
G0 F2100 X99.574 Y97.029
M204 S3000
M205 X20 Y20
G1 F1650 X97.466 Y94.921 E31.78368
G1 X97.396 Y94.851
M204 S5000
M205 X30 Y30
G1 F2400 E30.78368
;MESH:NONMESH
G0 F600 X97.396 Y94.851 Z0.5
G0 F2100 X96.054 Y94.655
;TIME_ELAPSED:22.083592
;LAYER:1
M106 S127.5
M204 S3000
M205 X20 Y20
;TYPE:WALL-INNER
;MESH:handle-2-screw.stl
G1 F2400 E31.78368
G2 X103.567 Y92.812 I3.945 J-0.154 E32.24924 F2475
G2 X96.054 Y94.655 I-3.568 J1.689 E32.60908
M204 S5000
M205 X30 Y30
G0 F3150 X95.654 Y94.676
M204 S3000
M205 X20 Y20
G2 X103.742 Y96.742 I4.357 J-0.190 E32.97965 F2475
G1 X104.147 Y95.859 E33.01196
G2 X96.258 Y92.258 I-4.156 J-1.337 E33.43429
G1 X95.853 Y93.141 E33.4666
G2 X95.654 Y94.676 I4.471 J1.360 E33.51827
M204 S5000
M205 X30 Y30
G0 F3150 X95.254 Y94.697
M204 S3000
M205 X20 Y20
;TYPE:WALL-OUTER
G2 X104.088 Y96.947 I4.758 J-0.212 E33.92294 F1650
G1 X104.528 Y95.987 E33.95806
G2 X95.912 Y92.053 I-4.538 J-1.463 E34.41950
G1 X95.472 Y93.013 E34.45462
G2 X95.254 Y94.697 I4.881 J1.488 E34.51131
M204 S5000
M205 X30 Y30
G0 F3150 X95.275 Y94.895
G0 X95.971 Y94.823
G0 X96.436 Y94.637
M204 S3000
M205 X20 Y20
;TYPE:SKIN
G2 X98.359 Y91.335 I3.561 J-0.137 E35.12184 F1650
G2 X96.436 Y94.637 I1.582 J3.132 E35.25606
M204 S5000
M205 X30 Y30
G0 F3150 X96.934 Y93.135
M204 S3000
M205 X20 Y20
G2 X98.695 Y91.375 I-2974.399 J-2977.850 E35.33558 F1650
M204 S5000
M205 X30 Y30
G0 F3150 X99.455 Y91.18
M204 S3000
M205 X20 Y20
G1 F1650 X96.681 Y93.954 E35.46606
M204 S5000
M205 X30 Y30
G0 F3150 X96.64 Y94.56
M204 S3000
M205 X20 Y20
G1 F1650 X100.059 Y91.141 E35.62688
M204 S5000
M205 X30 Y30
G0 F3150 X100.58 Y91.186
M204 S3000
M205 X20 Y20
G1 F1650 X96.704 Y95.062 E35.80919
M204 S5000
M205 X30 Y30
G0 F3150 X96.806 Y95.526
M204 S3000
M205 X20 Y20
G1 F1650 X101.029 Y91.303 E36.00783
M204 S5000
M205 X30 Y30
G0 F3150 X101.434 Y91.464
M204 S3000
M205 X20 Y20
G1 F1650 X96.96 Y95.938 E36.21827
M204 S5000
M205 X30 Y30
G0 F3150 X97.172 Y96.292
M204 S3000
M205 X20 Y20
G1 F1650 X101.792 Y91.671 E36.4356
M204 S5000
M205 X30 Y30
G0 F3150 X102.127 Y91.902
M204 S3000
M205 X20 Y20
G1 F1650 X97.401 Y96.628 E36.6579
M204 S5000
M205 X30 Y30
G0 F3150 X97.669 Y96.926
M204 S3000
M205 X20 Y20
G1 F1650 X102.422 Y92.173 E36.88147
M204 S5000
M205 X30 Y30
G0 F3150 X102.686 Y92.474
M204 S3000
M205 X20 Y20
G1 F1650 X97.976 Y97.185 E37.10304
M204 S5000
M205 X30 Y30
G0 F3150 X98.328 Y97.399
M204 S3000
M205 X20 Y20
G1 F1650 X102.898 Y92.828 E37.31802
M204 S5000
M205 X30 Y30
G0 F3150 X103.091 Y93.201
M204 S3000
M205 X20 Y20
G1 F1650 X98.695 Y97.597 E37.52479
M204 S5000
M205 X30 Y30
G0 F3150 X99.106 Y97.751
M204 S3000
M205 X20 Y20
G1 F1650 X103.245 Y93.613 E37.71945
M204 S5000
M205 X30 Y30
G0 F3150 X103.328 Y94.096
M204 S3000
M205 X20 Y20
G1 F1650 X99.586 Y97.837 E37.89544
M204 S5000
M205 X30 Y30
G0 F3150 X100.128 Y97.861
M204 S3000
M205 X20 Y20
G1 F1650 X103.362 Y94.627 E38.04756
M204 S5000
M205 X30 Y30
G0 F3150 X103.267 Y95.287
M204 S3000
M205 X20 Y20
G3 X100.725 Y97.830 I-6288.838 J-6283.823 E38.16386 F1650
M204 S5000
M205 X30 Y30
G0 F3150 X101.763 Y97.357
M204 S3000
M205 X20 Y20
G1 F1650 X102.9 Y96.22 E38.21734
G1 X102.97 Y96.15
M204 S5000
M205 X30 Y30
G1 F2400 E37.21734
;MESH:NONMESH
G0 F600 X102.97 Y96.15 Z0.7
G0 F3150 X96.049 Y94.29
;TIME_ELAPSED:29.163850
;LAYER:2
M106 S255
M204 S3000
M205 X20 Y20
;TYPE:WALL-INNER
;MESH:handle-2-screw.stl
G1 F2400 E38.21734
G2 X97.609 Y91.358 I3.942 J0.217 E38.92854 F3300
G2 X96.049 Y94.290 I2.307 J3.109 E39.04253
M204 S5000
M205 X30 Y30
G0 F4200 X95.671 Y95.049
M204 S3000
M205 X20 Y20
G2 X104.145 Y93.136 I4.326 J-0.564 E39.52480 F3300
G2 X95.671 Y95.049 I-4.139 J1.391 E39.95153
M204 S5000
M205 X30 Y30
G0 F4200 X95.247 Y94.24
M204 S3000
M205 X20 Y20
;TYPE:WALL-OUTER
G2 X100.109 Y89.752 I4.744 J0.262 E40.70099 F1650
G2 X95.247 Y94.240 I-0.098 J4.772 E40.94417
M204 S5000
M205 X30 Y30
G0 F4200 X95.253 Y94.44
G2 X96.430 Y94.317 I0.252 J-3.283
M204 S3000
M205 X20 Y20
;TYPE:SKIN
G2 X103.400 Y93.385 I3.570 J0.169 E41.36056 F1650
G2 X101.082 Y91.093 I-3.522 J1.244 E41.47280
G2 X96.430 Y94.317 I-1.071 J3.422 E41.68957
M204 S5000
M205 X30 Y30
G0 F4200 X101.911 Y91.729
M204 S3000
M205 X20 Y20
G1 F1650 X102.669 Y92.487 E41.72522
G1 X102.739 Y92.557
M204 S5000
M205 X30 Y30
G0 F4200 X103.251 Y93.635
M204 S3000
M205 X20 Y20
G1 F1650 X100.865 Y91.248 E41.83748
M204 S5000
M205 X30 Y30
G0 F4200 X100.199 Y91.148
M204 S3000
M205 X20 Y20
G1 F1650 X103.358 Y94.307 E41.98606
M204 S5000
M205 X30 Y30
G0 F4200 X103.341 Y94.856
M204 S3000
M205 X20 Y20
G1 F1650 X99.633 Y91.148 E42.16048
M204 S5000
M205 X30 Y30
G0 F4200 X99.169 Y91.25
M204 S3000
M205 X20 Y20
G1 F1650 X103.264 Y95.344 E42.35307
M204 S5000
M205 X30 Y30
G0 F4200 X103.113 Y95.759
M204 S3000
M205 X20 Y20
G1 F1650 X98.747 Y91.393 E42.55843
M204 S5000
M205 X30 Y30
G0 F4200 X98.359 Y91.571
M204 S3000
M205 X20 Y20
G1 F1650 X102.938 Y96.15 E42.77382
M204 S5000
M205 X30 Y30
G0 F4200 X102.712 Y96.489
M204 S3000
M205 X20 Y20
G1 F1650 X98.012 Y91.789 E42.99489
M204 S5000
M205 X30 Y30
G0 F4200 X97.699 Y92.042
M204 S3000
M205 X20 Y20
G1 F1650 X102.459 Y96.802 E43.21879
M204 S5000
M205 X30 Y30
G0 F4200 X102.163 Y97.072
M204 S3000
M205 X20 Y20
G1 F1650 X97.427 Y92.336 E43.44155
M204 S5000
M205 X30 Y30
G0 F4200 X97.185 Y92.659
M204 S3000
M205 X20 Y20
G1 F1650 X101.832 Y97.307 E43.66016
M204 S5000
M205 X30 Y30
G0 F4200 X101.475 Y97.515
M204 S3000
M205 X20 Y20
G1 F1650 X96.973 Y93.013 E43.87192
M204 S5000
M205 X30 Y30
G0 F4200 X96.815 Y93.421
M204 S3000
M205 X20 Y20
G1 F1650 X101.073 Y97.679 E44.0722
M204 S5000
M205 X30 Y30
G0 F4200 X100.627 Y97.799
M204 S3000
M205 X20 Y20
G1 F1650 X96.701 Y93.872 E44.25689
M204 S5000
M205 X30 Y30
G0 F4200 X96.63 Y94.367
M204 S3000
M205 X20 Y20
G1 F1650 X100.115 Y97.852 E44.42081
M204 S5000
M205 X30 Y30
G0 F4200 X99.54 Y97.843
M204 S3000
M205 X20 Y20
G1 F1650 X96.653 Y94.955 E44.55663
G1 X96.583 Y94.885
M204 S5000
M205 X30 Y30
G0 F4200 X96.882 Y95.751
M204 S3000
M205 X20 Y20
G1 F1650 X98.754 Y97.623 E44.64469
G1 X98.824 Y97.693
M204 S5000
M205 X30 Y30
G1 F2400 E43.64469
;MESH:NONMESH
G0 F600 X98.824 Y97.693 Z0.9
G0 F4200 X96.048 Y94.255
;TIME_ELAPSED:35.936516
;LAYER:3
M204 S3000
M205 X20 Y20
;TYPE:WALL-INNER
;MESH:handle-2-screw.stl
G1 F2400 E44.64469
G2 X100.091 Y90.553 I3.941 J0.245 E45.26845 F3300
G2 X96.048 Y94.255 I-0.083 J3.968 E45.46956
M204 S5000
M205 X30 Y30
G0 F4200 X95.647 Y94.229
M204 S3000
M205 X20 Y20
G2 X102.111 Y90.699 I4.344 J0.272 E46.08692 F3300
G2 X95.647 Y94.229 I-2.110 J3.819 E46.37846
M204 S5000
M205 X30 Y30
G0 F4200 X95.246 Y94.204
M204 S3000
M205 X20 Y20
;TYPE:WALL-OUTER
G2 X101.673 Y90.053 I4.743 J0.292 E47.07584 F1650
G2 X95.246 Y94.204 I-1.668 J4.469 E47.37095
M204 S5000
M205 X30 Y30
G0 F4200 X95.252 Y94.404
G2 X96.430 Y94.282 I0.250 J-3.330
M204 S3000
M205 X20 Y20
;TYPE:SKIN
G2 X101.251 Y91.156 I3.559 J0.208 E47.89448 F1650
G2 X96.430 Y94.282 I-1.245 J3.361 E48.11587
M204 S5000
M205 X30 Y30
G0 F4200 X96.933 Y93.137
M204 S3000
M205 X20 Y20
G3 X98.691 Y91.378 I2970.951 J2967.504 E48.19529 F1650
M204 S5000
M205 X30 Y30
G0 F4200 X99.459 Y91.176
M204 S3000
M205 X20 Y20
G1 F1650 X96.682 Y93.953 E48.32591
M204 S5000
M205 X30 Y30
G0 F4200 X96.638 Y94.563
M204 S3000
M205 X20 Y20
G1 F1650 X100.067 Y91.134 E48.4872
M204 S5000
M205 X30 Y30
G0 F4200 X100.576 Y91.191
M204 S3000
M205 X20 Y20
G1 F1650 X96.683 Y95.083 E48.67029
M204 S5000
M205 X30 Y30
G0 F4200 X96.788 Y95.544
M204 S3000
M205 X20 Y20
G1 F1650 X101.027 Y91.305 E48.86968
M204 S5000
M205 X30 Y30
G0 F4200 X101.434 Y91.464
M204 S3000
M205 X20 Y20
G1 F1650 X96.966 Y95.932 E49.07984
M204 S5000
M205 X30 Y30
G0 F4200 X97.164 Y96.3
M204 S3000
M205 X20 Y20
G1 F1650 X101.792 Y91.671 E49.29755
M204 S5000
M205 X30 Y30
G0 F4200 X102.123 Y91.906
M204 S3000
M205 X20 Y20
G1 F1650 X97.397 Y96.632 E49.51985
M204 S5000
M205 X30 Y30
G0 F4200 X97.674 Y96.921
M204 S3000
M205 X20 Y20
G1 F1650 X102.418 Y92.177 E49.74299
M204 S5000
M205 X30 Y30
G0 F4200 X102.689 Y92.471
M204 S3000
M205 X20 Y20
G1 F1650 X97.988 Y97.173 E49.96414
M204 S5000
M205 X30 Y30
G0 F4200 X98.317 Y97.409
M204 S3000
M205 X20 Y20
G1 F1650 X102.909 Y92.817 E50.18013
M204 S5000
M205 X30 Y30
G0 F4200 X103.094 Y93.198
M204 S3000
M205 X20 Y20
G1 F1650 X98.694 Y97.598 E50.38709
M204 S5000
M205 X30 Y30
G0 F4200 X99.125 Y97.733
M204 S3000
M205 X20 Y20
G1 F1650 X103.246 Y93.612 E50.58093
M204 S5000
M205 X30 Y30
G0 F4200 X103.35 Y94.074
M204 S3000
M205 X20 Y20
G1 F1650 X99.589 Y97.834 E50.75782
M204 S5000
M205 X30 Y30
G0 F4200 X100.138 Y97.851
M204 S3000
M205 X20 Y20
G1 F1650 X103.367 Y94.622 E50.9097
M204 S5000
M205 X30 Y30
G0 F4200 X103.263 Y95.292
M204 S3000
M205 X20 Y20
G1 F1650 X100.79 Y97.765 E51.02602
G1 X100.72 Y97.835
M204 S5000
M205 X30 Y30
G0 F4200 X101.761 Y97.36
M204 S3000
M205 X20 Y20
G1 F1650 X102.838 Y96.283 E51.07668
G1 X102.908 Y96.213
M204 S5000
M205 X30 Y30
G1 F2400 E50.07668
;MESH:NONMESH
G0 F600 X102.908 Y96.213 Z1.1
G0 F4200 X96.104 Y93.786
;TIME_ELAPSED:42.673578
;LAYER:4
M204 S3000
M205 X20 Y20
;TYPE:WALL-INNER
;MESH:handle-2-screw.stl
G1 F2400 E51.07668
G2 X102.394 Y91.362 I3.885 J0.709 E51.63365 F1603
G2 X96.104 Y93.786 I-2.396 J3.154 E51.90143
M204 S5000
M205 X30 Y30
G0 F4200 X95.709 Y93.706
M204 S3000
M205 X20 Y20
G2 X96.645 Y97.295 I4.493 J0.745 E52.02849 F1603
G2 X97.989 Y98.368 I3.914 J-3.525 E52.08588
G2 X99.116 Y90.243 I2.003 J-3.863 E52.63928
G1 X98.412 Y90.435 E52.66355
G1 X97.58 Y90.867 E52.69473
G2 X95.709 Y93.706 I2.612 J3.757 E52.81043
M204 S5000
M205 X30 Y30
G0 F4200 X95.313 Y93.635
M204 S3000
M205 X20 Y20
;TYPE:WALL-OUTER
G2 X104.748 Y94.598 I4.679 J0.854 E53.33227 F802
G2 X98.071 Y90.161 I-4.749 J-0.095 E53.64969
G2 X95.313 Y93.635 I1.973 J4.398 E53.80291
M204 S5000
M205 X30 Y30
G0 F4200 X95.298 Y93.834
G0 X95.992 Y93.918
G0 X97.323 Y91.823
M204 S3000
M205 X20 Y20
;TYPE:FILL
G1 F1603.1 X102.676 Y97.176 E54.05469
G1 X102.746 Y97.246
M204 S5000
M205 X30 Y30
G0 F4200 X102.666 Y91.832
M204 S3000
M205 X20 Y20
G1 F1603.1 X97.331 Y97.167 E54.30564
G1 X97.261 Y97.237
M204 S5000
M205 X30 Y30
G0 F4200 X97.356 Y97.136
G1 F2400 E53.30564
;MESH:NONMESH
G0 F600 X97.356 Y97.136 Z1.3
G0 F4200 X96.07 Y94.998
;TIME_ELAPSED:47.813731
;LAYER:5
M204 S3000
M205 X20 Y20
;TYPE:WALL-INNER
;MESH:handle-2-screw.stl
G1 F2400 E54.30564
G2 X103.930 Y94.002 I3.927 J-0.518 E54.71801 F1580
G2 X96.070 Y94.998 I-3.928 J0.512 E55.13052
M204 S5000
M205 X30 Y30
G0 F4200 X95.672 Y95.049
M204 S3000
M205 X20 Y20
G2 X103.913 Y92.569 I4.320 J-0.578 E55.63279 F1580
G2 X100.028 Y90.137 I-3.969 J2.021 E55.79274
G2 X95.672 Y95.049 I0.003 J4.390 E56.03902
M204 S5000
M205 X30 Y30
G0 F4200 X95.273 Y95.099
M204 S3000
M205 X20 Y20
;TYPE:WALL-OUTER
G2 X104.727 Y93.901 I4.724 J-0.626 E56.53506 F790
G2 X97.648 Y90.374 I-4.733 J0.632 E56.84511
G2 X95.273 Y95.099 I2.388 J4.160 E57.03125
M204 S5000
M205 X30 Y30
G0 F4200 X95.317 Y95.294
G0 X96 Y95.142
G0 X97.333 Y97.165
M204 S3000
M205 X20 Y20
;TYPE:FILL
G1 F1580.2 X102.674 Y91.825 E57.28245
G1 X102.744 Y91.755
M204 S5000
M205 X30 Y30
G0 F4200 X97.323 Y91.823
M204 S3000
M205 X20 Y20
G1 F1580.2 X102.676 Y97.176 E57.53424
G1 X102.746 Y97.246
M204 S5000
M205 X30 Y30
G0 F4200 X102.645 Y97.151
G1 F2400 E56.53424
;MESH:NONMESH
G0 F600 X102.645 Y97.151 Z1.5
G0 F4200 X96.07 Y94.996
;TIME_ELAPSED:53.085011
;LAYER:6
M204 S3000
M205 X20 Y20
;TYPE:WALL-INNER
;MESH:handle-2-screw.stl
G1 F2400 E57.53424
G2 X102.935 Y91.861 I3.920 J-0.499 E58.02650 F1601
G2 X96.070 Y94.996 I-2.937 J2.653 E58.35933
M204 S5000
M205 X30 Y30
G0 F4200 X95.671 Y95.045
M204 S3000
M205 X20 Y20
G2 X103.573 Y92.022 I4.318 J-0.553 E58.88340 F1601
G2 X96.529 Y91.880 I-3.574 J2.488 E59.15646
G2 X95.671 Y95.045 I3.633 J2.684 E59.26820
M204 S5000
M205 X30 Y30
G0 F4200 X95.272 Y95.094
M204 S3000
M205 X20 Y20
;TYPE:WALL-OUTER
G2 X103.786 Y97.368 I4.725 J-0.615 E59.64219 F801
G2 X96.214 Y91.632 I-3.787 J-2.867 E60.13844
G2 X95.272 Y95.094 I3.958 J2.936 E60.26069
M204 S5000
M205 X30 Y30
G0 F4200 X95.315 Y95.289
G0 X95.999 Y95.138
G0 X97.329 Y97.17
