;FLAVOR:Marlin
;TIME:695
;Filament used: 0.783015m
;Layer height: 0.2
;MINX:87.415
;MINY:81.915
;MINZ:0.3
;MAXX:112.585
;MAXY:107.085
;MAXZ:20.7
;ARCWELDERPROCESSED
; Postprocessed by [ArcWelder](https://github.com/FormerLurker/ArcWelderLib)
; Copyright(C) 2021 - Brad Hochgesang
; Version: 1.2.0, Branch: master, BuildDate: 2021-11-22T09:56:32Z
; resolution=0.05mm
; path_tolerance=5.0%
; max_radius=9999.00mm
; default_xyz_precision=3
; default_e_precision=5
; extrusion_rate_variance_percent=5.0%

;Generated with Cura_SteamEngine main
M140 S60
M105
M190 S60
M104 S210
M105
M109 S210
M82 ;absolute extrusion mode
G21 ;metric values
G90 ;absolute positioning
M82 ;set extruder to absolute mode
M107 ;start with the fan off
G28 X0 Y0 ;move X/Y to min endstops
G28 Z0 ;move Z to min endstops
G1 Z15.0 F9000 ;move the platform down 15mm
G92 E0 ;zero the extruded length
G1 F200 E3 ;extrude 3 mm of feed stock
G92 E0 ;zero the extruded length again
G1 F9000
;Put printing message on LCD screen
M117 Printing...
G92 E0
G92 E0
G1 F2400 E-1
;LAYER_COUNT:100
;LAYER:0
M107
M204 S5000
M205 X30 Y30
G1 F600 Z1.3
G0 F2100 X90.617 Y86.093 Z1.3
G1 F600 Z1.3
G0 F2100 X87.415 Y94.204
M204 S3000
M205 X20 Y20
;TYPE:SKIRT
G1 F600 Z0.3
G1 F2400 E0
G3 X88.680 Y100.016 I12.586 J0.304 E5.47049 F1650
G3 X87.415 Y94.204 I10.914 J-5.419 E5.91991
M204 S5000
M205 X30 Y30
G0 F2100 X88.015 Y94.231
M204 S3000
M205 X20 Y20
G3 X89.860 Y100.888 I11.984 J0.263 E11.03327 F1650
G3 X88.015 Y94.231 I10.083 J-6.379 E11.55788
M204 S5000
M205 X30 Y30
G0 F2100 X88.614 Y94.258
M204 S3000
M205 X20 Y20
G1 F1650 X88.659 Y93.253 E11.63317
G3 X103.943 Y83.809 I11.358 J1.292 E13.18024
G3 X88.614 Y94.258 I-3.941 J10.687 E16.91430
M204 S5000
M205 X30 Y30
G0 F2100 X89.213 Y94.285
M204 S3000
M205 X20 Y20
G3 X110.787 Y94.699 I10.787 J0.214 E19.45022 F1650
G3 X89.544 Y97.160 I-10.786 J-0.189 E21.77132
G1 X89.274 Y95.886 E21.86878
G3 X89.213 Y94.285 I18.091 J-1.491 E21.98871
M204 S5000
M205 X30 Y30
G1 F2400 E20.98871
G1 F600 Z1.3
;MESH:Handle-3.stl
G0 F2100 X94.031 Y93.807 Z1.3
M204 S3000
M205 X20 Y20
;TYPE:WALL-INNER
G1 F600 Z0.3
G1 F2400 E21.98871
G2 X105.627 Y92.421 I5.963 J0.685 E23.60996 F1650
G1 X105.217 Y91.504 E23.68513
G2 X94.031 Y93.807 I-5.207 J3.024 E24.80953
M204 S5000
M205 X30 Y30
G0 F2100 X93.433 Y93.738
M204 S3000
M205 X20 Y20
G2 X98.370 Y88.099 I6.557 J0.760 E27.31706 F1650
G2 X93.433 Y93.738 I1.681 J6.453 E27.91265
M204 S5000
M205 X30 Y30
G0 F2100 X92.801 Y94.501
M204 S3000
M205 X20 Y20
;TYPE:WALL-OUTER
G2 X101.781 Y87.515 I7.201 J-0.008 E30.31706 F1650
G2 X92.801 Y94.501 I-1.766 J6.995 E31.29823
M204 S5000
M205 X30 Y30
G0 F2100 X92.809 Y94.701
G0 X93.408 Y94.677
G0 X94.608 Y95.131
M204 S3000
M205 X20 Y20
;TYPE:SKIN
G2 X98.125 Y89.415 I5.384 J-0.627 E33.30553 F1650
G2 X94.608 Y95.131 I1.905 J5.112 E33.84656
M204 S5000
M205 X30 Y30
G0 F2100 X103.589 Y90.861
M204 S3000
M205 X20 Y20
G1 F1650 X103.714 Y90.986 E33.85979
M204 S5000
M205 X30 Y30
G0 F2100 X104.892 Y93.012
M204 S3000
M205 X20 Y20
G1 F1650 X101.485 Y89.605 E34.22037
M204 S5000
M205 X30 Y30
G0 F2100 X100.432 Y89.401
M204 S3000
M205 X20 Y20
G1 F1650 X105.099 Y94.068 E34.71429
M204 S5000
M205 X30 Y30
G0 F2100 X105.099 Y94.917
M204 S3000
M205 X20 Y20
G1 F1650 X99.582 Y89.4 E35.29817
M204 S5000
M205 X30 Y30
G0 F2100 X98.848 Y89.514
M204 S3000
M205 X20 Y20
G1 F1650 X104.986 Y95.653 E35.94783
M204 S5000
M205 X30 Y30
G0 F2100 X104.788 Y96.302
M204 S3000
M205 X20 Y20
G1 F1650 X98.197 Y89.712 E36.64532
M204 S5000
M205 X30 Y30
G0 F2100 X97.612 Y89.975
M204 S3000
M205 X20 Y20
G1 F1650 X104.523 Y96.886 E37.37673
M204 S5000
M205 X30 Y30
G0 F2100 X104.198 Y97.41
M204 S3000
M205 X20 Y20
G1 F1650 X97.09 Y90.301 E38.12905
M204 S5000
M205 X30 Y30
G0 F2100 X96.608 Y90.668
M204 S3000
M205 X20 Y20
G1 F1650 X103.83 Y97.89 E38.89337
M204 S5000
M205 X30 Y30
G0 F2100 X103.405 Y98.314
M204 S3000
M205 X20 Y20
G1 F1650 X96.184 Y91.093 E39.6576
M204 S5000
M205 X30 Y30
G0 F2100 X95.812 Y91.57
M204 S3000
M205 X20 Y20
G1 F1650 X102.927 Y98.684 E40.41055
M204 S5000
M205 X30 Y30
G0 F2100 X102.408 Y99.014
M204 S3000
M205 X20 Y20
G1 F1650 X95.485 Y92.091 E41.14323
M204 S5000
M205 X30 Y30
G0 F2100 X95.221 Y92.675
M204 S3000
M205 X20 Y20
G1 F1650 X101.822 Y99.277 E41.84188
M204 S5000
M205 X30 Y30
G0 F2100 X101.177 Y99.48
M204 S3000
M205 X20 Y20
G1 F1650 X95.016 Y93.319 E42.49392
M204 S5000
M205 X30 Y30
G0 F2100 X94.901 Y94.052
M204 S3000
M205 X20 Y20
G1 F1650 X100.445 Y99.597 E43.08071
M204 S5000
M205 X30 Y30
G0 F2100 X99.598 Y99.598
M204 S3000
M205 X20 Y20
G1 F1650 X94.898 Y94.898 E43.57813
M204 S5000
M205 X30 Y30
G0 F2100 X95.094 Y95.943
M204 S3000
M205 X20 Y20
G1 F1650 X98.56 Y99.409 E43.94495
G1 X98.63 Y99.479
M204 S5000
M205 X30 Y30
G0 F2100 X96.711 Y98.408
M204 S3000
M205 X20 Y20
G1 F1650 X96.062 Y97.759 E44.01363
M204 S5000
M205 X30 Y30
G1 F2400 E43.01363
;MESH:NONMESH
G0 F600 X96.062 Y97.759 Z0.5
G0 F2100 X93.533 Y93.75
;TIME_ELAPSED:28.535395
;LAYER:1
M106 S127.5
M204 S3000
M205 X20 Y20
;TYPE:WALL-INNER
;MESH:Handle-3.stl
G1 F2400 E44.01363
G2 X97.525 Y88.475 I6.460 J0.741 E45.14137 F2475
G2 X93.533 Y93.750 I2.551 J6.078 E45.37172
M204 S5000
M205 X30 Y30
G0 F3150 X93.134 Y93.704
M204 S3000
M205 X20 Y20
G2 X102.403 Y88.034 I6.854 J0.794 E46.39784 F2475
G2 X93.134 Y93.704 I-2.402 J6.484 E46.81351
M204 S5000
M205 X30 Y30
G0 F3150 X92.701 Y94.501
M204 S3000
M205 X20 Y20
;TYPE:WALL-OUTER
G2 X100.004 Y87.201 I7.299 J-0.001 E47.95733 F1650
G2 X92.701 Y94.501 I-0.006 J7.297 E48.33897
M204 S5000
M205 X30 Y30
G0 F3150 X92.709 Y94.701
G0 X93.408 Y94.673
G0 X93.912 Y93.794
M204 S3000
M205 X20 Y20
;TYPE:SKIN
G2 X97.673 Y88.827 I6.082 J0.697 E49.40050 F1650
G2 X93.912 Y93.794 I2.391 J5.718 E49.61746
M204 S5000
M205 X30 Y30
G0 F3150 X94.626 Y92.049
M204 S3000
M205 X20 Y20
G1 F1650 X97.574 Y89.101 E49.75613
G1 X97.644 Y89.031
M204 S5000
M205 X30 Y30
G0 F3150 X98.454 Y88.787
M204 S3000
M205 X20 Y20
G1 F1650 X94.282 Y92.959 E49.95237
M204 S5000
M205 X30 Y30
G0 F3150 X94.137 Y93.669
M204 S3000
M205 X20 Y20
G1 F1650 X99.167 Y88.64 E50.18894
M204 S5000
M205 X30 Y30
G0 F3150 X99.781 Y88.591
M204 S3000
M205 X20 Y20
G1 F1650 X94.091 Y94.281 E50.45658
M204 S5000
M205 X30 Y30
G0 F3150 X94.096 Y94.842
M204 S3000
M205 X20 Y20
G1 F1650 X100.355 Y88.583 E50.75098
M204 S5000
M205 X30 Y30
G0 F3150 X100.852 Y88.652
M204 S3000
M205 X20 Y20
G1 F1650 X94.144 Y95.36 E51.06651
M204 S5000
M205 X30 Y30
G0 F3150 X94.235 Y95.834
M204 S3000
M205 X20 Y20
G1 F1650 X101.322 Y88.747 E51.39986
M204 S5000
M205 X30 Y30
G0 F3150 X101.764 Y88.871
M204 S3000
M205 X20 Y20
G1 F1650 X94.36 Y96.275 E51.74812
M204 S5000
M205 X30 Y30
G0 F3150 X94.511 Y96.69
M204 S3000
M205 X20 Y20
G1 F1650 X102.188 Y89.012 E52.10925
M204 S5000
M205 X30 Y30
G0 F3150 X102.58 Y89.186
M204 S3000
M205 X20 Y20
G1 F1650 X94.686 Y97.08 E52.48056
M204 S5000
M205 X30 Y30
G0 F3150 X94.864 Y97.469
M204 S3000
M205 X20 Y20
G1 F1650 X102.955 Y89.377 E52.86115
M204 S5000
M205 X30 Y30
G0 F3150 X103.302 Y89.596
M204 S3000
M205 X20 Y20
G1 F1650 X95.098 Y97.8 E53.24705
M204 S5000
M205 X30 Y30
G0 F3150 X95.332 Y98.132
M204 S3000
M205 X20 Y20
G1 F1650 X103.633 Y89.83 E53.63752
M204 S5000
M205 X30 Y30
G0 F3150 X103.934 Y90.095
M204 S3000
M205 X20 Y20
G1 F1650 X95.593 Y98.437 E54.02988
M204 S5000
M205 X30 Y30
G0 F3150 X95.868 Y98.726
M204 S3000
M205 X20 Y20
G1 F1650 X104.231 Y90.364 E54.42323
M204 S5000
M205 X30 Y30
G0 F3150 X104.496 Y90.665
M204 S3000
M205 X20 Y20
G1 F1650 X96.165 Y98.995 E54.81507
M204 S5000
M205 X30 Y30
G0 F3150 X96.479 Y99.247
M204 S3000
M205 X20 Y20
G1 F1650 X104.746 Y90.98 E55.20392
M204 S5000
M205 X30 Y30
G0 F3150 X104.981 Y91.311
M204 S3000
M205 X20 Y20
G1 F1650 X96.81 Y99.482 E55.58826
M204 S5000
M205 X30 Y30
G0 F3150 X97.16 Y99.698
M204 S3000
M205 X20 Y20
G1 F1650 X105.197 Y91.66 E55.96632
M204 S5000
M205 X30 Y30
G0 F3150 X105.373 Y92.05
M204 S3000
M205 X20 Y20
G1 F1650 X97.551 Y99.872 E56.33424
M204 S5000
M205 X30 Y30
G0 F3150 X97.943 Y100.046
M204 S3000
M205 X20 Y20
G1 F1650 X105.549 Y92.44 E56.69201
M204 S5000
M205 X30 Y30
G0 F3150 X105.684 Y92.87
M204 S3000
M205 X20 Y20
G1 F1650 X98.385 Y100.17 E57.03535
M204 S5000
M205 X30 Y30
G0 F3150 X98.827 Y100.293
M204 S3000
M205 X20 Y20
G1 F1650 X105.794 Y93.326 E57.36306
M204 S5000
M205 X30 Y30
G0 F3150 X105.885 Y93.801
M204 S3000
M205 X20 Y20
G1 F1650 X99.316 Y100.37 E57.67205
M204 S5000
M205 X30 Y30
G0 F3150 X99.829 Y100.423
M204 S3000
M205 X20 Y20
G1 F1650 X105.909 Y94.343 E57.95803
M204 S5000
M205 X30 Y30
G0 F3150 X105.899 Y94.919
M204 S3000
M205 X20 Y20
G1 F1650 X100.418 Y100.399 E58.21582
M204 S5000
M205 X30 Y30
G0 F3150 X101.068 Y100.315
M204 S3000
M205 X20 Y20
G1 F1650 X105.816 Y95.567 E58.43915
M204 S5000
M205 X30 Y30
G0 F3150 X105.624 Y96.324
M204 S3000
M205 X20 Y20
G1 F1650 X101.826 Y100.123 E58.61782
G1 X101.756 Y100.193
M204 S5000
M205 X30 Y30
G0 F3150 X102.821 Y99.694
M204 S3000
M205 X20 Y20
G3 X105.270 Y97.244 I5830.999 J5826.170 E58.72974 F1650
M204 S5000
M205 X30 Y30
G1 F2400 E57.72974
;MESH:NONMESH
G0 F600 X105.27 Y97.244 Z0.7
G0 F3150 X93.524 Y93.961
;TIME_ELAPSED:44.599035
;LAYER:2
M106 S255
M204 S3000
M205 X20 Y20
;TYPE:WALL-INNER
;MESH:Handle-3.stl
G1 F2400 E58.72974
G2 X93.616 Y93.285 I6.476 J0.537 E60.06476 F3300
G1 X93.524 Y93.961 E60.08745
M204 S5000
M205 X30 Y30
G0 F4200 X93.125 Y93.926
M204 S3000
M205 X20 Y20
G2 X93.222 Y93.212 I6.875 J0.570 E61.50487 F3300
G1 X93.125 Y93.926 E61.52884
M204 S5000
M205 X30 Y30
G0 F4200 X92.726 Y93.89
M204 S3000
M205 X20 Y20
;TYPE:WALL-OUTER
G2 X92.828 Y93.139 I7.274 J0.606 E63.02866 F1650
G1 X92.726 Y93.89 E63.05387
M204 S5000
M205 X30 Y30
G0 F4200 X92.718 Y94.09
G0 X93.416 Y94.119
G0 X93.903 Y93.997
M204 S3000
M205 X20 Y20
;TYPE:SKIN
G2 X93.990 Y93.357 I6.097 J0.503 E64.31058 F1650
G1 X93.903 Y93.997 E64.33206
M204 S5000
M205 X30 Y30
G0 F4200 X102.961 Y89.384
M204 S3000
M205 X20 Y20
G1 F1650 X105.121 Y91.544 E64.43366
G1 X105.191 Y91.614
M204 S5000
M205 X30 Y30
G0 F4200 X105.595 Y92.585
M204 S3000
M205 X20 Y20
G1 F1650 X101.912 Y88.901 E64.60692
M204 S5000
M205 X30 Y30
G0 F4200 X101.145 Y88.7
M204 S3000
M205 X20 Y20
G1 F1650 X105.8 Y93.355 E64.82588
M204 S5000
M205 X30 Y30
G0 F4200 X105.897 Y94.017
M204 S3000
M205 X20 Y20
G1 F1650 X100.482 Y88.603 E65.08056
M204 S5000
M205 X30 Y30
G0 F4200 X99.917 Y88.603
M204 S3000
M205 X20 Y20
G1 F1650 X105.921 Y94.607 E65.36297
M204 S5000
M205 X30 Y30
G0 F4200 X105.877 Y95.129
M204 S3000
M205 X20 Y20
G1 F1650 X99.369 Y88.62 E65.66911
M204 S5000
M205 X30 Y30
G0 F4200 X98.878 Y88.696
M204 S3000
M205 X20 Y20
G1 F1650 X105.807 Y95.624 E65.99501
M204 S5000
M205 X30 Y30
G0 F4200 X105.683 Y96.066
M204 S3000
M205 X20 Y20
G1 F1650 X98.416 Y88.799 E66.33683
M204 S5000
M205 X30 Y30
G0 F4200 X97.984 Y88.933
M204 S3000
M205 X20 Y20
G1 F1650 X105.56 Y96.509 E66.69318
M204 S5000
M205 X30 Y30
G0 F4200 X105.39 Y96.905
M204 S3000
M205 X20 Y20
G1 F1650 X97.592 Y89.107 E67.05997
M204 S5000
M205 X30 Y30
G0 F4200 X97.205 Y89.285
M204 S3000
M205 X20 Y20
G1 F1650 X105.213 Y97.294 E67.43667
M204 S5000
M205 X30 Y30
G0 F4200 X105.007 Y97.653
M204 S3000
M205 X20 Y20
G1 F1650 X96.849 Y89.495 E67.82039
M204 S5000
M205 X30 Y30
G0 F4200 X96.513 Y89.725
M204 S3000
M205 X20 Y20
G1 F1650 X104.773 Y97.985 E68.20892
M204 S5000
M205 X30 Y30
G0 F4200 X104.525 Y98.303
M204 S3000
M205 X20 Y20
G1 F1650 X96.193 Y89.97 E68.60085
M204 S5000
M205 X30 Y30
G0 F4200 X95.899 Y90.243
M204 S3000
M205 X20 Y20
G1 F1650 X104.26 Y98.603 E68.99411
M204 S5000
M205 X30 Y30
G0 F4200 X103.968 Y98.877
M204 S3000
M205 X20 Y20
G1 F1650 X95.62 Y90.529 E69.38677
M204 S5000
M205 X30 Y30
G0 F4200 X95.356 Y90.83
M204 S3000
M205 X20 Y20
G1 F1650 X103.666 Y99.14 E69.77765
M204 S5000
M205 X30 Y30
G0 F4200 X103.342 Y99.382
M204 S3000
M205 X20 Y20
G1 F1650 X95.121 Y91.161 E70.16434
M204 S5000
M205 X30 Y30
G0 F4200 X94.899 Y91.505
M204 S3000
M205 X20 Y20
G1 F1650 X102.992 Y99.598 E70.54501
M204 S5000
M205 X30 Y30
G0 F4200 X102.623 Y99.794
M204 S3000
M205 X20 Y20
G1 F1650 X94.704 Y91.876 E70.91747
M204 S5000
M205 X30 Y30
G0 F4200 X94.53 Y92.267
M204 S3000
M205 X20 Y20
G1 F1650 X102.232 Y99.969 E71.27975
M204 S5000
M205 X30 Y30
G0 F4200 X101.839 Y100.142
M204 S3000
M205 X20 Y20
G1 F1650 X94.383 Y92.686 E71.63046
M204 S5000
M205 X30 Y30
G0 F4200 X94.259 Y93.128
M204 S3000
M205 X20 Y20
G1 F1650 X101.377 Y100.245 E71.96524
M204 S5000
M205 X30 Y30
G0 F4200 X100.91 Y100.344
M204 S3000
M205 X20 Y20
G1 F1650 X94.158 Y93.592 E72.28283
M204 S5000
M205 X30 Y30
G0 F4200 X94.091 Y94.091
M204 S3000
M205 X20 Y20
G1 F1650 X100.397 Y100.397 E72.57945
M204 S5000
M205 X30 Y30
G0 F4200 X99.831 Y100.397
M204 S3000
M205 X20 Y20
G1 F1650 X94.089 Y94.654 E72.84956
M204 S5000
M205 X30 Y30
G0 F4200 X94.123 Y95.255
M204 S3000
M205 X20 Y20
G1 F1650 X99.23 Y100.361 E73.08975
M204 S5000
M205 X30 Y30
G0 F4200 X98.526 Y100.223
M204 S3000
M205 X20 Y20
G1 F1650 X94.258 Y95.955 E73.29051
G1 X94.188 Y95.885
M204 S5000
M205 X30 Y30
G0 F4200 X94.575 Y96.838
M204 S3000
M205 X20 Y20
G1 F1650 X97.659 Y99.921 E73.43555
G1 X97.729 Y99.991
M204 S5000
M205 X30 Y30
G0 F4200 X96.248 Y99.076
M204 S3000
M205 X20 Y20
G3 X95.409 Y98.238 I643.583 J-645.190 E73.47169 F1650
M204 S5000
M205 X30 Y30
G1 F2400 E72.47169
;MESH:NONMESH
G0 F600 X95.409 Y98.238 Z0.9
G0 F4200 X93.533 Y93.745
;TIME_ELAPSED:60.179345
;LAYER:3
M204 S3000
M205 X20 Y20
;TYPE:WALL-INNER
;MESH:Handle-3.stl
G1 F2400 E73.47169
G2 X99.253 Y88.033 I6.462 J0.751 E74.54038 F3300
G2 X93.533 Y93.745 I0.782 J6.504 E74.82996
M204 S5000
M205 X30 Y30
G0 F4200 X93.431 Y95.258
G0 X93.134 Y95.299
M204 S3000
M205 X20 Y20
G2 X103.002 Y88.272 I6.861 J-0.807 E75.78173 F3300
G2 X93.134 Y95.299 I-2.986 J6.249 E76.27193
M204 S5000
M205 X30 Y30
G0 F4200 X92.701 Y94.501
M204 S3000
M205 X20 Y20
;TYPE:WALL-OUTER
G2 X104.053 Y88.421 I7.300 J-0.007 E77.27329 F1650
G2 X92.701 Y94.501 I-4.056 J6.065 E77.79757
M204 S5000
M205 X30 Y30
G0 F4200 X92.709 Y94.701
G0 X93.408 Y94.673
G0 X93.912 Y93.79
M204 S3000
M205 X20 Y20
;TYPE:SKIN
G2 X96.617 Y89.394 I6.081 J0.711 E78.89945 F1650
G2 X93.912 Y93.790 I3.451 J5.153 E79.07639
M204 S5000
M205 X30 Y30
G0 F4200 X94.625 Y92.05
M204 S3000
M205 X20 Y20
G1 F1650 X97.572 Y89.103 E79.21501
G1 X97.642 Y89.033
M204 S5000
M205 X30 Y30
G0 F4200 X98.463 Y88.777
M204 S3000
M205 X20 Y20
G1 F1650 X94.282 Y92.959 E79.41169
M204 S5000
M205 X30 Y30
G0 F4200 X94.137 Y93.67
M204 S3000
M205 X20 Y20
G1 F1650 X99.166 Y88.641 E79.64824
M204 S5000
M205 X30 Y30
G0 F4200 X99.781 Y88.591
M204 S3000
M205 X20 Y20
G1 F1650 X94.091 Y94.282 E79.9159
M204 S5000
M205 X30 Y30
G0 F4200 X94.096 Y94.842
M204 S3000
M205 X20 Y20
G1 F1650 X100.341 Y88.596 E80.20967
M204 S5000
M205 X30 Y30
G0 F4200 X100.858 Y88.645
M204 S3000
M205 X20 Y20
G1 F1650 X94.144 Y95.36 E80.5255
M204 S5000
M205 X30 Y30
G0 F4200 X94.235 Y95.834
M204 S3000
M205 X20 Y20
G1 F1650 X101.333 Y88.736 E80.85937
M204 S5000
M205 X30 Y30
G0 F4200 X101.781 Y88.854
M204 S3000
M205 X20 Y20
G1 F1650 X94.36 Y96.275 E81.20843
M204 S5000
M205 X30 Y30
G0 F4200 X94.511 Y96.69
M204 S3000
M205 X20 Y20
G1 F1650 X102.19 Y89.011 E81.56963
M204 S5000
M205 X30 Y30
G0 F4200 X102.596 Y89.17
M204 S3000
M205 X20 Y20
G1 F1650 X94.685 Y97.081 E81.94174
M204 S5000
M205 X30 Y30
G0 F4200 X94.864 Y97.468
M204 S3000
M205 X20 Y20
G1 F1650 X102.954 Y89.379 E82.32224
M204 S5000
M205 X30 Y30
G0 F4200 X103.308 Y89.59
M204 S3000
M205 X20 Y20
G1 F1650 X95.098 Y97.799 E82.70839
M204 S5000
M205 X30 Y30
G0 F4200 X95.332 Y98.131
M204 S3000
M205 X20 Y20
G1 F1650 X103.631 Y89.832 E83.09875
M204 S5000
M205 X30 Y30
G0 F4200 X103.937 Y90.092
M204 S3000
M205 X20 Y20
G1 F1650 X95.593 Y98.436 E83.49123
M204 S5000
M205 X30 Y30
G0 F4200 X95.868 Y98.727
M204 S3000
M205 X20 Y20
G1 F1650 X104.231 Y90.364 E83.8846
M204 S5000
M205 X30 Y30
G0 F4200 X104.496 Y90.665
M204 S3000
M205 X20 Y20
G1 F1650 X96.162 Y98.999 E84.2766
M204 S5000
M205 X30 Y30
G0 F4200 X96.478 Y99.248
M204 S3000
M205 X20 Y20
G1 F1650 X104.746 Y90.98 E84.66551
M204 S5000
M205 X30 Y30
G0 F4200 X104.982 Y91.31
M204 S3000
M205 X20 Y20
G1 F1650 X96.809 Y99.482 E85.04992
M204 S5000
M205 X30 Y30
G0 F4200 X97.166 Y99.692
M204 S3000
M205 X20 Y20
