;FLAVOR:Marlin
;TIME:136
;Filament used: 0.0414756m
;Layer height: 0.1
;MINX:88.962
;MINY:83.467
;MINZ:0.15
;MAXX:111.033
;MAXY:105.533
;MAXZ:3.55
;ARCWELDERPROCESSED
; Postprocessed by [ArcWelder](https://github.com/FormerLurker/ArcWelderLib)
; Copyright(C) 2021 - Brad Hochgesang
; Version: 1.2.0, Branch: master, BuildDate: 2021-11-22T09:56:32Z
; resolution=0.05mm
; path_tolerance=5.0%
; max_radius=9999.00mm
; default_xyz_precision=3
; default_e_precision=5
; extrusion_rate_variance_percent=5.0%

;Generated with Cura_SteamEngine main
M140 S60
M105
M190 S60
M104 S210
M105
M109 S210
M82 ;absolute extrusion mode
G21 ;metric values
G90 ;absolute positioning
M82 ;set extruder to absolute mode
M107 ;start with the fan off
G28 X0 Y0 ;move X/Y to min endstops
G28 Z0 ;move Z to min endstops
G1 Z15.0 F9000 ;move the platform down 15mm
G92 E0 ;zero the extruded length
G1 F200 E3 ;extrude 3 mm of feed stock
G92 E0 ;zero the extruded length again
G1 F9000
;Put printing message on LCD screen
M117 Printing...
G92 E0
G92 E0
G1 F2400 E-1
;LAYER_COUNT:26
;LAYER:0
M107
M204 S5000
M205 X30 Y30
G1 F600 Z1.15
G0 F2100 X92.333 Y86.555 Z1.15
G1 F600 Z1.15
G0 F2100 X88.962 Y94.265
M204 S3000
M205 X20 Y20
;TYPE:SKIRT
G1 F600 Z0.15
G1 F2400 E0
G3 X92.771 Y102.850 I11.035 J0.242 E2.23189 F1650
G3 X88.962 Y94.265 I7.192 J-8.328 E2.59477
M204 S5000
M205 X30 Y30
G0 F2100 X89.563 Y94.278
M204 S3000
M205 X20 Y20
G3 X97.732 Y104.692 I10.439 J0.223 E4.51245 F1650
G3 X89.563 Y94.278 I2.271 J-10.192 E5.04878
M204 S5000
M205 X30 Y30
G0 F2100 X90.163 Y94.296
M204 S3000
M205 X20 Y20
G3 X106.360 Y102.018 I9.842 J0.205 E6.51732 F1650
G3 X90.292 Y96.138 I-6.346 J-7.553 E7.29264
G3 X90.163 Y94.296 I7.468 J-1.449 E7.36186
M204 S5000
M205 X30 Y30
G0 F2100 X90.763 Y94.325
M204 S3000
M205 X20 Y20
G3 X95.213 Y86.607 I9.195 J0.160 E7.70993 F1650
G1 X96.15 Y86.088 E7.75001
G3 X98.116 Y85.440 I3.930 J8.617 E7.82757
G3 X107.813 Y89.570 I1.862 J9.077 E8.24706
G3 X103.978 Y102.840 I-7.791 J4.938 E8.83083
G3 X90.879 Y96.016 I-3.979 J-8.347 E9.47089
G3 X90.763 Y94.325 I6.868 J-1.321 E9.53443
M204 S5000
M205 X30 Y30
G1 F2400 E8.53443
G1 F600 Z1.15
;MESH:filler.stl
G0 F2100 X94.381 Y95.173 Z1.15
M204 S3000
M205 X20 Y20
;TYPE:WALL-OUTER
G1 F600 Z0.15
G1 F2400 E9.53443
G2 X97.597 Y99.609 I5.660 J-0.719 E9.74827 F1650
G2 X99.531 Y88.874 I2.403 J-5.109 E10.52250
G2 X94.711 Y92.527 I0.425 J5.567 E10.76145
G1 X94.43 Y93.491 E10.79902
G2 X94.381 Y95.173 I7.147 J1.050 E10.86209
M204 S5000
M205 X30 Y30
G0 F2100 X94.424 Y95.368
G0 X95.01 Y95.239
G0 X95.023 Y94.039
G0 X95.614 Y94.132
M204 S3000
M205 X20 Y20
G3 X103.437 Y91.750 I4.388 J0.372 E11.25433 F1650
G1 X103.945 Y92.514 E11.28866
G3 X98.216 Y98.524 I-3.947 J1.974 E11.69279
G1 X97.408 Y98.076 E11.72736
G3 X95.614 Y94.132 I2.685 J-3.601 E11.89641
M204 S5000
M205 X30 Y30
G0 F2100 X95.645 Y93.935
G0 X94.981 Y94.617
M204 S3000
M205 X20 Y20
;TYPE:WALL-INNER
G1 F1527.8 X95.015 Y95.162 E11.91848
G1 F1520.7 X95.175 Y95.905 E11.94934
G1 F1523.1 X95.423 Y96.588 E11.97879
G1 F1527.8 X95.771 Y97.209 E12.00756
G1 F1502.3 X96.036 Y97.578 E12.02623
G1 F1473.2 X96.57 Y98.171 E12.05967
G1 F1518.4 X97.113 Y98.624 E12.08842
G1 F1546.9 X97.871 Y99.048 E12.12309
G1 F1527.8 X98.247 Y99.2 E12.13948
G1 F1513.8 X99.113 Y99.45 E12.17624
G1 X99.9 Y99.52 E12.20846
G1 F1516.1 X100.482 Y99.502 E12.23218
G2 X102.006 Y99.109 I-0.342 J-4.476 E12.29701 F1505
G2 X103.093 Y98.464 I-2.075 J-4.735 E12.34858 F1516
G1 F1534.9 X103.434 Y98.164 E12.36685
G1 F1544.5 X104.036 Y97.515 E12.40223
G1 F1520.7 X104.446 Y96.829 E12.43468
G1 F1542.1 X104.67 Y96.378 E12.45484
G1 F1554.2 X104.904 Y95.59 E12.48749
G1 F1537.3 X105.006 Y94.891 E12.51586
G1 F1525.4 X105.017 Y94.4 E12.53574
G1 F1534.9 X104.975 Y93.772 E12.56106
G1 F1549.3 X104.806 Y93.036 E12.59115
G1 F1544.5 X104.516 Y92.236 E12.62517
G1 F1527.8 X103.969 Y91.414 E12.66507
G1 F1506.8 X103.434 Y90.824 E12.6977
G1 F1525.4 X102.74 Y90.291 E12.73312
G1 F1573.9 X101.969 Y89.875 E12.76748
G1 F1554.2 X101.622 Y89.743 E12.78223
G1 F1500 X100.874 Y89.554 E12.81399
G1 F1513.8 X100.288 Y89.482 E12.83807
G1 F1527.8 X99.529 Y89.498 E12.86874
G1 F1516.1 X98.725 Y89.626 E12.9019
G1 F1511.5 X97.955 Y89.904 E12.93534
G1 F1516.1 X97.09 Y90.384 E12.97562
G1 F1520.7 X96.364 Y91.03 E13.01508
G1 F1513.8 X95.875 Y91.619 E13.0463
G1 F1516.1 X95.623 Y92.054 E13.06677
G1 F1532.5 X95.371 Y92.489 E13.08702
G1 F1534.9 X95.066 Y93.503 E13.12962
G1 F1527.8 X94.981 Y94.4 E13.16603
G1 F1537.3 X94.981 Y94.617 E13.17474
M204 S5000
M205 X30 Y30
G1 F2400 E12.17474
;MESH:NONMESH
G0 F600 X94.981 Y94.617 Z0.25
G0 F2100 X94.774 Y94.549
;TIME_ELAPSED:19.001794
;LAYER:1
M106 S51
M204 S3000
M205 X20 Y20
;TYPE:WALL-INNER
;MESH:filler.stl
G1 F2400 E13.17474
G1 F1577.2 X94.856 Y95.453 E13.19293
G1 X95.165 Y96.501 E13.21483
G1 X95.56 Y97.242 E13.23165
G1 F1583.8 X95.989 Y97.835 E13.24626
G1 X96.502 Y98.391 E13.26136
G1 F1567.5 X97.293 Y98.972 E13.28115
G1 F1564.2 X97.981 Y99.306 E13.2966
G1 F1580.5 X98.478 Y99.488 E13.30718
G1 X99.238 Y99.658 E13.32276
G1 F1567.5 X100.048 Y99.724 E13.33914
G1 X101.005 Y99.636 E13.35852
G1 F1583.8 X101.925 Y99.348 E13.37776
G2 X102.885 Y98.845 I-1.972 J-4.931 E13.39937 F1587
G1 F1574 X103.497 Y98.385 E13.41475
G1 F1567.5 X104.019 Y97.825 E13.43018
G1 X104.478 Y97.199 E13.44583
G1 F1574 X104.857 Y96.401 E13.46357
G1 F1593.8 X104.991 Y96.012 E13.47173
G1 F1587.1 X105.177 Y95.191 E13.4885
G1 F1567.5 X105.224 Y94.45 E13.50347
G1 F1561 X105.134 Y93.499 E13.52281
G1 F1577.2 X104.849 Y92.575 E13.54219
G1 F1590.4 X104.571 Y91.986 E13.55513
G2 X103.951 Y91.094 I-4.602 J2.537 E13.57670 F1594
G1 F1590.4 X103.367 Y90.513 E13.59307
G1 F1580.5 X102.83 Y90.112 E13.60647
G1 F1570.7 X102.113 Y89.736 E13.62277
G1 F1574 X101.517 Y89.511 E13.63556
G1 F1580.5 X100.762 Y89.342 E13.65103
G1 F1567.5 X99.952 Y89.276 E13.66742
G1 F1574 X99.232 Y89.34 E13.68193
G1 F1580.5 X98.813 Y89.423 E13.69047
G1 F1567.5 X98.077 Y89.655 E13.70603
G1 F1570.7 X97.486 Y89.929 E13.71914
G1 F1580.5 X97.124 Y90.15 E13.72762
G1 F1567.5 X96.538 Y90.591 E13.74241
G1 F1570.7 X95.982 Y91.175 E13.75864
G1 F1593.8 X95.505 Y91.818 E13.77452
G1 F1587.1 X95.193 Y92.481 E13.78911
G1 F1583.8 X95.011 Y92.979 E13.79969
G1 F1587.1 X94.84 Y93.737 E13.81516
G1 F1580.5 X94.774 Y94.549 E13.83146
M204 S5000
M205 X30 Y30
G0 F3150 X95.259 Y94.558
M204 S3000
M205 X20 Y20
G1 F1580.5 X95.319 Y93.768 E13.8473
G1 F1590.4 X95.442 Y93.192 E13.859
G1 F1597.1 X95.759 Y92.337 E13.87705
G1 F1603.8 X96.221 Y91.64 E13.89353
G3 X97.136 Y90.724 I3.838 J2.919 E13.91904 F1607
G1 F1590.4 X97.643 Y90.385 E13.93116
G1 F1587.1 X98.479 Y90.009 E13.94942
G1 F1593.8 X99.187 Y89.831 E13.9639
G1 F1597.1 X99.677 Y89.773 E13.97366
G1 F1603.8 X100.39 Y89.779 E13.98771
G1 F1607.2 X101.071 Y89.886 E14.00127
G1 F1610.6 X101.565 Y90.027 E14.01135
G1 F1620.9 X102.352 Y90.389 E14.02824
G3 X103.246 Y91.051 I-2.067 J3.726 E14.05002 F1618
G1 F1607.2 X103.589 Y91.405 E14.05972
G1 F1610.6 X104.061 Y92.034 E14.07515
G1 X104.404 Y92.749 E14.09071
G1 F1600.5 X104.581 Y93.276 E14.10169
G1 F1614.1 X104.737 Y94.183 E14.11971
G1 F1617.5 X104.725 Y95.037 E14.1364
G1 F1610.6 X104.533 Y95.889 E14.15354
G1 F1603.8 X104.355 Y96.364 E14.16354
G1 F1593.8 X104.098 Y96.889 E14.17513
G1 F1597.1 X103.836 Y97.284 E14.18451
G3 X102.727 Y98.376 I-3.147 J-2.087 E14.21515 F1614
G1 F1603.8 X102.385 Y98.595 E14.22315
G1 F1597.1 X101.686 Y98.931 E14.2385
G1 F1590.4 X101.065 Y99.119 E14.2514
G1 F1593.8 X100.356 Y99.224 E14.26561
G1 F1600.5 X99.61 Y99.221 E14.28034
G1 F1607.2 X98.928 Y99.114 E14.29392
G1 X98.44 Y98.974 E14.3039
G1 F1597.1 X97.753 Y98.672 E14.31875
G3 X96.769 Y97.968 I2.281 J-4.228 E14.34279 F1594
G3 X95.984 Y97.020 I3.508 J-3.704 E14.36735 F1587
G1 F1580.5 X95.646 Y96.38 E14.38182
G1 F1593.8 X95.516 Y96.03 E14.38923
G1 F1603.8 X95.305 Y95.156 E14.40695
G1 F1580.5 X95.259 Y94.558 E14.41894
M204 S5000
M205 X30 Y30
G0 F3150 X95.742 Y95.111
M204 S3000
M205 X20 Y20
;TYPE:WALL-OUTER
G3 X104.284 Y94.117 I4.258 J-0.611 E14.64734 F1267
G3 X95.742 Y95.111 I-4.284 J0.383 E14.86812
M204 S5000
M205 X30 Y30
G0 F3150 X95.727 Y94.912
G0 X95.03 Y94.968
G0 X94.33 Y94.551
M204 S3000
M205 X20 Y20
G2 X105.411 Y96.146 I5.665 J-0.070 E15.13507 F1267
G2 X94.405 Y93.670 I-5.411 J-1.646 E15.44441
G1 X94.33 Y94.551 E15.45912
M204 S5000
M205 X30 Y30
G0 F3150 X94.349 Y94.75
G1 F2400 E14.45912
;MESH:NONMESH
G0 F600 X94.349 Y94.75 Z0.35
G0 F3150 X94.829 Y94.56
;TIME_ELAPSED:24.552567
;LAYER:2
M106 S102
M204 S3000
M205 X20 Y20
;TYPE:WALL-INNER
;MESH:filler.stl
G1 F2400 E15.45912
G1 F2009.8 X94.904 Y95.354 E15.47404
G1 F2027.9 X95.101 Y96.18 E15.48978
G2 X96.176 Y97.969 I5.254 J-1.940 E15.52850 F2037
G1 F2032.4 X96.54 Y98.33 E15.53799
G1 F2027.9 X97.154 Y98.804 E15.55237
G1 F2037 X97.516 Y99.025 E15.5602
G1 F2041.6 X98.313 Y99.397 E15.5764
G1 F2032.4 X99.19 Y99.608 E15.59309
G1 F2018.8 X100.016 Y99.675 E15.60852
G1 F2027.9 X100.736 Y99.61 E15.62193
G1 F2037 X101.495 Y99.441 E15.63628
G1 F2050.8 X101.893 Y99.305 E15.64399
G1 F2046.2 X102.477 Y99.027 E15.65588
G2 X103.526 Y98.268 I-2.365 J-4.372 E15.68004 F2019
G1 F2032.4 X104.116 Y97.618 E15.69628
G1 F2041.6 X104.523 Y96.987 E15.71011
G1 F2037 X104.899 Y96.181 E15.72653
G1 F2014.3 X105.106 Y95.307 E15.7433
G1 F1987.7 X105.168 Y94.441 E15.75972
G1 F2009.8 X105.111 Y93.767 E15.77238
G2 X104.598 Y92.122 I-4.809 J0.597 E15.80453 F2023
G2 X103.833 Y91.043 I-4.952 J2.700 E15.82898 F2037
G1 F2018.8 X103.279 Y90.495 E15.84349
G1 F2023.3 X102.487 Y89.976 E15.86109
G1 F2037 X101.897 Y89.7 E15.87311
G1 F2032.4 X101.503 Y89.563 E15.88083
G1 F2014.3 X100.739 Y89.377 E15.89551
G1 F1996.5 X99.863 Y89.326 E15.91203
G1 X99.039 Y89.432 E15.92768
G1 F2018.8 X98.527 Y89.552 E15.93748
G1 F2032.4 X98.107 Y89.699 E15.94571
G1 F2023.3 X97.526 Y89.972 E15.95764
G1 F2027.9 X97.153 Y90.194 E15.96569
G1 F2037 X96.54 Y90.669 E15.98
G2 X95.499 Y91.965 I2.838 J3.346 E16.01076 F2042
G1 F2032.4 X95.118 Y92.778 E16.02737
G1 F2018.8 X94.893 Y93.695 E16.04496
G1 F2009.8 X94.829 Y94.56 E16.06118
M204 S5000
M205 X30 Y30
G0 F4200 X95.278 Y94.191
M204 S3000
M205 X20 Y20
G1 F2074.4 X95.406 Y93.412 E16.07549
G1 F2055.5 X95.569 Y92.869 E16.08586
G1 F2046.2 X95.897 Y92.158 E16.10025
G1 F2041.6 X96.253 Y91.624 E16.11207
G1 X96.887 Y90.947 E16.12916
G1 F2046.2 X97.474 Y90.511 E16.14259
G1 F2055.5 X98.13 Y90.163 E16.15618
G1 F2060.2 X98.806 Y89.927 E16.16925
G3 X102.390 Y90.431 I1.192 J4.516 E16.23700
G1 F2046.2 X102.965 Y90.819 E16.24974
G1 F2041.6 X103.575 Y91.415 E16.26545
G1 F2064.9 X103.879 Y91.808 E16.2745
G1 F2050.8 X104.307 Y92.558 E16.29033
G1 F2032.4 X104.546 Y93.199 E16.30299
G1 F2046.2 X104.685 Y93.919 E16.31646
G1 F2060.2 X104.724 Y94.719 E16.33108
G1 F2069.6 X104.598 Y95.576 E16.34682
G1 X104.463 Y96.046 E16.3557
G1 F2064.9 X104.182 Y96.697 E16.36861
G1 F2055.5 X103.765 Y97.351 E16.3828
G1 F2050.8 X103.12 Y98.048 E16.40021
G1 F2069.6 X102.541 Y98.477 E16.41331
G1 F2088.7 X101.836 Y98.858 E16.42773
G1 F2083.9 X101.082 Y99.094 E16.44199
G1 F2060.2 X100.632 Y99.179 E16.45035
G1 F2037 X99.959 Y99.222 E16.4628
G1 F2027.9 X99.25 Y99.164 E16.47599
G1 F2041.6 X98.752 Y99.055 E16.48538
G1 F2055.5 X98.132 Y98.834 E16.49742
G1 X97.675 Y98.608 E16.50674
G1 F2064.9 X97.083 Y98.21 E16.51973
G1 F2069.6 X96.571 Y97.747 E16.53227
G1 F2064.9 X96.244 Y97.358 E16.54153
G1 F2055.5 X95.896 Y96.84 E16.55294
G1 F2041.6 X95.55 Y96.087 E16.56821
G1 F2050.8 X95.402 Y95.575 E16.57798
G1 F2060.2 X95.303 Y94.977 E16.58904
G1 F2074.4 X95.278 Y94.191 E16.6033
M204 S5000
M205 X30 Y30
G0 F4200 X95.694 Y94.222
M204 S3000
M205 X20 Y20
;TYPE:WALL-OUTER
G3 X102.817 Y97.750 I4.290 J0.293 E16.88438 F1131
G3 X95.694 Y94.222 I-2.813 J-3.274 E17.05234
M204 S5000
M205 X30 Y30
G0 F4200 X95.727 Y94.025
G0 X95.038 Y93.907
G0 X95.103 Y94.558
G0 X94.402 Y94.564
M204 S3000
M205 X20 Y20
G2 X104.152 Y90.765 I5.587 J-0.072 E17.41107 F1131
G1 X103.549 Y90.162 E17.42525
G2 X99.920 Y88.901 I-3.651 J4.654 E17.49028
G2 X94.402 Y94.564 I0.123 J5.639 E17.63600
M204 S5000
M205 X30 Y30
G0 F4200 X94.42 Y94.763
G1 F2400 E16.636
;MESH:NONMESH
G0 F600 X94.42 Y94.763 Z0.45
G0 F4200 X94.89 Y94.396
;TIME_ELAPSED:29.914727
;LAYER:3
M106 S153
M204 S3000
M205 X20 Y20
;TYPE:WALL-INNER
;MESH:filler.stl
G1 F2400 E17.636
G1 F2201.8 X94.911 Y94.965 E17.64564
G1 F2191 X94.982 Y95.453 E17.65402
G1 F2180.3 X95.162 Y96.189 E17.66697
G1 F2169.8 X95.547 Y97.019 E17.68268
G1 F2175.1 X95.929 Y97.589 E17.69443
G1 F2191 X96.206 Y97.92 E17.70177
G1 F2175.1 X96.658 Y98.361 E17.71259
G1 F2159.3 X96.992 Y98.624 E17.71992
G1 F2164.5 X97.638 Y99.027 E17.73303
G1 F2175.1 X98.365 Y99.356 E17.7467
G1 F2191 X99.259 Y99.555 E17.76227
G1 F2185.7 X99.908 Y99.607 E17.77337
G1 F2175.1 X100.421 Y99.59 E17.78216
G1 F2185.7 X101.066 Y99.497 E17.79327
G1 F2196.4 X101.443 Y99.401 E17.79987
G1 F2201.8 X102.122 Y99.15 E17.81212
G1 F2196.4 X102.667 Y98.857 E17.82261
G1 F2169.8 X103.267 Y98.444 E17.83512
G1 F2164.5 X103.87 Y97.833 E17.8499
G1 F2185.7 X104.127 Y97.511 E17.85692
G1 F2180.3 X104.556 Y96.819 E17.87083
G1 F2159.3 X104.872 Y96.095 E17.88446
G1 F2164.5 X105.052 Y95.242 E17.89947
G1 F2169.8 X105.107 Y94.592 E17.91067
G2 X104.995 Y93.445 I-4.528 J-0.137 E17.93035 F2186
G1 F2175.1 X104.795 Y92.711 E17.94338
G1 F2191 X104.482 Y92.05 E17.95582
G2 X103.795 Y91.082 I-4.151 J2.218 E17.97594 F2202
G2 X102.363 Y89.971 I-3.340 J2.827 E18.00693 F2191
G1 F2164.5 X101.666 Y89.658 E18.02008
G1 F2159.3 X100.741 Y89.448 E18.03644
G2 X99.579 Y89.410 I-0.737 J4.753 E18.05630 F2186
G1 F2175.1 X98.935 Y89.505 E18.06745
G1 F2169.8 X98.546 Y89.606 E18.07435
G1 F2164.5 X97.83 Y89.878 E18.08753
G1 F2185.7 X97.346 Y90.134 E18.09687
G2 X96.353 Y90.923 I2.661 J4.368 E18.11837 F2202
G1 F2191 X95.866 Y91.498 E18.13118
G1 F2185.7 X95.497 Y92.081 E18.14294
G1 F2169.8 X95.155 Y92.835 E18.15716
G1 F2164.5 X94.949 Y93.714 E18.1727
G1 F2191 X94.89 Y94.396 E18.18434
M204 S5000
M205 X30 Y30
G0 F4200 X95.311 Y94.891
M204 S3000
M205 X20 Y20
G1 F2207.2 X95.298 Y94.431 E18.19211
G1 F2201.8 X95.355 Y93.74 E18.20384
G1 F2196.4 X95.509 Y93.095 E18.21509
G1 F2207.2 X95.706 Y92.582 E18.22436
G1 F2223.6 X95.939 Y92.132 E18.23285
G1 F2257.2 X96.421 Y91.434 E18.24685
G1 F2245.9 X96.999 Y90.876 E18.26018
G1 F2212.6 X97.655 Y90.422 E18.27361
G1 F2229.2 X98.346 Y90.1 E18.28635
G1 F2240.3 X99.16 Y89.867 E18.30043
G1 F2229.2 X99.882 Y89.799 E18.31255
G1 F2223.6 X100.379 Y89.813 E18.32089
G1 F2234.7 X101.142 Y89.94 E18.33378
G1 F2229.2 X101.826 Y90.166 E18.34582
G1 F2257.2 X102.582 Y90.55 E18.35982
G1 F2291.9 X103.264 Y91.103 E18.37409
G1 F2251.6 X103.73 Y91.632 E18.38575
G1 F2212.6 X104.144 Y92.277 E18.39866
G1 F2234.7 X104.474 Y92.992 E18.41179
G1 F2212.6 X104.59 Y93.526 E18.42099
G1 F2191 X104.685 Y94.084 E18.43061
G1 F2223.6 X104.699 Y94.874 E18.44385
G3 X104.264 Y96.485 I-5.013 J-0.489 E18.47177 F2235
G1 F2240.3 X104.067 Y96.859 E18.4788
G1 F2234.7 X103.687 Y97.423 E18.49014
G1 F2212.6 X103.069 Y98.073 E18.50524
G1 F2196.4 X102.374 Y98.563 E18.51966
G1 F2218.1 X101.813 Y98.838 E18.53016
G1 F2234.7 X101.265 Y99.032 E18.53985
G3 X100.073 Y99.205 I-1.306 J-4.804 E18.56007 F2224
G3 X98.700 Y99.020 I-0.045 J-4.854 E18.58345 F2213
G1 F2218.1 X98.175 Y98.834 E18.59281
G1 F2223.6 X97.422 Y98.44 E18.60705
G1 F2234.7 X96.715 Y97.865 E18.62224
G1 F2223.6 X96.305 Y97.417 E18.63241
G3 X95.423 Y95.581 I3.727 J-2.920 E18.66687 F2218
G1 F2212.6 X95.311 Y94.891 E18.67864
M204 S5000
M205 X30 Y30
G0 F4200 X95.712 Y94.849
M204 S3000
M205 X20 Y20
;TYPE:WALL-OUTER
G3 X103.816 Y92.515 I4.288 J-0.347 E18.87479 F1120
G1 X104.115 Y93.187 E18.88702
G1 X104.287 Y94.143 E18.90317
G3 X95.712 Y94.849 I-4.287 J0.356 E19.12778
M204 S5000
M205 X30 Y30
G0 F4200 X95.707 Y94.649
G0 X95.146 Y94.664
G0 X94.487 Y94.386
M204 S3000
M205 X20 Y20
G2 X104.886 Y97.054 I5.512 J0.114 E19.37357 F1120
G1 X105.234 Y96.295 E19.38745
G2 X103.519 Y90.256 I-5.412 J-1.726 E19.49824
G2 X95.114 Y91.946 I-3.519 J4.243 E19.66151
G1 X94.766 Y92.705 E19.6754
G2 X94.487 Y94.386 I6.038 J1.866 E19.70380
M204 S5000
M205 X30 Y30
G0 F4200 X94.493 Y94.586
G1 F2400 E18.7038
;MESH:NONMESH
G0 F600 X94.493 Y94.586 Z0.55
G0 F4200 X94.947 Y94.389
