;FLAVOR:Marlin
;TIME:565
;Filament used: 0.377264m
;Layer height: 0.1
;MINX:90.081
;MINY:57.811
;MINZ:0.15
;MAXX:109.92
;MAXY:131.227
;MAXZ:3.55
;ARCWELDERPROCESSED
; Postprocessed by [ArcWelder](https://github.com/FormerLurker/ArcWelderLib)
; Copyright(C) 2021 - Brad Hochgesang
; Version: 1.2.0, Branch: master, BuildDate: 2021-11-22T09:56:32Z
; resolution=0.05mm
; path_tolerance=5.0%
; max_radius=9999.00mm
; default_xyz_precision=3
; default_e_precision=5
; extrusion_rate_variance_percent=5.0%

;Generated with Cura_SteamEngine main
M140 S60
M105
M190 S60
M104 S210
M105
M109 S210
M82 ;absolute extrusion mode
G21 ;metric values
G90 ;absolute positioning
M82 ;set extruder to absolute mode
M107 ;start with the fan off
G28 X0 Y0 ;move X/Y to min endstops
G28 Z0 ;move Z to min endstops
G1 Z15.0 F9000 ;move the platform down 15mm
G92 E0 ;zero the extruded length
G1 F200 E3 ;extrude 3 mm of feed stock
G92 E0 ;zero the extruded length again
G1 F9000
;Put printing message on LCD screen
M117 Printing...
G92 E0
G92 E0
G1 F2400 E-1
;LAYER_COUNT:35
;LAYER:0
M107
M204 S5000
M205 X30 Y30
G1 F600 Z1.15
G0 F2100 X91.957 Y61.929 Z1.15
G1 F600 Z1.15
G0 F2100 X90.081 Y68.128
M204 S3000
M205 X20 Y20
;TYPE:SKIRT
G1 F600 Z0.15
G1 F2400 E0
G3 X109.917 Y67.729 I9.914 J-0.380 E1.17972 F1650
G1 X109.92 Y91.066 E2.05294
G3 X109.699 Y93.185 I-7.526 J0.286 E2.13288
G2 X107.561 Y113.327 I93.548 J20.114 E2.89217
G1 X107.561 Y126.053 E3.36835
G3 X106.894 Y129.059 I-5.149 J0.435 E3.48529
G3 X104.048 Y131.106 I-3.841 J-2.339 E3.61994
G1 X103.091 Y131.227 E3.65603
G3 X96.891 Y131.218 I-2.751 J-240.427 E3.88803
G3 X92.562 Y127.719 I0.059 J-4.501 E4.11241
G1 X92.44 Y126.753 E4.14884
G1 X92.44 Y113.358 E4.65005
G2 X90.178 Y92.603 I-96.223 J-0.014 E5.43276
G1 X90.081 Y91.746 E5.46504
G1 X90.081 Y68.128 E6.34877
M204 S5000
M205 X30 Y30
G0 F2100 X90.68 Y68.138
M204 S3000
M205 X20 Y20
G3 X109.317 Y67.729 I9.314 J-0.390 E7.45848 F1650
G1 X109.32 Y91.057 E8.33136
G3 X109.122 Y93.013 I-6.779 J0.302 E8.40514
G2 X106.961 Y113.294 I94.180 J20.291 E9.16971
G1 X106.961 Y126.045 E9.64682
G3 X106.574 Y128.392 I-5.570 J0.287 E9.73669
G3 X102.731 Y130.627 I-3.597 J-1.763 E9.91302
G3 X96.899 Y130.618 I-2.567 J-226.156 E10.13124
G3 X93.041 Y126.708 I0.057 J-3.915 E10.35881
G1 X93.04 Y113.349 E10.85867
G2 X90.766 Y92.485 I-96.731 J-0.013 E11.64550
G1 X90.681 Y91.728 E11.674
G1 X90.68 Y68.138 E12.55668
M204 S5000
M205 X30 Y30
G0 F2100 X91.28 Y68.147
M204 S3000
M205 X20 Y20
G3 X108.717 Y67.730 I8.714 J-0.398 E13.59631 F1650
G1 X108.72 Y91.049 E14.46885
G3 X108.637 Y92.410 I-6.884 J0.263 E14.51993
G2 X106.361 Y113.279 I94.760 J20.893 E15.30694
G1 X106.361 Y126.036 E15.78427
G3 X106.178 Y127.772 I-5.609 J0.286 E15.84990
G3 X103.048 Y130.026 I-3.145 J-1.067 E16.00370
G3 X96.906 Y130.018 I-2.765 J-234.831 E16.23352
G3 X93.641 Y126.709 I0.049 J-3.314 E16.42605
G1 X93.64 Y113.341 E16.92625
G2 X91.355 Y92.367 I-97.423 J0.002 E17.71721
G1 X91.282 Y91.731 E17.74117
G1 X91.28 Y68.147 E18.62362
M204 S5000
M205 X30 Y30
G1 F2400 E17.62362
G1 F600 Z1.15
;MESH:follower2.stl
G0 F2100 X98.804 Y89.003 Z1.15
M204 S3000
M205 X20 Y20
;TYPE:WALL-INNER
G1 F600 Z0.15
G1 F2400 E18.62362
G3 X100.000 Y90.541 I-1.708 J2.563 E18.69774 F1650
G3 X102.120 Y88.574 I2.975 J1.080 E18.81011
G1 X102.119 Y67.661 E19.59263
G2 X100.514 Y65.678 I-2.130 J0.083 E19.69472
G1 X99.831 Y65.617 E19.72038
G2 X97.880 Y67.666 I0.184 J2.128 E19.83593
G1 X97.881 Y88.573 E20.61822
G3 X98.804 Y89.003 I-0.786 J2.894 E20.65646
M204 S5000
M205 X30 Y30
G0 F2100 X98.465 Y89.498
M204 S3000
M205 X20 Y20
G3 X99.563 Y91.087 I-1.530 J2.231 E20.73025 F1650
G1 F1571.4 X99.669 Y91.727 E20.75574
G1 F1497.7 X99.67 Y123.997 E22.08597
G1 X100.331 Y123.997 E22.11322
G1 X100.331 Y91.727 E23.44344
G1 F1571.4 X100.437 Y91.087 E23.46893
G3 X102.720 Y89.072 I2.550 J0.588 E23.59038 F1650
G1 X102.719 Y67.629 E24.39272
G2 X102.510 Y66.691 I-2.953 J0.166 E24.42880
G1 X102.116 Y66.004 E24.45843
G2 X98.796 Y65.295 I-2.131 J1.850 E24.59511
G2 X98.012 Y65.880 I0.944 J2.083 E24.63191
G1 X97.552 Y66.506 E24.66098
G2 X97.280 Y67.634 I2.556 J1.213 E24.70461
G1 X97.281 Y89.071 E25.50674
G3 X98.465 Y89.498 I-0.201 J2.414 E25.55438
M204 S5000
M205 X30 Y30
G0 F2100 X102.143 Y89.839
M204 S3000
M205 X20 Y20
G3 X103.320 Y89.627 I1.047 J2.442 E25.59955 F1650
G1 X103.319 Y67.598 E26.42382
G2 X97.569 Y65.474 I-3.320 J0.142 E26.71598
G1 X97.089 Y66.129 E26.74637
G2 X96.680 Y67.602 I2.691 J1.540 E26.80403
G1 X96.681 Y89.627 E27.62816
G3 X99.039 Y91.727 I0.215 J2.132 E27.76107
G1 X99.04 Y124.627 E28.99211
G1 X100.961 Y124.627 E29.06399
G1 X100.961 Y91.727 E30.29503
G3 X102.143 Y89.839 I2.091 J-0.005 E30.38280
M204 S5000
M205 X30 Y30
G0 F2100 X98.397 Y91.371
M204 S3000
M205 X20 Y20
G1 F1650 X98.439 Y91.727 E30.39621
G1 X98.44 Y125.227 E31.6497
G1 X101.561 Y125.227 E31.76648
G1 X101.561 Y91.727 E33.01997
G3 X103.061 Y90.227 I1.499 J-0.001 E33.10787
G1 X103.92 Y90.227 E33.14001
G1 X103.919 Y67.567 E33.9879
G2 X96.080 Y67.570 I-3.919 J0.173 E34.43638
G1 X96.081 Y90.227 E35.28416
G3 X97.323 Y90.276 I0.429 J4.891 E35.33075
G3 X98.397 Y91.371 I-0.386 J1.452 E35.39077
M204 S5000
M205 X30 Y30
G3 X102.251 Y91.332 I3.809 J185.961 F2100
M204 S3000
M205 X20 Y20
G3 X103.061 Y90.827 I0.809 J0.396 E35.42827 F1650
G1 X104.52 Y90.827 E35.48286
G1 X104.519 Y67.536 E36.35436
G2 X98.895 Y63.329 I-4.547 J0.216 E36.65421
G1 X97.892 Y63.713 E36.6944
G2 X95.480 Y67.538 I2.139 J4.022 E36.87123
G1 X95.481 Y90.827 E37.74265
G1 X96.939 Y90.827 E37.7972
G3 X97.839 Y91.727 I0.002 J0.898 E37.84978
G1 X97.84 Y125.827 E39.12572
G1 X102.161 Y125.827 E39.2874
G1 X102.161 Y91.727 E40.56334
G1 X102.251 Y91.332 E40.5785
M204 S5000
M205 X30 Y30
G0 F2100 X102.161 Y91.332
G0 X97.109 Y90.827
G0 X97.109 Y91.479
M204 S3000
M205 X20 Y20
;TYPE:WALL-OUTER
G1 F1650 X97.239 Y91.677 E40.58736
G1 X97.24 Y126.427 E41.88763
G1 X102.761 Y126.427 E42.09421
G1 X102.761 Y91.677 E43.39447
G3 X103.061 Y91.427 I0.303 J0.058 E43.40997
G1 X105.12 Y91.427 E43.48702
G1 X105.119 Y67.505 E44.38212
G2 X95.257 Y65.799 I-5.118 J0.226 E44.90138
G1 X94.966 Y66.704 E44.93695
G1 X94.88 Y67.506 E44.96713
G1 X94.881 Y91.427 E45.8622
G1 X96.997 Y91.427 E45.94137
G1 X97.109 Y91.479 E45.94599
M204 S5000
M205 X30 Y30
G0 F2100 X97.219 Y91.646
G0 X97.84 Y91.646
G0 X98.594 Y67.119
M204 S3000
M205 X20 Y20
;TYPE:SKIN
G2 X98.460 Y67.698 I1.303 J0.607 E45.96835 F1650
G1 X98.462 Y88.17 E46.73436
G3 X100.000 Y89.349 I-1.349 J3.352 E46.80772
G3 X101.540 Y88.173 I2.844 J2.128 E46.88110
G1 X101.539 Y67.698 E47.64722
G2 X98.594 Y67.119 I-1.538 J0.045 E47.80229
M204 S5000
M205 X30 Y30
G0 F2100 X100.619 Y66.678
M204 S3000
M205 X20 Y20
G1 F1650 X101.05 Y67.109 E47.82509
M204 S5000
M205 X30 Y30
G0 F2100 X101.238 Y68.146
M204 S3000
M205 X20 Y20
G1 F1650 X99.663 Y66.57 E47.90846
M204 S5000
M205 X30 Y30
G0 F2100 X99.124 Y66.88
M204 S3000
M205 X20 Y20
G1 F1650 X101.238 Y68.994 E48.02033
M204 S5000
M205 X30 Y30
G0 F2100 X101.238 Y69.843
M204 S3000
M205 X20 Y20
G1 F1650 X98.811 Y67.416 E48.14876
M204 S5000
M205 X30 Y30
G0 F2100 X98.759 Y68.212
M204 S3000
M205 X20 Y20
G1 F1650 X101.238 Y70.691 E48.27994
M204 S5000
M205 X30 Y30
G0 F2100 X101.238 Y71.54
M204 S3000
M205 X20 Y20
G1 F1650 X98.759 Y69.06 E48.41114
M204 S5000
M205 X30 Y30
G0 F2100 X98.759 Y69.909
M204 S3000
M205 X20 Y20
G1 F1650 X101.238 Y72.388 E48.54232
M204 S5000
M205 X30 Y30
G0 F2100 X101.238 Y73.237
M204 S3000
M205 X20 Y20
G1 F1650 X98.759 Y70.758 E48.6735
M204 S5000
M205 X30 Y30
G0 F2100 X98.759 Y71.606
M204 S3000
M205 X20 Y20
G1 F1650 X101.238 Y74.085 E48.80468
M204 S5000
M205 X30 Y30
G0 F2100 X101.238 Y74.934
M204 S3000
M205 X20 Y20
G1 F1650 X98.759 Y72.455 E48.93586
M204 S5000
M205 X30 Y30
G0 F2100 X98.759 Y73.303
M204 S3000
M205 X20 Y20
G1 F1650 X101.238 Y75.782 E49.06704
M204 S5000
M205 X30 Y30
G0 F2100 X101.238 Y76.631
M204 S3000
M205 X20 Y20
G1 F1650 X98.759 Y74.152 E49.19822
M204 S5000
M205 X30 Y30
G0 F2100 X98.759 Y75
M204 S3000
M205 X20 Y20
G1 F1650 X101.238 Y77.479 E49.3294
M204 S5000
M205 X30 Y30
G0 F2100 X101.239 Y78.329
M204 S3000
M205 X20 Y20
G1 F1650 X98.759 Y75.849 E49.46064
M204 S5000
M205 X30 Y30
G0 F2100 X98.759 Y76.697
M204 S3000
M205 X20 Y20
G1 F1650 X101.239 Y79.177 E49.59187
M204 S5000
M205 X30 Y30
G0 F2100 X101.239 Y80.026
M204 S3000
M205 X20 Y20
G1 F1650 X98.759 Y77.546 E49.7231
M204 S5000
M205 X30 Y30
G0 F2100 X98.76 Y78.395
M204 S3000
M205 X20 Y20
G1 F1650 X101.239 Y80.874 E49.85428
M204 S5000
M205 X30 Y30
G0 F2100 X101.239 Y81.723
M204 S3000
M205 X20 Y20
G1 F1650 X98.76 Y79.244 E49.98546
M204 S5000
M205 X30 Y30
G0 F2100 X98.76 Y80.092
M204 S3000
M205 X20 Y20
G1 F1650 X101.239 Y82.571 E50.11664
M204 S5000
M205 X30 Y30
G0 F2100 X101.239 Y83.42
M204 S3000
M205 X20 Y20
G1 F1650 X98.76 Y80.941 E50.24782
M204 S5000
M205 X30 Y30
G0 F2100 X98.76 Y81.789
M204 S3000
M205 X20 Y20
G1 F1650 X101.239 Y84.268 E50.379
M204 S5000
M205 X30 Y30
G0 F2100 X101.239 Y85.117
M204 S3000
M205 X20 Y20
G1 F1650 X98.76 Y82.638 E50.51018
M204 S5000
M205 X30 Y30
G0 F2100 X98.76 Y83.486
M204 S3000
M205 X20 Y20
G1 F1650 X101.239 Y85.965 E50.64136
M204 S5000
M205 X30 Y30
G0 F2100 X101.239 Y86.814
M204 S3000
M205 X20 Y20
G1 F1650 X98.76 Y84.335 E50.77254
M204 S5000
M205 X30 Y30
G0 F2100 X98.76 Y85.183
M204 S3000
M205 X20 Y20
G1 F1650 X101.239 Y87.662 E50.90372
M204 S5000
M205 X30 Y30
G0 F2100 X100.893 Y88.165
M204 S3000
M205 X20 Y20
G1 F1650 X98.76 Y86.032 E51.0166
M204 S5000
M205 X30 Y30
G0 F2100 X98.76 Y86.88
M204 S3000
M205 X20 Y20
G1 F1650 X100.402 Y88.523 E51.10351
M204 S5000
M205 X30 Y30
G0 F2100 X99.327 Y88.297
M204 S3000
M205 X20 Y20
G1 F1650 X98.76 Y87.729 E51.13354
M204 S5000
M205 X30 Y30
G1 F2400 E50.13354
;MESH:NONMESH
G0 F600 X98.76 Y87.729 Z0.25
G0 F2100 X98.261 Y89.89
;TIME_ELAPSED:57.983792
;LAYER:1
M106 S51
M204 S3000
M205 X20 Y20
;TYPE:WALL-INNER
;MESH:follower2.stl
G1 F2400 E51.13354
G3 X99.248 Y91.727 I-1.210 J1.834 E51.16961 F2475
G1 X99.249 Y124.527 E51.71508
G1 X100.752 Y124.527 E51.74007
G1 X100.752 Y91.727 E52.28554
G3 X102.409 Y89.594 I2.198 J-0.003 E52.33383
G1 X103.158 Y89.502 E52.34638
G1 X103.158 Y67.742 E52.70825
G2 X103.012 Y66.799 I-3.374 J0.040 E52.72416
G1 X102.672 Y66.036 E52.73805
G1 X102.106 Y65.368 E52.75261
G2 X96.843 Y67.548 I-2.097 J2.379 E52.87022
G1 X96.843 Y89.502 E53.23531
G1 X97.591 Y89.594 E53.24785
G3 X98.261 Y89.890 I-0.561 J2.177 E53.26007
M204 S5000
M205 X30 Y30
G0 F3150 X98.041 Y90.224
M204 S3000
M205 X20 Y20
G3 X98.848 Y91.727 I-0.988 J1.499 E53.28954 F2475
G1 X98.849 Y124.927 E53.84166
G1 X101.152 Y124.927 E53.87996
G1 X101.152 Y91.727 E54.43208
G3 X102.952 Y89.927 I1.799 J-0.001 E54.47897
G1 X103.558 Y89.927 E54.48905
G1 X103.558 Y67.728 E54.85822
G2 X96.443 Y67.519 I-3.561 J0.006 E55.04045
G1 X96.443 Y89.927 E55.41309
G3 X97.492 Y89.982 I0.303 J4.262 E55.43059
G1 X98.041 Y90.224 E55.44057
M204 S5000
M205 X30 Y30
G0 F3150 X98.406 Y91.384
M204 S3000
M205 X20 Y20
G1 F2475 X98.448 Y91.727 E55.44632
G1 X98.449 Y125.327 E56.00509
G1 X101.552 Y125.327 E56.05669
G1 X101.552 Y91.727 E56.61546
G3 X102.952 Y90.327 I1.398 J-0.002 E56.65194
G1 X103.958 Y90.327 E56.66867
G1 X103.958 Y67.714 E57.04473
G2 X96.043 Y67.490 I-3.961 J0.020 E57.24723
G1 X96.043 Y90.327 E57.62701
G3 X97.394 Y90.369 I0.503 J5.586 E57.64952
G3 X98.406 Y91.384 I-0.348 J1.359 E57.67446
M204 S5000
M205 X30 Y30
G0 F3150 X98.018 Y91.482
M204 S3000
M205 X20 Y20
G1 F2475 X98.048 Y91.727 E57.67856
G1 X98.049 Y125.727 E58.24398
G1 X101.952 Y125.727 E58.30889
G1 X101.952 Y91.727 E58.87431
G3 X102.952 Y90.727 I0.999 J-0.001 E58.90037
G1 X104.358 Y90.727 E58.92375
G1 X104.358 Y67.7 E59.30669
G2 X95.643 Y67.461 I-4.362 J0.033 E59.52942
G1 X95.643 Y90.727 E59.91634
G1 X97.048 Y90.727 E59.9397
G3 X98.018 Y91.482 I0.001 J0.999 E59.96165
M204 S5000
M205 X30 Y30
G0 F3150 X97.471 Y91.3
M204 S3000
M205 X20 Y20
G3 X97.648 Y91.727 I-0.424 J0.426 E59.96948 F2475
G1 X97.649 Y126.127 E60.54156
G1 X102.352 Y126.127 E60.61977
G1 X102.352 Y91.727 E61.19184
G3 X102.952 Y91.127 I0.597 J-0.003 E61.20742
G1 X104.758 Y91.127 E61.23746
G1 X104.758 Y67.686 E61.62728
G2 X95.243 Y67.432 I-4.762 J0.046 E61.87016
G1 X95.243 Y91.127 E62.26421
G1 X97.048 Y91.127 E62.29423
G3 X97.471 Y91.300 I0.002 J0.598 E62.30198
M204 S5000
M205 X30 Y30
G0 F3150 X97.248 Y91.656
M204 S3000
M205 X20 Y20
;TYPE:WALL-OUTER
G1 F1650 X97.249 Y126.527 E62.88188
G1 X102.752 Y126.527 E62.9734
G1 X102.752 Y91.656 E63.55331
G1 X102.886 Y91.527 E63.5564
G1 X105.158 Y91.527 E63.59418
G1 X105.158 Y67.672 E63.99089
G2 X95.276 Y65.657 I-5.158 J0.056 E64.22398
G2 X94.843 Y67.403 I4.176 J1.962 E64.25404
G1 X94.843 Y91.527 E64.65523
G1 X97.114 Y91.527 E64.69299
G1 X97.248 Y91.656 E64.69609
M204 S5000
M205 X30 Y30
G0 F3150 X97.248 Y91.856
G0 X97.949 Y91.856
G0 X98.13 Y89.383
M204 S3000
M205 X20 Y20
;TYPE:SKIN
G3 X99.546 Y91.078 I-1.079 J2.340 E64.73399 F1650
G1 F1352.5 X99.714 Y91.693 E64.74693
G1 F1147.8 X99.714 Y93.597 E64.79244
G1 X99.714 Y95.501 E64.83796
G1 X99.714 Y97.405 E64.88348
G1 X99.714 Y99.309 E64.92899
G1 F1149.8 X99.714 Y101.213 E64.97443
G1 X99.714 Y103.117 E65.01987
G1 X99.714 Y105.021 E65.0653
G1 X99.714 Y106.925 E65.11074
G1 X99.714 Y108.829 E65.15618
G1 F1151.8 X99.714 Y110.733 E65.20154
G1 X99.714 Y112.637 E65.24689
G1 X99.714 Y114.541 E65.29225
G1 X99.714 Y116.445 E65.33761
G1 F1153.8 X99.714 Y118.349 E65.38289
G1 X99.714 Y120.253 E65.42817
G2 X99.715 Y124.061 I3625.217 J0.952 E65.51873
G1 X100.286 Y124.061 E65.53231
G1 X100.286 Y122.157 E65.57759
G1 X100.286 Y120.253 E65.62286
G1 X100.286 Y118.349 E65.66814
G1 X100.286 Y116.445 E65.71342
G1 F1151.8 X100.286 Y114.541 E65.75878
G1 X100.286 Y112.637 E65.80414
G1 X100.286 Y110.733 E65.8495
G1 X100.286 Y108.829 E65.89485
G1 F1149.8 X100.286 Y106.925 E65.94029
G1 X100.286 Y105.021 E65.98573
G1 X100.286 Y103.117 E66.03117
G1 X100.286 Y101.213 E66.0766
G1 X100.286 Y99.309 E66.12204
G1 F1147.8 X100.286 Y97.405 E66.16756
G1 X100.286 Y95.501 E66.21307
G1 X100.286 Y93.597 E66.25859
G1 X100.286 Y91.693 E66.30411
G1 F1352.5 X100.454 Y91.078 E66.31704
G3 X102.778 Y89.169 I2.454 J0.619 E66.37055 F1650
G1 X102.778 Y67.756 E66.72665
G2 X99.759 Y64.967 I-2.802 J0.005 E66.80347
G1 X98.953 Y65.154 E66.81723
G2 X97.223 Y67.579 I1.103 J2.616 E66.86932
G1 X97.224 Y89.169 E67.22836
G3 X98.130 Y89.383 I-0.039 J2.189 E67.24393
M204 S5000
M205 X30 Y30
G0 F3150 X97.494 Y67.119
M204 S3000
M205 X20 Y20
G1 F1650 X99.349 Y65.265 E67.28755
M204 S5000
M205 X30 Y30
G0 F3150 X100.002 Y65.177
M204 S3000
M205 X20 Y20
G1 F1650 X97.423 Y67.757 E67.34821
M204 S5000
M205 X30 Y30
G0 F3150 X97.423 Y68.322
M204 S3000
M205 X20 Y20
G1 F1650 X100.529 Y65.216 E67.42126
M204 S5000
M205 X30 Y30
G0 F3150 X100.964 Y65.347
M204 S3000
M205 X20 Y20
G1 F1650 X97.423 Y68.888 E67.50454
M204 S5000
M205 X30 Y30
G0 F3150 X97.423 Y69.454
M204 S3000
M205 X20 Y20
G1 F1650 X101.338 Y65.538 E67.59662
M204 S5000
M205 X30 Y30
G0 F3150 X101.672 Y65.77
M204 S3000
M205 X20 Y20
G1 F1650 X97.423 Y70.019 E67.69655
M204 S5000
M205 X30 Y30
G0 F3150 X97.423 Y70.585
M204 S3000
M205 X20 Y20
G1 F1650 X101.938 Y66.069 E67.80275
M204 S5000
M205 X30 Y30
G0 F3150 X102.191 Y66.382
M204 S3000
M205 X20 Y20
G1 F1650 X97.423 Y71.151 E67.9149
M204 S5000
M205 X30 Y30
G0 F3150 X97.423 Y71.716
M204 S3000
M205 X20 Y20
G1 F1650 X102.365 Y66.774 E68.03113
M204 S5000
M205 X30 Y30
G0 F3150 X102.502 Y67.202
M204 S3000
M205 X20 Y20
G1 F1650 X97.423 Y72.282 E68.15059
M204 S5000
M205 X30 Y30
G0 F3150 X97.423 Y72.848
M204 S3000
M205 X20 Y20
G1 F1650 X102.577 Y67.694 E68.2718
M204 S5000
M205 X30 Y30
G0 F3150 X102.577 Y68.259
M204 S3000
M205 X20 Y20
G1 F1650 X97.423 Y73.413 E68.39302
M204 S5000
M205 X30 Y30
G0 F3150 X97.423 Y73.979
M204 S3000
M205 X20 Y20
G1 F1650 X102.577 Y68.825 E68.51423
M204 S5000
M205 X30 Y30
G0 F3150 X102.577 Y69.391
M204 S3000
M205 X20 Y20
G1 F1650 X97.423 Y74.545 E68.63545
M204 S5000
M205 X30 Y30
G0 F3150 X97.423 Y75.111
M204 S3000
M205 X20 Y20
G1 F1650 X102.577 Y69.956 E68.75667
M204 S5000
M205 X30 Y30
G0 F3150 X102.577 Y70.522
M204 S3000
M205 X20 Y20
G1 F1650 X97.423 Y75.676 E68.87789
M204 S5000
M205 X30 Y30
G0 F3150 X97.423 Y76.242
M204 S3000
M205 X20 Y20
