;FLAVOR:Marlin
;TIME:17627
;Filament used: 11.1088m
;Layer height: 0.1
;MINX:54.974
;MINY:45.04
;MINZ:0.15
;MAXX:145.026
;MAXY:143.966
;MAXZ:15.95
;ARCWELDERPROCESSED
; Postprocessed by [ArcWelder](https://github.com/FormerLurker/ArcWelderLib)
; Copyright(C) 2021 - Brad Hochgesang
; Version: 1.2.0, Branch: master, BuildDate: 2021-11-22T09:56:32Z
; resolution=0.05mm
; path_tolerance=5.0%
; max_radius=9999.00mm
; default_xyz_precision=3
; default_e_precision=5
; extrusion_rate_variance_percent=5.0%

;Generated with Cura_SteamEngine main
M140 S60
M105
M190 S60
M104 S210
M105
M109 S210
M82 ;absolute extrusion mode
G21 ;metric values
G90 ;absolute positioning
M82 ;set extruder to absolute mode
M107 ;start with the fan off
G28 X0 Y0 ;move X/Y to min endstops
G28 Z0 ;move Z to min endstops
G1 Z15.0 F9000 ;move the platform down 15mm
G92 E0 ;zero the extruded length
G1 F200 E3 ;extrude 3 mm of feed stock
G92 E0 ;zero the extruded length again
G1 F9000
;Put printing message on LCD screen
M117 Printing...
G92 E0
G92 E0
G1 F2400 E-1
;LAYER_COUNT:149
;LAYER:0
M107
M204 S5000
M205 X30 Y30
G1 F600 Z1.15
G0 F2100 X66.604 Y60.129 Z1.15
G1 F600 Z1.15
G0 F2100 X59.971 Y70.103
M204 S3000
M205 X20 Y20
;TYPE:SKIRT
G1 F600 Z0.15
G1 F2400 E0
G3 X144.440 Y87.275 I40.030 J19.430 E4.39353 F1650
G2 X144.931 Y93.119 I209.585 J-14.666 E4.61298
G3 X134.711 Y125.254 I-46.954 J2.760 E5.90346
G3 X103.400 Y143.886 I-40.403 J-32.272 E7.29674
G3 X102.002 Y143.966 I-1.174 J-8.253 E7.34918
G3 X97.308 Y143.955 I-1.964 J-163.327 E7.52482
G3 X94.232 Y143.403 I2.005 J-20.020 E7.64188
G3 X63.134 Y122.307 I11.310 J-50.142 E9.08136
G3 X55.122 Y92.389 I38.565 J-26.359 E10.26259
G2 X55.793 Y84.454 I-1216.233 J-106.843 E10.56058
G3 X59.971 Y70.103 I44.192 J5.082 E11.12251
M204 S5000
M205 X30 Y30
G1 F2400 E10.12251
G1 F600 Z1.15
G0 F2100 X57.403 Y81.779 Z1.15
M204 S3000
M205 X20 Y20
G1 F600 Z0.15
G1 F2400 E11.12251
G3 X143.243 Y87.367 I42.597 J7.756 E15.83911 F1650
G2 X143.733 Y93.187 I204.807 J-14.313 E16.05766
G3 X133.284 Y125.116 I-45.837 J2.674 E17.34463
G3 X103.189 Y142.705 I-38.987 J-32.167 E18.67628
G3 X102.002 Y142.766 I-0.958 J-7.061 E18.72079
G3 X97.326 Y142.755 I-1.955 J-162.713 E18.89576
G3 X93.541 Y142.002 I4.052 J-30.256 E19.04030
G3 X63.701 Y120.992 I11.925 J-48.632 E20.43802
G3 X56.325 Y92.409 I37.910 J-25.026 E21.56294
G2 X56.995 Y84.510 I-1669.843 J-145.615 E21.85959
G3 X57.403 Y81.779 I43.412 J5.090 E21.96292
M204 S5000
M205 X30 Y30
G1 F2400 E20.96292
G1 F600 Z1.15
G0 F2100 X56.157 Y87.336 Z1.15
M204 S3000
M205 X20 Y20
G1 F600 Z0.15
G1 F2400 E21.96292
G3 X143.842 Y87.321 I43.843 J2.200 E26.95780 F1650
G2 X144.332 Y93.153 I212.170 J-14.890 E27.17679
G3 X133.745 Y125.500 I-46.441 J2.706 E28.48062
G3 X103.295 Y143.296 I-39.448 J-32.549 E29.82796
G3 X102.002 Y143.366 I-1.067 J-7.741 E29.87646
G3 X97.317 Y143.355 I-1.960 J-163.020 E30.05176
G3 X94.294 Y142.801 I2.113 J-20.055 E30.16688
G3 X63.633 Y121.975 I11.214 J-49.492 E31.58656
G3 X55.727 Y92.352 I38.078 J-26.029 E32.75599
G2 X56.157 Y87.336 I-116.999 J-12.556 E32.94438
M204 S5000
M205 X30 Y30
G1 F2400 E31.94438
G1 F600 Z1.15
;MESH:cam.stl
G0 F2100 X63.293 Y89.838 Z1.15
M204 S3000
M205 X20 Y20
;TYPE:WALL-INNER
G1 F600 Z0.15
G1 F2400 E32.94438
G2 X69.436 Y117.703 I38.169 J6.195 E34.03788 F1650
G2 X95.579 Y135.707 I36.052 J-24.368 E35.25365
G2 X97.697 Y136.165 I9.390 J-38.300 E35.33475
G1 X102.294 Y136.166 E35.50675
G2 X129.731 Y118.908 I-7.950 J-43.078 E36.74912
G2 X136.843 Y90.711 I-31.381 J-22.910 E37.86438
G3 X136.694 Y88.921 I6.260 J-1.422 E37.93176
G2 X63.293 Y89.838 I-36.699 J0.618 E42.23414
M204 S5000
M205 X30 Y30
G0 F2100 X93.625 Y86.44
M204 S3000
M205 X20 Y20
G3 X94.303 Y84.792 I3.491 J0.473 E42.30147 F1650
G3 X96.893 Y82.805 I5.754 J4.819 E42.42446
G1 X98.16 Y82.351 E42.47482
G1 X99.483 Y82.142 E42.52494
G1 X100.765 Y82.141 E42.57291
G1 X102.034 Y82.41 E42.62145
G3 X105.855 Y85.033 I-1.997 J7.003 E42.79790
G3 X106.399 Y86.765 I-2.747 J1.814 E42.86667
G1 X106.401 Y92.487 E43.08077
G3 X105.162 Y94.849 I-3.844 J-0.510 E43.18270
G3 X94.307 Y94.276 I-5.161 J-5.337 E43.63885
G3 X93.600 Y92.279 I2.687 J-2.075 E43.71936
G1 X93.6 Y86.852 E43.92243
G1 X93.625 Y86.44 E43.93787
M204 S5000
M205 X30 Y30
G0 F2100 X94.241 Y86.377
M204 S3000
M205 X20 Y20
G3 X94.772 Y85.174 I2.874 J0.550 E43.98746 F1650
G3 X97.125 Y83.359 I5.376 J4.537 E44.09940
G1 X98.317 Y82.934 E44.14675
G3 X100.706 Y82.742 I1.804 J7.488 E44.23671
G3 X105.194 Y85.136 I-0.900 J7.091 E44.43134
G3 X105.799 Y86.693 I-2.182 J1.744 E44.49467
G1 X105.801 Y92.266 E44.7032
G3 X104.735 Y94.422 I-2.956 J-0.120 E44.79578
G3 X94.776 Y93.899 I-4.737 J-4.888 E45.21420
G3 X94.201 Y92.319 I2.227 J-1.705 E45.27803
G1 X94.2 Y86.852 E45.48259
G1 X94.241 Y86.377 E45.50043
M204 S5000
M205 X30 Y30
G0 F2100 X62.695 Y89.751
M204 S3000
M205 X20 Y20
G2 X68.936 Y118.035 I38.878 J6.252 E46.61033 F1650
G2 X95.438 Y136.290 I36.549 J-24.696 E47.84288
G2 X97.639 Y136.765 I9.649 J-39.374 E47.92714
G1 X102.352 Y136.766 E48.10349
G2 X130.219 Y119.258 I-8.009 J-43.679 E49.36500
G2 X137.606 Y91.940 I-31.988 J-23.307 E50.44785
G2 X137.305 Y89.753 I-48.918 J5.618 E50.53045
G2 X62.695 Y89.751 I-37.305 J-0.212 E54.93125
M204 S5000
M205 X30 Y30
G0 F2100 X62.096 Y89.73
M204 S3000
M205 X20 Y20
G2 X68.437 Y118.367 I39.366 J6.304 E56.05514 F1650
G2 X95.297 Y136.873 I37.042 J-25.018 E57.30444
G2 X97.582 Y137.365 I9.953 J-40.672 E57.39191
G1 X102.41 Y137.366 E57.57256
G2 X130.706 Y119.608 I-8.072 J-44.285 E58.85319
G2 X138.202 Y91.875 I-32.467 J-23.655 E59.95247
G2 X137.902 Y89.693 I-45.065 J5.084 E60.03488
G2 X62.096 Y89.730 I-37.903 J-0.155 E64.50318
M204 S5000
M205 X30 Y30
G0 F2100 X94.823 Y86.537
M204 S3000
M205 X20 Y20
G3 X95.193 Y85.599 I2.314 J0.371 E64.54112 F1650
G3 X103.453 Y84.376 I4.807 J3.964 E64.88335
G3 X104.911 Y85.786 I-3.168 J4.735 E64.95964
G3 X105.200 Y86.667 I-1.995 J1.142 E64.99451
G1 X105.201 Y92.255 E65.2036
G3 X104.320 Y93.988 I-2.521 J-0.191 E65.27838
G3 X95.182 Y93.425 I-4.313 J-4.438 E65.66381
G3 X94.800 Y92.454 I1.900 J-1.308 E65.70311
G1 X94.8 Y86.852 E65.91272
G1 X94.823 Y86.537 E65.92454
M204 S5000
M205 X30 Y30
G0 F2100 X95.467 Y86.405
M204 S3000
M205 X20 Y20
G1 F1650 X95.658 Y85.988 E65.9417
G3 X104.267 Y85.907 I4.338 J3.560 E66.30886
G3 X104.599 Y86.775 I-1.169 J0.945 E66.34406
G1 X104.601 Y92.345 E66.55248
G3 X104.394 Y92.977 I-1.630 J-0.184 E66.57749
G3 X95.769 Y93.202 I-4.405 J-3.417 E66.94676
G3 X95.400 Y92.373 I1.205 J-1.033 E66.98107
G1 X95.4 Y86.852 E67.18765
G1 X95.467 Y86.405 E67.20457
M204 S5000
M205 X30 Y30
G0 F2100 X61.497 Y89.672
M204 S3000
M205 X20 Y20
G2 X67.841 Y118.554 I39.937 J6.365 E68.33727 F1650
G2 X95.156 Y137.456 I37.636 J-25.200 E69.60986
G2 X97.524 Y137.965 I10.218 J-41.773 E69.70050
G1 X102.468 Y137.966 E69.88549
G2 X130.740 Y120.577 I-8.147 J-44.923 E71.15653
G2 X138.798 Y91.809 I-32.537 J-24.626 E72.30098
G2 X138.503 Y89.674 I-39.600 J4.384 E72.38163
G2 X61.497 Y89.672 I-38.503 J-0.136 E76.91758
M204 S5000
M205 X30 Y30
G0 F2100 X60.899 Y89.584
M204 S3000
M205 X20 Y20
G2 X67.872 Y119.673 I40.674 J6.426 E78.10225 F1650
G2 X95.853 Y138.235 I37.707 J-26.471 E79.38830
G2 X97.466 Y138.565 I9.517 J-42.411 E79.44991
G1 X102.526 Y138.566 E79.63924
G2 X131.681 Y120.308 I-8.199 J-45.499 E80.95813
G2 X139.312 Y91.052 I-33.364 J-24.326 E82.11636
G2 X139.104 Y89.627 I-40.405 J5.170 E82.17024
G2 X60.899 Y89.584 I-39.102 J-0.089 E86.77168
M204 S5000
M205 X30 Y30
G0 F2100 X96.136 Y86.348
G0 X96.136 Y86.349
M204 S3000
M205 X20 Y20
G3 X103.812 Y86.300 I3.859 J3.214 E87.09870 F1650
G3 X103.998 Y86.783 I-0.708 J0.550 E87.11827
G1 X104.001 Y92.233 E87.3222
G3 X103.886 Y92.657 I-0.909 J-0.019 E87.33876
G3 X96.105 Y92.640 I-3.884 J-3.076 E87.67369
G1 X96 Y92.338 E87.68565
G1 X96 Y86.852 E87.89092
G3 X96.136 Y86.349 I1.007 J0.002 E87.91056
M204 S5000
M205 X30 Y30
G0 F2100 X96.653 Y86.68
M204 S3000
M205 X20 Y20
;TYPE:WALL-OUTER
G3 X103.338 Y86.668 I3.348 J2.849 E88.19457 F1650
G1 X103.4 Y86.829 E88.20102
G1 X103.4 Y92.279 E88.40495
G3 X101.534 Y93.659 I-3.201 J-2.376 E88.49318
G3 X96.626 Y92.341 I-1.532 J-4.093 E88.69603
G1 X96.6 Y92.24 E88.69994
G1 X96.6 Y86.852 E88.90154
G1 X96.653 Y86.68 E88.90828
M204 S5000
M205 X30 Y30
G0 F2100 X96.79 Y86.535
G0 X96.356 Y86.118
G0 X60.89 Y89.657
G0 X60.299 Y89.564
M204 S3000
M205 X20 Y20
G2 X66.937 Y119.363 I41.150 J6.472 E90.07784 F1650
G2 X94.874 Y138.623 I38.542 J-26.015 E91.37750
G2 X97.408 Y139.165 I10.923 J-44.872 E91.47447
G1 X102.584 Y139.166 E91.66814
G2 X132.168 Y120.658 I-8.256 J-46.095 E93.00615
G2 X139.907 Y90.976 I-33.840 J-24.673 E94.18122
G2 X139.701 Y89.567 I-35.320 J4.444 E94.23450
G2 X60.299 Y89.564 I-39.701 J-0.031 E98.90349
M204 S5000
M205 X30 Y30
G0 F2100 X60.269 Y89.761
G0 X60.859 Y89.854
G0 X63.873 Y89.852
M204 S3000
M205 X20 Y20
;TYPE:SKIN
G2 X70.208 Y117.809 I37.705 J6.152 E100.00300 F1650
G2 X96.503 Y135.327 I35.370 J-24.597 E101.21351
G1 X97.755 Y135.585 E101.26134
G1 X102.234 Y135.586 E101.42893
G2 X129.260 Y118.569 I-7.885 J-42.492 E102.65294
G2 X136.432 Y92.070 I-31.076 J-22.631 E103.70339
G2 X136.128 Y89.893 I-41.916 J4.744 E103.78565
G2 X63.873 Y89.852 I-36.127 J-0.348 E108.05668
M204 S5000
M205 X30 Y30
G0 F2100 X93.024 Y86.672
M204 S3000
M205 X20 Y20
G1 F1650 X93.138 Y85.883 E108.08651
G3 X94.561 Y83.679 I4.504 J1.347 E108.18595
G1 X95.568 Y82.882 E108.234
G1 X96.622 Y82.289 E108.27925
G3 X102.195 Y81.850 I3.398 J7.547 E108.49268
G3 X104.475 Y82.914 I-2.267 J7.832 E108.58711
G1 X105.463 Y83.705 E108.63446
G3 X106.921 Y86.169 I-3.110 J3.503 E108.74349
G1 X106.979 Y86.626 E108.76073
G1 X106.982 Y92.279 E108.97225
G3 X106.170 Y94.616 I-4.105 J-0.117 E109.06616
G3 X97.592 Y97.153 I-6.176 J-5.113 E109.42096
G1 X96.317 Y96.632 E109.4725
G1 X95.197 Y95.915 E109.52225
G3 X93.542 Y94.163 I3.956 J-5.395 E109.61292
G3 X93.025 Y92.439 I3.351 J-1.945 E109.68081
G1 X93.024 Y86.672 E109.89659
M204 S5000
M205 X30 Y30
G0 F2100 X124.49 Y63.396
M204 S3000
M205 X20 Y20
G3 X126.215 Y65.120 I-2851.495 J2854.874 E109.98414 F1650
M204 S5000
M205 X30 Y30
G0 F2100 X129.571 Y69.326
M204 S3000
M205 X20 Y20
G1 F1650 X120.208 Y59.962 E110.47963
G1 X120.138 Y59.892
M204 S5000
M205 X30 Y30
G0 F2100 X117.916 Y58.519
M204 S3000
M205 X20 Y20
G1 F1650 X131.009 Y71.612 E111.17246
G1 X131.079 Y71.682
M204 S5000
M205 X30 Y30
G0 F2100 X132.001 Y73.453
M204 S3000
M205 X20 Y20
G1 F1650 X116.077 Y57.529 E112.01511
G1 X116.007 Y57.459
M204 S5000
M205 X30 Y30
G0 F2100 X114.472 Y56.772
M204 S3000
M205 X20 Y20
G1 F1650 X132.763 Y75.063 E112.983
G1 X132.833 Y75.133
M204 S5000
M205 X30 Y30
G0 F2100 X133.365 Y76.513
M204 S3000
M205 X20 Y20
G1 F1650 X113.015 Y56.164 E114.05983
G1 X112.945 Y56.094
M204 S5000
M205 X30 Y30
G0 F2100 X111.674 Y55.671
M204 S3000
M205 X20 Y20
G1 F1650 X133.863 Y77.86 E115.234
G1 X133.933 Y77.93
M204 S5000
M205 X30 Y30
G0 F2100 X134.272 Y79.118
M204 S3000
M205 X20 Y20
G1 F1650 X110.421 Y55.266 E116.49613
G1 X110.351 Y55.196
M204 S5000
M205 X30 Y30
G0 F2100 X109.235 Y54.93
M204 S3000
M205 X20 Y20
G1 F1650 X134.606 Y80.301 E117.83868
M204 S5000
M205 X30 Y30
G0 F2100 X134.887 Y81.43
M204 S3000
M205 X20 Y20
G1 F1650 X108.101 Y54.644 E119.2561
M204 S5000
M205 X30 Y30
G0 F2100 X107.02 Y54.411
M204 S3000
M205 X20 Y20
G1 F1650 X135.121 Y82.512 E120.74311
M204 S5000
M205 X30 Y30
G0 F2100 X135.316 Y83.556
M204 S3000
M205 X20 Y20
G1 F1650 X105.976 Y54.216 E122.29568
M204 S5000
M205 X30 Y30
G0 F2100 X104.977 Y54.065
M204 S3000
M205 X20 Y20
G1 F1650 X135.469 Y84.557 E123.90921
M204 S5000
M205 X30 Y30
G0 F2100 X135.592 Y85.529
M204 S3000
M205 X20 Y20
G1 F1650 X104.005 Y53.942 E125.58069
M204 S5000
M205 X30 Y30
G0 F2100 X103.061 Y53.846
M204 S3000
M205 X20 Y20
G1 F1650 X135.687 Y86.472 E127.30714
M204 S5000
M205 X30 Y30
G0 F2100 X135.753 Y87.387
M204 S3000
M205 X20 Y20
G1 F1650 X102.146 Y53.78 E129.08551
M204 S5000
M205 X30 Y30
G0 F2100 X101.256 Y53.739
M204 S3000
M205 X20 Y20
G1 F1650 X135.794 Y88.276 E130.91312
M204 S5000
M205 X30 Y30
G0 F2100 X135.816 Y89.147
M204 S3000
M205 X20 Y20
G1 F1650 X100.389 Y53.72 E132.78779
M204 S5000
M205 X30 Y30
G0 F2100 X99.541 Y53.721
M204 S3000
M205 X20 Y20
G1 F1650 X135.847 Y90.026 E134.70895
M204 S5000
M205 X30 Y30
G0 F2100 X135.994 Y91.022
M204 S3000
M205 X20 Y20
G1 F1650 X98.712 Y53.74 E136.68179
M204 S5000
M205 X30 Y30
G0 F2100 X97.901 Y53.777
M204 S3000
M205 X20 Y20
G1 F1650 X136.119 Y91.996 E138.70418
M204 S5000
M205 X30 Y30
G0 F2100 X136.214 Y92.939
M204 S3000
M205 X20 Y20
G1 F1650 X97.109 Y53.834 E140.77348
M204 S5000
M205 X30 Y30
G0 F2100 X96.331 Y53.904
M204 S3000
M205 X20 Y20
G1 F1650 X136.28 Y93.854 E142.88747
M204 S5000
M205 X30 Y30
G0 F2100 X136.323 Y94.745
M204 S3000
M205 X20 Y20
G1 F1650 X95.571 Y53.993 E145.04393
M204 S5000
M205 X30 Y30
G0 F2100 X94.821 Y54.092
M204 S3000
M205 X20 Y20
G1 F1650 X136.341 Y95.612 E147.24102
M204 S5000
M205 X30 Y30
G0 F2100 X136.343 Y96.462
M204 S3000
M205 X20 Y20
G1 F1650 X94.087 Y54.206 E149.47706
M204 S5000
M205 X30 Y30
G0 F2100 X93.369 Y54.336
M204 S3000
M205 X20 Y20
G1 F1650 X136.325 Y97.292 E151.75015
M204 S5000
M205 X30 Y30
G0 F2100 X136.287 Y98.103
M204 S3000
M205 X20 Y20
G1 F1650 X92.662 Y54.479 E154.0586
M204 S5000
M205 X30 Y30
G0 F2100 X91.965 Y54.63
M204 S3000
M205 X20 Y20
G1 F1650 X136.234 Y98.898 E156.40114
M204 S5000
M205 X30 Y30
G0 F2100 X136.164 Y99.678
M204 S3000
M205 X20 Y20
G1 F1650 X91.282 Y54.795 E158.77617
M204 S5000
M205 X30 Y30
G0 F2100 X90.608 Y54.97
M204 S3000
M205 X20 Y20
G1 F1650 X136.08 Y100.442 E161.18239
M204 S5000
M205 X30 Y30
G0 F2100 X135.982 Y101.193
M204 S3000
M205 X20 Y20
G1 F1650 X89.946 Y55.157 E163.61846
M204 S5000
M205 X30 Y30
G0 F2100 X89.294 Y55.353
M204 S3000
M205 X20 Y20
G1 F1650 X135.871 Y101.93 E166.08315
M204 S5000
M205 X30 Y30
G0 F2100 X135.747 Y102.654
M204 S3000
M205 X20 Y20
G1 F1650 X88.653 Y55.56 E168.5752
M204 S5000
M205 X30 Y30
G0 F2100 X88.022 Y55.778
M204 S3000
M205 X20 Y20
G1 F1650 X135.61 Y103.366 E171.09339
M204 S5000
M205 X30 Y30
G0 F2100 X135.461 Y104.066
M204 S3000
M205 X20 Y20
G1 F1650 X87.401 Y56.005 E173.63659
M204 S5000
M205 X30 Y30
G0 F2100 X86.789 Y56.242
M204 S3000
M205 X20 Y20
G1 F1650 X135.299 Y104.752 E176.20357
M204 S5000
M205 X30 Y30
G0 F2100 X135.126 Y105.428
M204 S3000
M205 X20 Y20
G1 F1650 X86.188 Y56.49 E178.7932
M204 S5000
M205 X30 Y30
G0 F2100 X85.593 Y56.743
M204 S3000
M205 X20 Y20
G1 F1650 X134.948 Y106.098 E181.4049
M204 S5000
M205 X30 Y30
G0 F2100 X134.758 Y106.756
M204 S3000
M205 X20 Y20
G1 F1650 X85.008 Y57.006 E184.0375
M204 S5000
M205 X30 Y30
G0 F2100 X84.432 Y57.279
M204 S3000
M205 X20 Y20
G1 F1650 X134.558 Y107.405 E186.68999
M204 S5000
M205 X30 Y30
G0 F2100 X134.348 Y108.044
M204 S3000
M205 X20 Y20
G1 F1650 X83.864 Y57.559 E189.36146
M204 S5000
M205 X30 Y30
G0 F2100 X83.303 Y57.847
M204 S3000
M205 X20 Y20
G1 F1650 X134.129 Y108.673 E192.05099
M204 S5000
M205 X30 Y30
G0 F2100 X133.901 Y109.294
M204 S3000
M205 X20 Y20
G1 F1650 X82.749 Y58.142 E194.75778
M204 S5000
M205 X30 Y30
G0 F2100 X82.207 Y58.448
M204 S3000
M205 X20 Y20
G1 F1650 X133.665 Y109.906 E197.48076
M204 S5000
M205 X30 Y30
G0 F2100 X133.418 Y110.508
M204 S3000
M205 X20 Y20
G1 F1650 X81.672 Y58.761 E200.21901
M204 S5000
M205 X30 Y30
G0 F2100 X81.145 Y59.083
M204 S3000
M205 X20 Y20
G1 F1650 X105.07 Y83.008 E201.48504
G1 X105.14 Y83.078
M204 S5000
M205 X30 Y30
G0 F2100 X103.079 Y81.865
M204 S3000
M205 X20 Y20
G1 F1650 X80.625 Y59.411 E202.67322
M204 S5000
M205 X30 Y30
G0 F2100 X80.11 Y59.746
M204 S3000
M205 X20 Y20
G1 F1650 X101.831 Y81.467 E203.82262
M204 S5000
M205 X30 Y30
G0 F2100 X100.797 Y81.281
M204 S3000
M205 X20 Y20
G1 F1650 X79.606 Y60.089 E204.94401
M204 S5000
M205 X30 Y30
G0 F2100 X79.109 Y60.442
M204 S3000
M205 X20 Y20
G1 F1650 X99.93 Y81.262 E206.04575
M204 S5000
M205 X30 Y30
G0 F2100 X99.129 Y81.31
M204 S3000
M205 X20 Y20
G1 F1650 X78.619 Y60.8 E207.13107
M204 S5000
M205 X30 Y30
G0 F2100 X78.136 Y61.165
M204 S3000
M205 X20 Y20
G1 F1650 X98.395 Y81.424 E208.20311
M204 S5000
M205 X30 Y30
G0 F2100 X97.703 Y81.581
M204 S3000
M205 X20 Y20
G1 F1650 X77.659 Y61.537 E209.26377
M204 S5000
M205 X30 Y30
G0 F2100 X77.19 Y61.917
M204 S3000
M205 X20 Y20
