;FLAVOR:Marlin
;TIME:470
;Filament used: 0.578402m
;Layer height: 0.2
;MINX:92.692
;MINY:65
;MINZ:0.3
;MAXX:107.308
;MAXY:124
;MAXZ:6.1
;ARCWELDERPROCESSED
; Postprocessed by [ArcWelder](https://github.com/FormerLurker/ArcWelderLib)
; Copyright(C) 2021 - Brad Hochgesang
; Version: 1.2.0, Branch: master, BuildDate: 2021-11-22T09:56:32Z
; resolution=0.05mm
; path_tolerance=5.0%
; max_radius=9999.00mm
; default_xyz_precision=3
; default_e_precision=5
; extrusion_rate_variance_percent=5.0%

;Generated with Cura_SteamEngine main
M140 S60
M105
M190 S60
M104 S210
M105
M109 S210
M82 ;absolute extrusion mode
G21 ;metric values
G90 ;absolute positioning
M82 ;set extruder to absolute mode
M107 ;start with the fan off
G28 X0 Y0 ;move X/Y to min endstops
G28 Z0 ;move Z to min endstops
G1 Z15.0 F9000 ;move the platform down 15mm
G92 E0 ;zero the extruded length
G1 F200 E3 ;extrude 3 mm of feed stock
G92 E0 ;zero the extruded length again
G1 F9000
;Put printing message on LCD screen
M117 Printing...
G92 E0
G92 E0
G1 F2400 E-1
;LAYER_COUNT:30
;LAYER:0
M107
M204 S5000
M205 X30 Y30
G1 F600 Z1.3
G0 F2100 X93.703 Y66.678 Z1.3
G1 F600 Z1.3
G0 F2100 X92.692 Y70.113
M204 S3000
M205 X20 Y20
;TYPE:SKIRT
G1 F600 Z0.3
G1 F2400 E0
G3 X94.110 Y66.238 I4.876 J-0.413 E0.31903 F1650
G3 X96.203 Y65.121 I3.092 J3.274 E0.49855
G1 X97.162 Y65 E0.57089
G3 X102.863 Y65.010 I2.502 J198.970 E0.99753
G3 X107.188 Y68.515 I-0.066 J4.502 E1.44630
G1 X107.308 Y69.471 E1.51841
G1 X107.308 Y118.82 E5.21145
G3 X106.645 Y121.827 I-5.148 J0.442 E5.44536
G3 X103.802 Y123.878 I-3.842 J-2.330 E5.71463
G1 X102.838 Y124 E5.78734
G3 X97.143 Y123.991 I-2.499 J-220.844 E6.21353
G3 X92.814 Y120.492 I0.059 J-4.501 E6.66229
G1 X92.692 Y119.526 E6.73516
G1 X92.692 Y70.113 E10.433
M204 S5000
M205 X30 Y30
G0 F2100 X93.292 Y70.121
M204 S3000
M205 X20 Y20
G3 X93.953 Y67.350 I4.443 J-0.404 E10.64988 F1650
G3 X97.522 Y65.600 I3.322 J2.261 E10.96091
G3 X102.855 Y65.610 I2.317 J186.127 E11.36001
G3 X106.708 Y69.830 I-0.109 J3.968 E11.83786
G1 X106.708 Y118.812 E15.50344
G3 X106.324 Y121.160 I-5.569 J0.295 E15.68321
G3 X102.763 Y123.400 I-3.549 J-1.692 E16.01507
G3 X97.151 Y123.391 I-2.457 J-217.625 E16.43505
G3 X93.293 Y119.481 I0.057 J-3.915 E16.89018
G1 X93.292 Y70.121 E20.58405
M204 S5000
M205 X30 Y30
G0 F2100 X93.892 Y70.129
M204 S3000
M205 X20 Y20
G3 X94.275 Y67.983 I4.696 J-0.269 E20.74905 F1650
G3 X97.205 Y66.201 I2.948 J1.547 E21.01832
G3 X102.846 Y66.210 I2.511 J194.134 E21.44047
G3 X106.107 Y69.515 I-0.053 J3.314 E21.82492
G1 X106.108 Y118.805 E25.51355
G3 X105.727 Y121.014 I-4.833 J0.304 E25.68321
G3 X102.794 Y122.799 I-2.952 J-1.548 E25.95284
G3 X97.158 Y122.791 I-2.513 J-215.176 E26.37461
G3 X93.893 Y119.482 I0.049 J-3.314 E26.75966
G1 X93.892 Y70.129 E30.45301
M204 S5000
M205 X30 Y30
G1 F2400 E29.45301
G1 F600 Z1.3
;MESH:shaft.stl
G0 F2100 X98.692 Y71 Z1.3
M204 S3000
M205 X20 Y20
;TYPE:WALL-INNER
G1 F600 Z0.3
G1 F2400 E30.45301
G1 F1650 X98.692 Y118 E33.97027
G1 X101.308 Y118 E34.16604
G1 X101.308 Y71 E37.6833
G1 X98.692 Y71 E37.87907
M204 S5000
M205 X30 Y30
G0 F2100 X98.092 Y70.4
M204 S3000
M205 X20 Y20
G1 F1650 X98.092 Y118.6 E41.48613
G1 X101.908 Y118.6 E41.7717
G1 X101.908 Y70.4 E45.37876
G1 X98.092 Y70.4 E45.66433
M204 S5000
M205 X30 Y30
G0 F2100 X97.492 Y69.8
M204 S3000
M205 X20 Y20
;TYPE:WALL-OUTER
G1 F1650 X97.492 Y119.2 E49.3612
G1 X102.508 Y119.2 E49.73657
G1 X102.508 Y69.8 E53.43344
G1 X97.492 Y69.8 E53.80881
M204 S5000
M205 X30 Y30
G0 F2100 X97.492 Y70
G0 X98.062 Y70.37
G0 X99.272 Y71.58
M204 S3000
M205 X20 Y20
;TYPE:SKIN
G1 F1650 X99.272 Y72.308 E53.86329
G1 X99.272 Y117.42 E57.23926
G1 X100.728 Y117.42 E57.34822
G1 X100.728 Y71.58 E60.77867
G1 X99.272 Y71.58 E60.88763
M204 S5000
M205 X30 Y30
G0 F2100 X99.881 Y71.88
M204 S3000
M205 X20 Y20
G1 F1650 X100.427 Y72.426 E60.94542
M204 S5000
M205 X30 Y30
G0 F2100 X100.427 Y73.274
M204 S3000
M205 X20 Y20
G1 F1650 X99.571 Y72.418 E61.03601
M204 S5000
M205 X30 Y30
G0 F2100 X99.571 Y73.266
M204 S3000
M205 X20 Y20
G1 F1650 X100.427 Y74.123 E61.12665
M204 S5000
M205 X30 Y30
G0 F2100 X100.427 Y74.971
M204 S3000
M205 X20 Y20
G1 F1650 X99.571 Y74.115 E61.21725
M204 S5000
M205 X30 Y30
G0 F2100 X99.571 Y74.963
M204 S3000
M205 X20 Y20
G1 F1650 X100.427 Y75.82 E61.30789
M204 S5000
M205 X30 Y30
G0 F2100 X100.427 Y76.668
M204 S3000
M205 X20 Y20
G1 F1650 X99.571 Y75.812 E61.39849
M204 S5000
M205 X30 Y30
G0 F2100 X99.571 Y76.66
M204 S3000
M205 X20 Y20
G1 F1650 X100.427 Y77.517 E61.48913
M204 S5000
M205 X30 Y30
G0 F2100 X100.427 Y78.365
M204 S3000
M205 X20 Y20
G1 F1650 X99.571 Y77.509 E61.57973
M204 S5000
M205 X30 Y30
G0 F2100 X99.571 Y78.358
M204 S3000
M205 X20 Y20
G1 F1650 X100.427 Y79.214 E61.67032
M204 S5000
M205 X30 Y30
G0 F2100 X100.427 Y80.062
M204 S3000
M205 X20 Y20
G1 F1650 X99.571 Y79.206 E61.76091
M204 S5000
M205 X30 Y30
G0 F2100 X99.571 Y80.055
M204 S3000
M205 X20 Y20
G1 F1650 X100.427 Y80.911 E61.85151
M204 S5000
M205 X30 Y30
G0 F2100 X100.427 Y81.759
M204 S3000
M205 X20 Y20
G1 F1650 X99.571 Y80.903 E61.9421
M204 S5000
M205 X30 Y30
G0 F2100 X99.571 Y81.752
M204 S3000
M205 X20 Y20
G1 F1650 X100.427 Y82.608 E62.03269
M204 S5000
M205 X30 Y30
G0 F2100 X100.427 Y83.456
M204 S3000
M205 X20 Y20
G1 F1650 X99.571 Y82.6 E62.12329
M204 S5000
M205 X30 Y30
G0 F2100 X99.571 Y83.449
M204 S3000
M205 X20 Y20
G1 F1650 X100.427 Y84.305 E62.21388
M204 S5000
M205 X30 Y30
G0 F2100 X100.427 Y85.154
M204 S3000
M205 X20 Y20
G1 F1650 X99.571 Y84.297 E62.30452
M204 S5000
M205 X30 Y30
G0 F2100 X99.571 Y85.146
M204 S3000
M205 X20 Y20
G1 F1650 X100.427 Y86.002 E62.39512
M204 S5000
M205 X30 Y30
G0 F2100 X100.427 Y86.851
M204 S3000
M205 X20 Y20
G1 F1650 X99.571 Y85.994 E62.48576
M204 S5000
M205 X30 Y30
G0 F2100 X99.571 Y86.843
M204 S3000
M205 X20 Y20
G1 F1650 X100.427 Y87.699 E62.57636
M204 S5000
M205 X30 Y30
G0 F2100 X100.427 Y88.548
M204 S3000
M205 X20 Y20
G1 F1650 X99.571 Y87.691 E62.667
M204 S5000
M205 X30 Y30
G0 F2100 X99.571 Y88.54
M204 S3000
M205 X20 Y20
G1 F1650 X100.427 Y89.396 E62.7576
M204 S5000
M205 X30 Y30
G0 F2100 X100.427 Y90.245
M204 S3000
M205 X20 Y20
G1 F1650 X99.571 Y89.388 E62.84824
M204 S5000
M205 X30 Y30
G0 F2100 X99.571 Y90.237
M204 S3000
M205 X20 Y20
G1 F1650 X100.427 Y91.093 E62.93884
M204 S5000
M205 X30 Y30
G0 F2100 X100.427 Y91.942
M204 S3000
M205 X20 Y20
G1 F1650 X99.571 Y91.085 E63.02948
M204 S5000
M205 X30 Y30
G0 F2100 X99.571 Y91.934
M204 S3000
M205 X20 Y20
G1 F1650 X100.427 Y92.79 E63.12007
M204 S5000
M205 X30 Y30
G0 F2100 X100.427 Y93.639
M204 S3000
M205 X20 Y20
G1 F1650 X99.571 Y92.783 E63.21067
M204 S5000
M205 X30 Y30
G0 F2100 X99.571 Y93.631
M204 S3000
M205 X20 Y20
G1 F1650 X100.427 Y94.487 E63.30126
M204 S5000
M205 X30 Y30
G0 F2100 X100.427 Y95.336
M204 S3000
M205 X20 Y20
G1 F1650 X99.571 Y94.48 E63.39185
M204 S5000
M205 X30 Y30
G0 F2100 X99.571 Y95.328
M204 S3000
M205 X20 Y20
G1 F1650 X100.427 Y96.184 E63.48245
M204 S5000
M205 X30 Y30
G0 F2100 X100.427 Y97.033
M204 S3000
M205 X20 Y20
G1 F1650 X99.571 Y96.177 E63.57304
M204 S5000
M205 X30 Y30
G0 F2100 X99.571 Y97.025
M204 S3000
M205 X20 Y20
G1 F1650 X100.427 Y97.881 E63.66363
M204 S5000
M205 X30 Y30
G0 F2100 X100.427 Y98.73
M204 S3000
M205 X20 Y20
G1 F1650 X99.571 Y97.874 E63.75423
M204 S5000
M205 X30 Y30
G0 F2100 X99.571 Y98.722
M204 S3000
M205 X20 Y20
G1 F1650 X100.427 Y99.579 E63.84487
M204 S5000
M205 X30 Y30
G0 F2100 X100.427 Y100.427
M204 S3000
M205 X20 Y20
G1 F1650 X99.571 Y99.571 E63.93547
M204 S5000
M205 X30 Y30
G0 F2100 X99.571 Y100.419
M204 S3000
M205 X20 Y20
G1 F1650 X100.427 Y101.276 E64.02611
M204 S5000
M205 X30 Y30
G0 F2100 X100.427 Y102.124
M204 S3000
M205 X20 Y20
G1 F1650 X99.571 Y101.268 E64.1167
M204 S5000
M205 X30 Y30
G0 F2100 X99.571 Y102.116
M204 S3000
M205 X20 Y20
G1 F1650 X100.427 Y102.973 E64.20735
M204 S5000
M205 X30 Y30
G0 F2100 X100.427 Y103.821
M204 S3000
M205 X20 Y20
G1 F1650 X99.571 Y102.965 E64.29794
M204 S5000
M205 X30 Y30
G0 F2100 X99.571 Y103.813
M204 S3000
M205 X20 Y20
G1 F1650 X100.427 Y104.67 E64.38859
M204 S5000
M205 X30 Y30
G0 F2100 X100.427 Y105.518
M204 S3000
M205 X20 Y20
G1 F1650 X99.571 Y104.662 E64.47918
M204 S5000
M205 X30 Y30
G0 F2100 X99.571 Y105.51
M204 S3000
M205 X20 Y20
G1 F1650 X100.427 Y106.367 E64.56983
M204 S5000
M205 X30 Y30
G0 F2100 X100.427 Y107.215
M204 S3000
M205 X20 Y20
G1 F1650 X99.571 Y106.359 E64.66042
M204 S5000
M205 X30 Y30
G0 F2100 X99.571 Y107.207
M204 S3000
M205 X20 Y20
G1 F1650 X100.427 Y108.064 E64.75107
M204 S5000
M205 X30 Y30
G0 F2100 X100.427 Y108.912
M204 S3000
M205 X20 Y20
G1 F1650 X99.571 Y108.056 E64.84166
M204 S5000
M205 X30 Y30
G0 F2100 X99.571 Y108.905
M204 S3000
M205 X20 Y20
G1 F1650 X100.427 Y109.761 E64.93225
M204 S5000
M205 X30 Y30
G0 F2100 X100.427 Y110.609
M204 S3000
M205 X20 Y20
G1 F1650 X99.571 Y109.753 E65.02285
M204 S5000
M205 X30 Y30
G0 F2100 X99.571 Y110.602
M204 S3000
M205 X20 Y20
G1 F1650 X100.427 Y111.458 E65.11344
M204 S5000
M205 X30 Y30
G0 F2100 X100.427 Y112.306
M204 S3000
M205 X20 Y20
G1 F1650 X99.571 Y111.45 E65.20403
M204 S5000
M205 X30 Y30
G0 F2100 X99.571 Y112.299
M204 S3000
M205 X20 Y20
G1 F1650 X100.427 Y113.155 E65.29463
M204 S5000
M205 X30 Y30
G0 F2100 X100.427 Y114.003
M204 S3000
M205 X20 Y20
G1 F1650 X99.571 Y113.147 E65.38522
M204 S5000
M205 X30 Y30
G0 F2100 X99.571 Y113.996
M204 S3000
M205 X20 Y20
G1 F1650 X100.427 Y114.852 E65.47581
M204 S5000
M205 X30 Y30
G0 F2100 X100.427 Y115.701
M204 S3000
M205 X20 Y20
G1 F1650 X99.571 Y114.844 E65.56646
M204 S5000
M205 X30 Y30
G0 F2100 X99.571 Y115.693
M204 S3000
M205 X20 Y20
G1 F1650 X100.427 Y116.549 E65.65705
M204 S5000
M205 X30 Y30
G0 F2100 X100.148 Y117.119
M204 S3000
M205 X20 Y20
G1 F1650 X99.571 Y116.541 E65.71817
M204 S5000
M205 X30 Y30
G1 F2400 E64.71817
;MESH:NONMESH
G0 F600 X99.571 Y116.541 Z0.5
G0 F2100 X98.092 Y70.5
G1 F2400 E65.71817
G0 F2100 X97.96 Y70.5
;TIME_ELAPSED:40.572867
;LAYER:1
G1 F2400 E64.71817
M106 S127.5
M204 S3000
M205 X20 Y20
;TYPE:WALL-INNER
;MESH:shaft.stl
G1 F2400 E65.71817
G1 F2475 X97.96 Y118.5 E67.31466
G1 X100 Y118.5 E67.38251
G1 X102.04 Y118.5 E67.45036
G1 X102.04 Y70.5 E69.04685
G1 X97.96 Y70.5 E69.18255
M204 S5000
M205 X30 Y30
G0 F3150 X97.56 Y70.1
M204 S3000
M205 X20 Y20
G1 F2475 X97.56 Y118.9 E70.80564
G1 X100 Y118.9 E70.8868
G1 X102.44 Y118.9 E70.96795
G1 X102.44 Y70.1 E72.59105
G1 X97.56 Y70.1 E72.75335
M204 S5000
M205 X30 Y30
G0 F3150 X97.16 Y69.7
M204 S3000
M205 X20 Y20
;TYPE:WALL-OUTER
G1 F1650 X97.16 Y119.3 E74.40306
G1 X100 Y119.3 E74.49752
G1 X102.84 Y119.3 E74.59198
G1 X102.84 Y69.7 E76.24168
G1 X97.16 Y69.7 E76.4306
M204 S5000
M205 X30 Y30
G0 F3150 X97.16 Y69.9
G3 X98.340 Y70.880 I-2.203 J3.853
M204 S3000
M205 X20 Y20
;TYPE:SKIN
G1 F1650 X98.34 Y72.54 E76.48581
G1 X98.34 Y118.12 E78.0018
G1 X101.66 Y118.12 E78.11223
G1 X101.66 Y70.88 E79.68344
G1 X98.34 Y70.88 E79.79386
M204 S5000
M205 X30 Y30
G0 F3150 X98.625 Y71.079
M204 S3000
M205 X20 Y20
G1 F1650 X98.54 Y71.165 E79.79788
M204 S5000
M205 X30 Y30
G0 F3150 X98.54 Y71.731
M204 S3000
M205 X20 Y20
G1 F1650 X99.191 Y71.079 E79.82853
M204 S5000
M205 X30 Y30
G0 F3150 X99.757 Y71.079
M204 S3000
M205 X20 Y20
G1 F1650 X98.54 Y72.296 E79.88577
M204 S5000
M205 X30 Y30
G0 F3150 X98.54 Y72.862
M204 S3000
M205 X20 Y20
G1 F1650 X100.322 Y71.079 E79.96961
M204 S5000
M205 X30 Y30
G0 F3150 X100.888 Y71.079
M204 S3000
M205 X20 Y20
G1 F1650 X98.54 Y73.428 E80.08008
M204 S5000
M205 X30 Y30
G0 F3150 X98.54 Y73.993
M204 S3000
M205 X20 Y20
G1 F1650 X101.454 Y71.079 E80.21715
M204 S5000
M205 X30 Y30
G0 F3150 X101.459 Y71.64
M204 S3000
M205 X20 Y20
G1 F1650 X98.54 Y74.559 E80.35445
M204 S5000
M205 X30 Y30
G0 F3150 X98.54 Y75.125
M204 S3000
M205 X20 Y20
G1 F1650 X101.459 Y72.206 E80.49175
M204 S5000
M205 X30 Y30
G0 F3150 X101.459 Y72.771
M204 S3000
M205 X20 Y20
G1 F1650 X98.54 Y75.69 E80.62905
M204 S5000
M205 X30 Y30
G0 F3150 X98.54 Y76.256
M204 S3000
M205 X20 Y20
G1 F1650 X101.459 Y73.337 E80.76635
M204 S5000
M205 X30 Y30
G0 F3150 X101.459 Y73.903
M204 S3000
M205 X20 Y20
G1 F1650 X98.54 Y76.822 E80.90365
M204 S5000
M205 X30 Y30
G0 F3150 X98.54 Y77.387
M204 S3000
M205 X20 Y20
G1 F1650 X101.459 Y74.468 E81.04095
M204 S5000
M205 X30 Y30
G0 F3150 X101.459 Y75.034
M204 S3000
M205 X20 Y20
G1 F1650 X98.54 Y77.953 E81.17825
M204 S5000
M205 X30 Y30
G0 F3150 X98.54 Y78.519
M204 S3000
M205 X20 Y20
G1 F1650 X101.459 Y75.6 E81.31555
M204 S5000
M205 X30 Y30
G0 F3150 X101.459 Y76.166
M204 S3000
M205 X20 Y20
G1 F1650 X98.54 Y79.084 E81.45283
M204 S5000
M205 X30 Y30
G0 F3150 X98.54 Y79.65
M204 S3000
M205 X20 Y20
G1 F1650 X101.459 Y76.731 E81.59013
M204 S5000
M205 X30 Y30
G0 F3150 X101.459 Y77.297
M204 S3000
M205 X20 Y20
G1 F1650 X98.54 Y80.216 E81.72743
M204 S5000
M205 X30 Y30
G0 F3150 X98.54 Y80.782
M204 S3000
M205 X20 Y20
G1 F1650 X101.459 Y77.863 E81.86473
M204 S5000
M205 X30 Y30
G0 F3150 X101.459 Y78.428
M204 S3000
M205 X20 Y20
G1 F1650 X98.54 Y81.347 E82.00203
M204 S5000
M205 X30 Y30
G0 F3150 X98.54 Y81.913
M204 S3000
M205 X20 Y20
G1 F1650 X101.459 Y78.994 E82.13933
M204 S5000
M205 X30 Y30
G0 F3150 X101.459 Y79.56
M204 S3000
M205 X20 Y20
G1 F1650 X98.54 Y82.479 E82.27663
M204 S5000
M205 X30 Y30
G0 F3150 X98.54 Y83.044
M204 S3000
M205 X20 Y20
G1 F1650 X101.459 Y80.125 E82.41394
M204 S5000
M205 X30 Y30
G0 F3150 X101.459 Y80.691
M204 S3000
M205 X20 Y20
G1 F1650 X98.54 Y83.61 E82.55124
M204 S5000
M205 X30 Y30
G0 F3150 X98.54 Y84.176
M204 S3000
M205 X20 Y20
G1 F1650 X101.459 Y81.257 E82.68854
M204 S5000
M205 X30 Y30
G0 F3150 X101.459 Y81.822
M204 S3000
M205 X20 Y20
G1 F1650 X98.54 Y84.741 E82.82584
M204 S5000
M205 X30 Y30
G0 F3150 X98.54 Y85.307
M204 S3000
M205 X20 Y20
G1 F1650 X101.459 Y82.388 E82.96314
M204 S5000
M205 X30 Y30
G0 F3150 X101.459 Y82.954
M204 S3000
M205 X20 Y20
G1 F1650 X98.54 Y85.873 E83.10044
M204 S5000
M205 X30 Y30
G0 F3150 X98.54 Y86.438
M204 S3000
M205 X20 Y20
G1 F1650 X101.459 Y83.519 E83.23774
M204 S5000
M205 X30 Y30
G0 F3150 X101.459 Y84.085
M204 S3000
M205 X20 Y20
G1 F1650 X98.54 Y87.004 E83.37504
M204 S5000
M205 X30 Y30
G0 F3150 X98.54 Y87.57
M204 S3000
M205 X20 Y20
G1 F1650 X101.459 Y84.651 E83.51234
M204 S5000
M205 X30 Y30
G0 F3150 X101.459 Y85.216
M204 S3000
M205 X20 Y20
G1 F1650 X98.54 Y88.135 E83.64964
M204 S5000
M205 X30 Y30
G0 F3150 X98.54 Y88.701
M204 S3000
M205 X20 Y20
G1 F1650 X101.459 Y85.782 E83.78694
M204 S5000
M205 X30 Y30
G0 F3150 X101.459 Y86.348
M204 S3000
M205 X20 Y20
G1 F1650 X98.54 Y89.267 E83.92424
M204 S5000
M205 X30 Y30
G0 F3150 X98.54 Y89.832
M204 S3000
M205 X20 Y20
G1 F1650 X101.459 Y86.914 E84.06152
M204 S5000
M205 X30 Y30
G0 F3150 X101.459 Y87.479
M204 S3000
M205 X20 Y20
G1 F1650 X98.54 Y90.398 E84.19882
M204 S5000
M205 X30 Y30
G0 F3150 X98.54 Y90.964
M204 S3000
M205 X20 Y20
G1 F1650 X101.459 Y88.045 E84.33612
M204 S5000
M205 X30 Y30
G0 F3150 X101.459 Y88.611
M204 S3000
M205 X20 Y20
G1 F1650 X98.54 Y91.53 E84.47342
M204 S5000
M205 X30 Y30
G0 F3150 X98.54 Y92.095
M204 S3000
M205 X20 Y20
G1 F1650 X101.459 Y89.176 E84.61072
M204 S5000
M205 X30 Y30
G0 F3150 X101.459 Y89.742
M204 S3000
M205 X20 Y20
G1 F1650 X98.54 Y92.661 E84.74803
M204 S5000
M205 X30 Y30
G0 F3150 X98.54 Y93.227
M204 S3000
M205 X20 Y20
G1 F1650 X101.459 Y90.308 E84.88533
M204 S5000
M205 X30 Y30
G0 F3150 X101.459 Y90.873
M204 S3000
M205 X20 Y20
G1 F1650 X98.54 Y93.792 E85.02263
M204 S5000
M205 X30 Y30
G0 F3150 X98.54 Y94.358
M204 S3000
M205 X20 Y20
G1 F1650 X101.459 Y91.439 E85.15993
M204 S5000
M205 X30 Y30
G0 F3150 X101.459 Y92.005
M204 S3000
M205 X20 Y20
G1 F1650 X98.54 Y94.924 E85.29723
M204 S5000
M205 X30 Y30
G0 F3150 X98.54 Y95.489
M204 S3000
M205 X20 Y20
G1 F1650 X101.459 Y92.57 E85.43453
M204 S5000
M205 X30 Y30
G0 F3150 X101.459 Y93.136
M204 S3000
M205 X20 Y20
G1 F1650 X98.54 Y96.055 E85.57183
M204 S5000
M205 X30 Y30
G0 F3150 X98.54 Y96.621
M204 S3000
M205 X20 Y20
G1 F1650 X101.459 Y93.702 E85.70913
M204 S5000
M205 X30 Y30
G0 F3150 X101.459 Y94.267
M204 S3000
M205 X20 Y20
G1 F1650 X98.54 Y97.186 E85.84643
M204 S5000
M205 X30 Y30
G0 F3150 X98.54 Y97.752
M204 S3000
M205 X20 Y20
G1 F1650 X101.459 Y94.832 E85.98376
M204 S5000
M205 X30 Y30
G0 F3150 X101.459 Y95.398
M204 S3000
M205 X20 Y20
