; generated by PrusaSlicer 2.5.0+MacOS-x64 on 2022-11-01 at 17:37:05 UTC

; 

; external perimeters extrusion width = 0.40mm
; perimeters extrusion width = 0.40mm
; infill extrusion width = 0.80mm
; solid infill extrusion width = 0.40mm
; top infill extrusion width = 0.40mm
; first layer extrusion width = 0.60mm

M201 X9000 Y9000 Z500 E10000 ; sets maximum accelerations, mm/sec^2
M203 X500 Y500 Z12 E120 ; sets maximum feedrates, mm / sec
M204 P1500 R1500 T1500 ; sets acceleration (P, T) and retract acceleration (R), mm/sec^2
M205 X10.00 Y10.00 Z0.20 E2.50 ; sets the jerk limits, mm/sec
M205 S0 T0 ; sets the minimum extruding and travel feed rate, mm/sec
M107
M190 S70 ; set bed temperature and wait for it to be reached
M104 S210 ; set temperature
;TYPE:Custom
G28 ; home all axes
G1 Z5 F5000 ; lift nozzle
M109 S210 ; set temperature and wait for it to be reached
G21 ; set units to millimeters
G90 ; use absolute coordinates
M82 ; use absolute distances for extrusion
G92 E0
; Filament gcode
G28
G92 Z-0.05
M107
;LAYER_CHANGE
;Z:0.2
;HEIGHT:0.2
G1 E-3 F2400
G92 E0
G1 Z.2 F7800
G1 X166.134 Y194.313
G1 E3 F2400
;TYPE:Skirt/Brim
;WIDTH:0.6
G1 F1200
G1 X167.563 Y193.853 E3.06954
G1 X202.563 Y191.486 E4.69449
G1 X226.791 Y191.479 E5.81677
G1 X228.41 Y191.638 E5.89215
G1 X229.939 Y192.089 E5.96597
G1 X231.27 Y192.762 E6.03507
G1 X232.54 Y193.727 E6.10894
G1 X233.581 Y194.876 E6.18078
G1 X234.392 Y196.184 E6.25206
G1 X234.963 Y197.65 E6.32493
G1 X235.259 Y199.231 E6.39946
G1 X235.256 Y200.8 E6.47213
G1 X234.963 Y202.35 E6.54522
G1 X234.38 Y203.841 E6.61936
G1 X233.549 Y205.166 E6.69182
G1 X232.44 Y206.364 E6.76743
G1 X231.21 Y207.274 E6.8383
G1 X229.82 Y207.958 E6.91006
G1 X228.286 Y208.386 E6.98382
G1 X226.791 Y208.521 E7.05337
G1 X202.563 Y208.514 E8.17566
G1 X167.563 Y206.147 E9.80061
G1 X166.077 Y205.652 E9.87313
G1 X165.02 Y204.496 E9.94566
G1 X164.659 Y203.04 E10.01519
G1 X164.659 Y196.96 E10.29678
G1 X165.052 Y195.445 E10.36931
G1 X166.092 Y194.356 E10.43905
G1 X166.495 Y194.807 F7800
G1 F1200
G1 X166.664 Y194.656 E10.44956
G1 X167.6 Y194.409 E10.4944
G1 X202.6 Y192.042 E12.11935
G1 X226.788 Y192.036 E13.23975
G1 X228.307 Y192.185 E13.31049
G1 X229.736 Y192.608 E13.3795
G1 X230.973 Y193.233 E13.44369
G1 X232.166 Y194.14 E13.51311
G1 X233.138 Y195.213 E13.58019
G1 X233.892 Y196.43 E13.64649
G1 X234.427 Y197.802 E13.7147
G1 X234.704 Y199.28 E13.78437
G1 X234.702 Y200.746 E13.85226
G1 X234.427 Y202.198 E13.92075
G1 X233.882 Y203.591 E13.99001
G1 X233.106 Y204.829 E14.05771
G1 X232.066 Y205.951 E14.12856
G1 X230.924 Y206.797 E14.1944
G1 X229.617 Y207.439 E14.26183
G1 X228.183 Y207.838 E14.33077
G1 X226.788 Y207.964 E14.39569
G1 X202.6 Y207.958 E15.51609
G1 X167.6 Y205.591 E17.14104
G1 X166.269 Y205.108 E17.20664
G1 X165.399 Y203.99 E17.27224
G1 X165.216 Y203.04 E17.31709
G1 X165.216 Y196.96 E17.59868
G1 X165.608 Y195.6 E17.66428
G1 X166.45 Y194.847 E17.7166
;WIPE_START
G1 F6240
G1 X166.664 Y194.656 E17.61182
G1 X167.6 Y194.409 E17.25808
G1 X174.13 Y193.967 E14.8666
;WIPE_END
G1 E14.7166 F2400
G92 E0
G1 X203.443 Y198.492 F7800
G1 E3 F2400
;TYPE:Perimeter
;WIDTH:0.599999
G1 F1200
G1 X203.632 Y198.42 E3.00937
G1 X203.846 Y198.284 E3.0211
G1 X204.094 Y198.036 E3.03736
G1 X204.306 Y197.651 E3.05774
G1 X204.387 Y197.182 E3.07978
G1 X204.387 Y196.207 E3.12493
G1 X226.638 Y196.207 E4.15563
G1 X227.141 Y196.228 E4.17893
G1 X227.86 Y196.372 E4.21289
G1 X228.527 Y196.644 E4.24628
G1 X229.068 Y196.988 E4.27598
G1 X229.615 Y197.497 E4.31058
G1 X230.044 Y198.087 E4.34438
G1 X230.336 Y198.707 E4.37611
G1 X230.513 Y199.408 E4.40959
G1 X230.558 Y200.115 E4.44242
G1 X230.473 Y200.807 E4.47474
G1 X230.246 Y201.51 E4.50896
G1 X229.802 Y202.271 E4.54973
G1 X229.448 Y202.661 E4.57414
G1 X228.94 Y203.109 E4.60552
G1 X228.277 Y203.475 E4.64058
G1 X227.396 Y203.736 E4.68318
G1 X226.784 Y203.793 E4.71163
G1 X204.387 Y203.793 E5.74909
G1 X204.387 Y202.818 E5.79424
G1 X204.306 Y202.349 E5.81628
G1 X204.163 Y202.061 E5.83117
G1 X203.993 Y201.848 E5.8438
G1 X203.632 Y201.58 E5.86465
G1 X203.342 Y201.469 E5.87904
G1 X202.994 Y201.425 E5.89525
G1 X169.387 Y201.425 E7.45198
G1 X169.387 Y198.575 E7.58404
G1 X202.994 Y198.575 E9.14077
G1 X203.387 Y198.513 E9.15917
G1 X203.207 Y197.966 F7800
G1 F1200
G1 X203.377 Y197.925 E9.16727
G1 X203.594 Y197.764 E9.17978
G1 X203.781 Y197.463 E9.1962
G1 X203.83 Y197.182 E9.20942
G1 X203.83 Y195.65 E9.28038
G1 X226.638 Y195.65 E10.33689
G1 X227.21 Y195.674 E10.36341
G1 X228.021 Y195.837 E10.40169
G1 X228.784 Y196.147 E10.43985
G1 X229.411 Y196.545 E10.47427
G1 X230.033 Y197.126 E10.51371
G1 X230.275 Y197.457 E10.53269
G1 X230.629 Y197.998 E10.56264
G1 X230.866 Y198.532 E10.58967
G1 X231.066 Y199.321 E10.62738
G1 X231.117 Y200.132 E10.66502
G1 X231.019 Y200.928 E10.7022
G1 X230.76 Y201.731 E10.74129
G1 X230.478 Y202.248 E10.76855
G1 X230.122 Y202.773 E10.79792
G1 X229.69 Y203.207 E10.8263
G1 X229.245 Y203.577 E10.85312
G1 X228.5 Y203.988 E10.89251
G1 X227.916 Y204.179 E10.921
G1 X227.333 Y204.313 E10.94871
G1 X226.803 Y204.35 E10.97328
G1 X203.83 Y204.35 E12.03744
G1 X203.83 Y202.818 E12.1084
G1 X203.781 Y202.537 E12.12162
G1 X203.654 Y202.305 E12.13385
G1 X203.377 Y202.075 E12.15055
G1 X202.994 Y201.982 E12.16878
G1 X168.83 Y201.982 E13.75132
G1 X168.83 Y198.018 E13.93498
G1 X202.994 Y198.018 E15.51752
G1 X203.149 Y197.98 E15.52487
G1 X203.064 Y197.452 F7800
;TYPE:External perimeter
G1 F1200
G1 X203.194 Y197.376 E15.53185
G1 X203.273 Y197.182 E15.54155
G1 X203.273 Y195.093 E15.63831
G1 X226.765 Y195.093 E16.7265
G1 X227.28 Y195.12 E16.75037
G1 X228.181 Y195.301 E16.79298
G1 X229.04 Y195.649 E16.83591
G1 X229.753 Y196.103 E16.87505
G1 X230.452 Y196.755 E16.91933
G1 X230.829 Y197.272 E16.94895
G1 X231.12 Y197.737 E16.97437
G1 X231.396 Y198.356 E17.00577
G1 X231.619 Y199.234 E17.04772
G1 X231.677 Y200.148 E17.09017
G1 X231.565 Y201.049 E17.1322
G1 X231.274 Y201.952 E17.17618
G1 X230.845 Y202.736 E17.21756
G1 X230.545 Y203.138 E17.24081
G1 X230.084 Y203.6 E17.27102
G1 X229.549 Y204.045 E17.30325
G1 X228.723 Y204.502 E17.34696
G1 X228.088 Y204.709 E17.37791
G1 X227.4 Y204.866 E17.4106
G1 X226.823 Y204.907 E17.43741
G1 X203.273 Y204.907 E18.52828
G1 X203.273 Y202.818 E18.62504
G1 X203.257 Y202.724 E18.62945
G1 X203.165 Y202.598 E18.63671
G1 X202.994 Y202.54 E18.64504
G1 X168.273 Y202.54 E20.25338
G1 X168.273 Y197.46 E20.48865
G1 X203.004 Y197.459 E22.09746
G1 X203.184 Y197.543 F7800
;WIPE_START
G1 F6240
G1 X203.194 Y197.376 E22.02169
G1 X203.273 Y197.182 E21.94518
G1 X203.273 Y195.093 E21.18191
G1 X208.567 Y195.093 E19.24746
;WIPE_END
G1 E19.09746 F2400
G92 E0
G1 X228.222 Y196.7 F7800
G1 E3 F2400
;TYPE:Solid infill
;WIDTH:0.605775
G1 F1200
G1 X229.309 Y197.787 E3.07195
G1 X229.69 Y198.309 E3.10219
G1 X229.823 Y198.56 E3.11549
G1 X229.938 Y198.839 E3.12959
G1 X230.065 Y199.339 E3.15375
G1 X227.44 Y196.715 E3.32746
G1 X227.089 Y196.644 E3.34425
G1 X226.555 Y196.625 E3.36923
G1 X230.127 Y200.197 E3.60565
G1 X230.063 Y200.717 E3.63015
G1 X230.011 Y200.877 E3.63804
G1 X225.759 Y196.625 E3.91946
G1 X224.963 Y196.625 E3.95672
G1 X229.797 Y201.459 E4.27668
G1 X229.508 Y201.966 E4.30399
G1 X224.167 Y196.625 E4.65751
G1 X223.371 Y196.625 E4.69476
G1 X229.132 Y202.386 E5.07604
G1 X228.912 Y202.606 E5.09057
G1 X228.709 Y202.759 E5.10249
G1 X222.575 Y196.625 E5.50849
G1 X221.779 Y196.625 E5.54575
G1 X228.196 Y203.043 E5.9705
G1 X228.11 Y203.09 E5.9751
G1 X227.611 Y203.253 E5.99969
G1 X220.983 Y196.625 E6.43836
G1 X220.187 Y196.625 E6.47561
G1 X226.926 Y203.364 E6.92163
G1 X226.141 Y203.375 E6.95837
G1 X219.391 Y196.625 E7.40511
G1 X218.595 Y196.625 E7.44237
G1 X225.345 Y203.375 E7.8891
G1 X224.549 Y203.375 E7.92636
G1 X217.799 Y196.625 E8.3731
G1 X217.003 Y196.625 E8.41035
G1 X223.753 Y203.375 E8.8571
G1 X222.957 Y203.375 E8.89435
G1 X216.207 Y196.625 E9.34109
G1 X215.411 Y196.625 E9.37835
G1 X222.161 Y203.375 E9.82509
G1 X221.365 Y203.375 E9.86235
G1 X214.615 Y196.625 E10.30909
G1 X213.819 Y196.625 E10.34635
G1 X220.569 Y203.375 E10.7931
G1 X219.773 Y203.375 E10.83035
G1 X213.023 Y196.625 E11.2771
G1 X212.227 Y196.625 E11.31436
G1 X218.977 Y203.375 E11.76111
G1 X218.181 Y203.375 E11.79836
G1 X211.431 Y196.625 E12.24511
G1 X210.635 Y196.625 E12.28237
G1 X217.385 Y203.375 E12.72912
G1 X216.589 Y203.375 E12.76638
G1 X209.839 Y196.625 E13.21313
G1 X209.043 Y196.625 E13.25039
G1 X215.793 Y203.375 E13.69715
G1 X214.997 Y203.375 E13.7344
G1 X208.247 Y196.625 E14.18116
G1 X207.451 Y196.625 E14.21842
G1 X214.201 Y203.375 E14.66518
G1 X213.405 Y203.375 E14.70243
G1 X206.655 Y196.625 E15.14919
G1 X205.859 Y196.625 E15.18645
G1 X212.609 Y203.375 E15.63321
G1 X211.813 Y203.375 E15.67047
G1 X205.063 Y196.625 E16.11723
G1 X204.805 Y196.625 E16.12931
G1 X204.805 Y197.163 E16.15449
G1 X211.017 Y203.375 E16.56565
G1 X210.221 Y203.375 E16.60291
G1 X204.679 Y197.833 E16.96969
G1 X204.515 Y198.165 E16.98701
G1 X204.382 Y198.332 E16.99701
G1 X209.425 Y203.375 E17.33077
G1 X208.629 Y203.375 E17.36802
G1 X203.959 Y198.706 E17.67709
G1 X203.822 Y198.793 E17.6847
G1 X203.4 Y198.942 E17.70565
G1 X207.833 Y203.375 E17.99906
G1 X207.037 Y203.375 E18.03631
G1 X202.654 Y198.992 E18.32638
G1 X201.858 Y198.992 E18.36364
G1 X206.241 Y203.375 E18.65371
G1 X205.445 Y203.375 E18.69097
G1 X204.79 Y202.72 E18.73433
G1 X204.702 Y202.212 E18.75845
G1 X204.515 Y201.835 E18.77815
G1 X204.295 Y201.558 E18.79472
G1 X204.1 Y201.384 E18.80693
G1 X203.822 Y201.207 E18.82235
G1 X203.445 Y201.064 E18.84124
G1 X203.088 Y201.018 E18.85806
G1 X201.062 Y198.992 E18.99216
G1 X200.266 Y198.992 E19.02941
G1 X202.282 Y201.008 E19.16279
G1 X201.486 Y201.008 E19.20005
G1 X199.47 Y198.992 E19.33343
G1 X198.674 Y198.992 E19.37068
G1 X200.69 Y201.008 E19.50406
G1 X199.894 Y201.008 E19.54131
G1 X197.878 Y198.992 E19.67469
G1 X197.082 Y198.992 E19.71195
G1 X199.098 Y201.008 E19.84533
G1 X198.302 Y201.008 E19.88258
G1 X196.286 Y198.992 E20.01596
G1 X195.49 Y198.992 E20.05321
G1 X197.506 Y201.008 E20.18659
G1 X196.71 Y201.008 E20.22385
G1 X194.694 Y198.992 E20.35722
G1 X193.898 Y198.992 E20.39448
G1 X195.914 Y201.008 E20.52786
G1 X195.118 Y201.008 E20.56511
G1 X193.102 Y198.992 E20.69849
G1 X192.306 Y198.992 E20.73575
G1 X194.322 Y201.008 E20.86912
G1 X193.526 Y201.008 E20.90638
G1 X191.51 Y198.992 E21.03976
G1 X190.714 Y198.992 E21.07701
G1 X192.73 Y201.008 E21.21039
G1 X191.934 Y201.008 E21.24764
G1 X189.918 Y198.992 E21.38102
G1 X189.122 Y198.992 E21.41828
G1 X191.138 Y201.008 E21.55166
G1 X190.342 Y201.008 E21.58891
G1 X188.326 Y198.992 E21.72229
G1 X187.53 Y198.992 E21.75954
G1 X189.546 Y201.008 E21.89292
G1 X188.75 Y201.008 E21.93018
G1 X186.734 Y198.992 E22.06356
G1 X185.938 Y198.992 E22.10081
G1 X187.954 Y201.008 E22.23419
G1 X187.158 Y201.008 E22.27144
G1 X185.142 Y198.992 E22.40482
G1 X184.346 Y198.992 E22.44208
G1 X186.362 Y201.008 E22.57546
G1 X185.566 Y201.008 E22.61271
G1 X183.55 Y198.992 E22.74609
G1 X182.754 Y198.992 E22.78334
G1 X184.77 Y201.008 E22.91672
G1 X183.974 Y201.008 E22.95398
G1 X181.958 Y198.992 E23.08736
G1 X181.162 Y198.992 E23.12461
G1 X183.178 Y201.008 E23.25799
G1 X182.382 Y201.008 E23.29524
G1 X180.366 Y198.992 E23.42862
G1 X179.57 Y198.992 E23.46588
G1 X181.586 Y201.008 E23.59925
G1 X180.79 Y201.008 E23.63651
G1 X178.774 Y198.992 E23.76989
G1 X177.978 Y198.992 E23.80714
G1 X179.994 Y201.008 E23.94052
G1 X179.198 Y201.008 E23.97777
G1 X177.182 Y198.992 E24.11115
G1 X176.386 Y198.992 E24.14841
G1 X178.402 Y201.008 E24.28179
G1 X177.606 Y201.008 E24.31904
G1 X175.59 Y198.992 E24.45242
G1 X174.794 Y198.992 E24.48967
G1 X176.81 Y201.008 E24.62305
G1 X176.014 Y201.008 E24.66031
G1 X173.998 Y198.992 E24.79369
G1 X173.202 Y198.992 E24.83094
G1 X175.218 Y201.008 E24.96432
G1 X174.422 Y201.008 E25.00157
G1 X172.406 Y198.992 E25.13495
G1 X171.61 Y198.992 E25.17221
G1 X173.626 Y201.008 E25.30559
G1 X172.83 Y201.008 E25.34284
G1 X170.815 Y198.992 E25.47622
G1 X170.019 Y198.992 E25.51347
G1 X172.034 Y201.008 E25.64685
G1 X171.238 Y201.008 E25.68411
G1 X169.805 Y199.575 E25.77894
G1 X169.805 Y200.371 E25.8162
G1 X170.692 Y201.258 E25.87494
M106 S255
;LAYER_CHANGE
;Z:0.3
;HEIGHT:0.1
;WIPE_START
G1 F6240
G1 X169.805 Y200.371 E25.41631
G1 X169.805 Y199.575 E25.12546
G1 X171.238 Y201.008 E24.38504
G1 X172.034 Y201.008 E24.0942
G1 X170.019 Y198.992 E23.05289
G1 X170.095 Y198.992 E23.02494
;WIPE_END
G1 E22.87494 F2400
G92 E0
G1 Z.3 F7800
M104 S200 ; set temperature
M140 S60 ; set bed temperature
G1 X203.434 Y197.787
G1 E3 F2400
;TYPE:Perimeter
;WIDTH:0.399999
G1 F1800
G1 X203.644 Y197.501 E3.00557
G1 X203.73 Y197.106 E3.01194
G1 X203.73 Y195.625 E3.03525
G1 X226.634 Y195.625 E3.39571
G1 X227.239 Y195.651 E3.40525
G1 X227.852 Y195.766 E3.41506
G1 X228.44 Y195.956 E3.42478
G1 X229.046 Y196.269 E3.43552
G1 X229.515 Y196.593 E3.44449
G1 X230.094 Y197.157 E3.45721
G1 X230.648 Y197.982 E3.47285
G1 X230.894 Y198.535 E3.48237
G1 X231.09 Y199.317 E3.49507
G1 X231.142 Y200.146 E3.50813
G1 X231.003 Y201.094 E3.52322
G1 X230.795 Y201.668 E3.53282
G1 X230.511 Y202.261 E3.54317
G1 X230.191 Y202.728 E3.55207
G1 X229.608 Y203.329 E3.56526
G1 X229.079 Y203.711 E3.57552
G1 X228.536 Y204.003 E3.58522
G1 X227.924 Y204.215 E3.59543
G1 X227.347 Y204.336 E3.6047
G1 X226.742 Y204.375 E3.61424
G1 X203.73 Y204.375 E3.9764
G1 X203.73 Y202.894 E3.99972
G1 X203.702 Y202.665 E4.00335
G1 X203.578 Y202.379 E4.00825
G1 X203.362 Y202.145 E4.01327
G1 X203.019 Y201.977 E4.01927
G1 X202.784 Y201.947 E4.02301
G1 X168.73 Y201.947 E4.55894
G1 X168.73 Y198.053 E4.62024
G1 X202.784 Y198.053 E5.15617
G1 X203.019 Y198.023 E5.15991
G1 X203.216 Y197.948 E5.16322
G1 X203.386 Y197.822 E5.16654
G1 X203.185 Y197.487 F7800
G1 F1800
G1 X203.3 Y197.343 E5.16943
G1 X203.351 Y197.106 E5.17325
G1 X203.351 Y195.246 E5.20252
G1 X227 Y195.259 E5.5747
G1 X227.506 Y195.309 E5.58269
G1 X228.157 Y195.453 E5.59319
G1 X228.782 Y195.698 E5.60375
G1 X229.24 Y195.944 E5.61193
G1 X229.76 Y196.304 E5.62189
G1 X230.382 Y196.909 E5.63555
G1 X230.714 Y197.372 E5.64452
G1 X230.982 Y197.804 E5.65252
G1 X231.254 Y198.416 E5.66307
G1 X231.466 Y199.259 E5.67674
G1 X231.522 Y200.157 E5.69089
G1 X231.449 Y200.767 E5.70057
G1 X231.314 Y201.404 E5.71081
G1 X231.079 Y201.97 E5.72046
G1 X230.837 Y202.454 E5.72896
G1 X230.482 Y202.972 E5.73886
G1 X229.862 Y203.612 E5.75288
G1 X229.28 Y204.031 E5.76417
G1 X228.689 Y204.35 E5.77473
G1 X228.025 Y204.58 E5.78579
G1 X227.393 Y204.713 E5.79596
G1 X226.754 Y204.754 E5.80603
G1 X203.351 Y204.754 E6.17434
G1 X203.351 Y202.894 E6.20361
G1 X203.335 Y202.756 E6.20579
G1 X203.26 Y202.585 E6.20873
G1 X203.043 Y202.389 E6.21333
G1 X202.784 Y202.326 E6.21754
G1 X168.351 Y202.326 E6.75943
G1 X168.351 Y197.674 E6.83264
G1 X202.784 Y197.674 E7.37453
G1 X202.925 Y197.656 E7.37677
G1 X203.148 Y197.534 E7.38077
G1 X202.919 Y197.238 F7800
;TYPE:External perimeter
G1 F900
G1 X202.973 Y197.106 E7.38301
G1 X202.973 Y194.868 E7.41824
G1 X226.601 Y194.868 E7.79009
G1 X227.068 Y194.884 E7.79745
G1 X227.795 Y194.971 E7.80898
G1 X228.49 Y195.17 E7.82036
G1 X228.967 Y195.367 E7.82848
G1 X229.433 Y195.618 E7.83681
G1 X230.006 Y196.014 E7.84776
G1 X230.67 Y196.661 E7.86236
G1 X231.022 Y197.152 E7.87186
G1 X231.414 Y197.81 E7.88392
G1 X231.615 Y198.298 E7.89222
G1 X231.842 Y199.201 E7.90687
G1 X231.902 Y200.167 E7.92211
G1 X231.825 Y200.812 E7.93233
G1 X231.673 Y201.524 E7.94379
G1 X231.429 Y202.115 E7.95386
G1 X231.164 Y202.646 E7.96319
G1 X230.772 Y203.216 E7.97408
G1 X230.115 Y203.895 E7.98894
G1 X229.534 Y204.319 E8.00027
G1 X229.08 Y204.578 E8.00849
G1 X228.605 Y204.788 E8.01667
G1 X228.127 Y204.944 E8.02458
G1 X227.438 Y205.089 E8.03566
G1 X226.766 Y205.132 E8.04625
G1 X202.973 Y205.132 E8.42071
G1 X202.973 Y202.894 E8.45594
G1 X202.933 Y202.778 E8.45787
G1 X202.784 Y202.705 E8.46049
G1 X167.973 Y202.705 E9.00834
G1 X167.973 Y197.295 E9.09346
G1 X202.784 Y197.295 E9.64131
G1 X202.864 Y197.261 E9.64268
G1 X203.057 Y197.274 F7800
G1 X228.779 Y203.755
;TYPE:Solid infill
;WIDTH:0.40302
G1 F2400
G1 X229.974 Y202.544 E9.66965
G1 X230.19 Y202.247 E9.6755
G1 X230.382 Y201.921 E9.6815
G1 X230.601 Y201.394 E9.69055
