; generated by PrusaSlicer 2.5.0+MacOS-x64 on 2022-11-01 at 17:36:13 UTC

; 

; external perimeters extrusion width = 0.40mm
; perimeters extrusion width = 0.40mm
; infill extrusion width = 0.80mm
; solid infill extrusion width = 0.40mm
; top infill extrusion width = 0.40mm
; first layer extrusion width = 0.60mm

M201 X9000 Y9000 Z500 E10000 ; sets maximum accelerations, mm/sec^2
M203 X500 Y500 Z12 E120 ; sets maximum feedrates, mm / sec
M204 P1500 R1500 T1500 ; sets acceleration (P, T) and retract acceleration (R), mm/sec^2
M205 X10.00 Y10.00 Z0.20 E2.50 ; sets the jerk limits, mm/sec
M205 S0 T0 ; sets the minimum extruding and travel feed rate, mm/sec
M107
M190 S70 ; set bed temperature and wait for it to be reached
M104 S210 ; set temperature
;TYPE:Custom
G28 ; home all axes
G1 Z5 F5000 ; lift nozzle
M109 S210 ; set temperature and wait for it to be reached
G21 ; set units to millimeters
G90 ; use absolute coordinates
M82 ; use absolute distances for extrusion
G92 E0
; Filament gcode
G28
G92 Z-0.05
M107
;LAYER_CHANGE
;Z:0.2
;HEIGHT:0.2
G1 E-3 F2400
G92 E0
G1 Z.2 F7800
G1 X167.763 Y193.576
G1 E3 F2400
;TYPE:Skirt/Brim
;WIDTH:0.6
G1 F1200
G1 X169.089 Y192.603 E3.07619
G1 X170.658 Y191.87 E3.15641
G1 X172.023 Y191.514 E3.22178
G1 X173.366 Y191.388 E3.28424
G1 X197.704 Y191.394 E4.41161
G1 X232.704 Y193.693 E6.03635
G1 X234.19 Y194.185 E6.10887
G1 X235.249 Y195.338 E6.1814
G1 X235.614 Y196.8 E6.25121
G1 X235.614 Y203.2 E6.54764
G1 X235.22 Y204.715 E6.62017
G1 X234.139 Y205.848 E6.69269
G1 X232.704 Y206.307 E6.7625
G1 X197.704 Y208.606 E8.38724
G1 X173.24 Y208.609 E9.52043
G1 X171.997 Y208.481 E9.57834
G1 X170.724 Y208.153 E9.6392
G1 X169.56 Y207.659 E9.69781
G1 X168.412 Y206.95 E9.76029
G1 X167.455 Y206.135 E9.81851
G1 X166.597 Y205.151 E9.87901
G1 X165.885 Y204.024 E9.94073
G1 X165.379 Y202.868 E9.99921
G1 X164.973 Y201.214 E10.0781
G1 X164.899 Y199.537 E10.15583
G1 X165.145 Y197.907 E10.23223
G1 X165.719 Y196.307 E10.31096
G1 X166.597 Y194.849 E10.38977
G1 X167.722 Y193.62 E10.46697
G1 X168.132 Y194.008 F7800
G1 F1200
G1 X168.221 Y193.915 E10.47293
G1 X169.482 Y193.018 E10.54463
G1 X170.9 Y192.375 E10.61674
G1 X172.118 Y192.064 E10.67497
G1 X173.379 Y191.945 E10.73364
G1 X197.667 Y191.95 E11.85873
G1 X232.667 Y194.249 E13.48347
G1 X234 Y194.729 E13.54907
G1 X234.872 Y195.845 E13.61467
G1 X235.057 Y196.8 E13.65974
G1 X235.057 Y203.2 E13.95618
G1 X234.665 Y204.561 E14.02178
G1 X233.608 Y205.504 E14.08738
G1 X232.667 Y205.751 E14.13245
G1 X197.667 Y208.05 E15.75719
G1 X173.253 Y208.052 E16.8881
G1 X171.974 Y207.91 E16.94772
G1 X170.845 Y207.606 E17.00187
G1 X169.704 Y207.106 E17.05958
G1 X168.693 Y206.464 E17.11505
G1 X167.71 Y205.601 E17.17564
G1 X166.928 Y204.66 E17.23232
G1 X166.323 Y203.66 E17.28643
G1 X165.848 Y202.518 E17.34374
G1 X165.504 Y200.985 E17.41651
G1 X165.465 Y199.416 E17.48921
G1 X165.731 Y197.867 E17.56202
G1 X166.292 Y196.403 E17.63466
G1 X167.139 Y195.057 E17.70832
G1 X168.091 Y194.052 E17.77243
;WIPE_START
G1 F6240
G1 X168.221 Y193.915 E17.70344
G1 X169.482 Y193.018 E17.13785
G1 X170.9 Y192.375 E16.56912
G1 X172.118 Y192.064 E16.10975
G1 X173.379 Y191.945 E15.64701
G1 X175.362 Y191.946 E14.92243
;WIPE_END
G1 E14.77243 F2400
G92 E0
G1 X195.903 Y197.156 F7800
G1 E3 F2400
;TYPE:Perimeter
;WIDTH:0.599999
G1 F1200
G1 X195.932 Y197.377 E3.01033
G1 X196.025 Y197.63 E3.0228
G1 X196.306 Y198.019 E3.04503
G1 X196.668 Y198.274 E3.06553
G1 X196.949 Y198.375 E3.07935
G1 X197.278 Y198.414 E3.09473
G1 X230.886 Y198.414 E4.65147
G1 X230.886 Y201.586 E4.79836
G1 X197.278 Y201.586 E6.3551
G1 X197.157 Y201.591 E6.36073
G1 X196.668 Y201.726 E6.38423
G1 X196.456 Y201.854 E6.39568
G1 X196.129 Y202.192 E6.41749
G1 X195.932 Y202.623 E6.43942
G1 X195.886 Y202.978 E6.45603
G1 X195.886 Y203.884 E6.498
G1 X173.4 Y203.881 E7.53955
G1 X172.74 Y203.804 E7.57036
G1 X172.068 Y203.605 E7.60279
G1 X171.416 Y203.272 E7.63672
G1 X170.907 Y202.886 E7.6663
G1 X170.551 Y202.505 E7.69048
G1 X170.221 Y202.077 E7.71549
G1 X169.903 Y201.453 E7.74794
G1 X169.704 Y200.797 E7.77969
G1 X169.644 Y200.292 E7.80325
G1 X169.628 Y199.713 E7.8301
G1 X169.729 Y199.095 E7.8591
G1 X169.891 Y198.569 E7.88459
G1 X170.119 Y198.122 E7.90786
G1 X170.443 Y197.606 E7.93607
G1 X170.822 Y197.194 E7.962
G1 X171.242 Y196.843 E7.98734
G1 X171.771 Y196.541 E8.01556
G1 X172.225 Y196.332 E8.03873
G1 X172.839 Y196.178 E8.06802
G1 X173.488 Y196.116 E8.09823
G1 X195.886 Y196.115 E9.13573
G1 X195.895 Y197.096 E9.18117
G1 X196.451 Y197.088 F7800
G1 F1200
G1 X196.47 Y197.235 E9.18802
G1 X196.632 Y197.552 E9.2045
G1 X196.912 Y197.773 E9.22102
G1 X197.278 Y197.857 E9.23843
G1 X231.443 Y197.857 E10.82097
G1 X231.443 Y202.143 E11.01947
G1 X197.278 Y202.143 E12.60201
G1 X196.912 Y202.227 E12.61942
G1 X196.695 Y202.38 E12.63172
G1 X196.527 Y202.614 E12.64505
G1 X196.443 Y202.978 E12.66239
G1 X196.443 Y204.442 E12.73017
G1 X173.368 Y204.439 E13.79904
G1 X172.627 Y204.352 E13.83357
G1 X171.861 Y204.125 E13.87061
G1 X171.119 Y203.746 E13.9092
G1 X170.533 Y203.301 E13.94328
G1 X170.144 Y202.885 E13.96966
G1 X169.742 Y202.365 E14.00008
G1 X169.384 Y201.662 E14.03663
G1 X169.156 Y200.912 E14.07295
G1 X169.061 Y200.106 E14.11056
G1 X169.094 Y199.493 E14.13899
G1 X169.186 Y198.971 E14.16355
G1 X169.377 Y198.351 E14.19358
G1 X169.742 Y197.635 E14.23082
G1 X170.129 Y197.117 E14.26075
G1 X170.491 Y196.741 E14.28493
G1 X170.931 Y196.379 E14.31135
G1 X171.688 Y195.947 E14.35169
G1 X172.355 Y195.717 E14.3844
G1 X172.938 Y195.595 E14.41197
G1 X173.469 Y195.559 E14.43661
G1 X196.443 Y195.558 E15.50081
G1 X196.444 Y197.029 E15.56892
G1 X197 Y196.958 F7800
;TYPE:External perimeter
G1 F1200
G1 X197.009 Y197.093 E15.57517
G1 X197.114 Y197.247 E15.5838
G1 X197.278 Y197.3 E15.59181
G1 X232 Y197.3 E17.20015
G1 X232 Y202.7 E17.45027
G1 X197.278 Y202.7 E19.05861
G1 X197.212 Y202.708 E19.06169
G1 X197.063 Y202.802 E19.06986
G1 X197 Y202.978 E19.07855
G1 X197 Y204.999 E19.17214
G1 X173.335 Y204.996 E20.26831
G1 X172.515 Y204.9 E20.30657
G1 X171.653 Y204.644 E20.34821
G1 X170.821 Y204.219 E20.39147
G1 X170.158 Y203.716 E20.43004
G1 X169.561 Y203.077 E20.47058
G1 X169.264 Y202.653 E20.49454
G1 X168.865 Y201.871 E20.53518
G1 X168.609 Y201.026 E20.57608
G1 X168.538 Y200.423 E20.60424
G1 X168.51 Y199.839 E20.6313
G1 X168.577 Y199.136 E20.66402
G1 X168.693 Y198.628 E20.68818
G1 X168.863 Y198.133 E20.71239
G1 X169.264 Y197.347 E20.75326
G1 X169.745 Y196.71 E20.79025
G1 X170.108 Y196.336 E20.81439
G1 X170.621 Y195.914 E20.84514
G1 X171.218 Y195.573 E20.87702
G1 X171.688 Y195.347 E20.90117
G1 X172.204 Y195.181 E20.92627
G1 X172.871 Y195.041 E20.95785
G1 X173.45 Y195.002 E20.9847
G1 X197 Y195.001 E22.07558
G1 X197 Y196.898 E22.16345
G1 X196.934 Y197.076 F7800
;WIPE_START
G1 F6240
G1 X197.009 Y197.093 E22.09225
G1 X197.114 Y197.247 E22.02425
G1 X197.278 Y197.3 E21.96105
G1 X204.524 Y197.3 E19.31345
;WIPE_END
G1 E19.16345 F2400
G92 E0
G1 X229.589 Y198.581 F7800
G1 E3 F2400
;TYPE:Solid infill
;WIDTH:0.601396
G1 F1200
G1 X230.468 Y199.46 E3.0577
G1 X230.468 Y200.25 E3.09438
G1 X229.05 Y198.832 E3.18749
G1 X228.26 Y198.832 E3.22417
G1 X230.468 Y201.04 E3.36916
G1 X230.468 Y201.168 E3.37512
G1 X229.806 Y201.168 E3.40584
G1 X227.47 Y198.832 E3.55927
G1 X226.68 Y198.831 E3.59595
G1 X229.017 Y201.168 E3.74939
G1 X228.227 Y201.168 E3.78606
G1 X225.89 Y198.831 E3.93951
G1 X225.1 Y198.831 E3.97619
G1 X227.437 Y201.168 E4.12965
G1 X226.647 Y201.168 E4.16633
G1 X224.31 Y198.831 E4.31979
G1 X223.52 Y198.831 E4.35648
G1 X225.857 Y201.168 E4.50995
G1 X225.068 Y201.168 E4.54663
G1 X222.73 Y198.831 E4.70012
G1 X221.94 Y198.831 E4.7368
G1 X224.278 Y201.168 E4.8903
G1 X223.488 Y201.168 E4.92697
G1 X221.151 Y198.83 E5.08048
G1 X220.361 Y198.83 E5.11716
G1 X222.698 Y201.168 E5.27068
G1 X221.908 Y201.168 E5.30735
G1 X219.571 Y198.83 E5.46088
G1 X218.781 Y198.83 E5.49756
G1 X221.119 Y201.168 E5.6511
G1 X220.329 Y201.168 E5.68778
G1 X217.991 Y198.83 E5.84132
G1 X217.201 Y198.83 E5.878
G1 X219.539 Y201.168 E6.03156
G1 X218.749 Y201.168 E6.06824
G1 X216.411 Y198.829 E6.2218
G1 X215.621 Y198.829 E6.25848
G1 X217.959 Y201.168 E6.41206
G1 X217.17 Y201.168 E6.44874
G1 X214.831 Y198.829 E6.60232
G1 X214.041 Y198.829 E6.639
G1 X216.38 Y201.168 E6.7926
G1 X215.59 Y201.168 E6.82928
G1 X213.251 Y198.829 E6.98288
G1 X212.461 Y198.829 E7.01956
G1 X214.8 Y201.168 E7.17318
G1 X214.01 Y201.168 E7.20985
G1 X211.671 Y198.829 E7.36348
G1 X210.881 Y198.828 E7.40016
G1 X213.221 Y201.168 E7.5538
G1 X212.431 Y201.168 E7.59047
G1 X210.091 Y198.828 E7.74412
G1 X209.301 Y198.828 E7.7808
G1 X211.641 Y201.168 E7.93445
G1 X210.851 Y201.168 E7.97113
G1 X208.511 Y198.828 E8.12479
G1 X207.721 Y198.828 E8.16148
G1 X210.061 Y201.168 E8.31515
G1 X209.271 Y201.168 E8.35183
G1 X206.931 Y198.828 E8.50551
G1 X206.141 Y198.828 E8.54219
G1 X208.482 Y201.168 E8.69589
G1 X207.692 Y201.168 E8.73256
G1 X205.351 Y198.827 E8.88627
G1 X204.561 Y198.827 E8.92295
G1 X206.902 Y201.168 E9.07666
G1 X206.112 Y201.168 E9.11334
G1 X203.772 Y198.827 E9.26706
G1 X202.982 Y198.827 E9.30375
G1 X205.322 Y201.168 E9.45748
G1 X204.533 Y201.168 E9.49416
G1 X202.192 Y198.827 E9.6479
G1 X201.402 Y198.827 E9.68458
G1 X203.743 Y201.168 E9.83833
G1 X202.953 Y201.168 E9.87501
G1 X200.612 Y198.826 E10.02877
G1 X199.822 Y198.826 E10.06546
G1 X202.163 Y201.168 E10.21923
G1 X201.373 Y201.168 E10.25591
G1 X199.032 Y198.826 E10.40969
G1 X198.242 Y198.826 E10.44637
G1 X200.584 Y201.168 E10.60016
G1 X199.794 Y201.168 E10.63684
G1 X197.201 Y198.575 E10.80711
;WIPE_START
G1 F6240
G1 X199.794 Y201.168 E9.46739
G1 X200.584 Y201.168 E9.1788
G1 X198.242 Y198.826 E7.96872
G1 X198.274 Y198.826 E7.95711
;WIPE_END
G1 E7.80711 F2400
G92 E0
G1 X195.73 Y197.104 F7800
G1 E3 F2400
G1 F1200
G1 X195.159 Y196.533 E3.0375
G1 X194.369 Y196.533 E3.07417
G1 X199.004 Y201.168 E3.37854
G1 X198.214 Y201.168 E3.41522
G1 X193.58 Y196.533 E3.71958
G1 X192.79 Y196.533 E3.75626
G1 X197.424 Y201.168 E4.06062
G1 X197.27 Y201.168 E4.06779
G1 X196.85 Y201.218 E4.08742
G1 X196.729 Y201.262 E4.09342
G1 X192 Y196.533 E4.40397
G1 X191.21 Y196.533 E4.44064
G1 X196.201 Y201.524 E4.76839
G1 X196.013 Y201.683 E4.77983
G1 X195.811 Y201.923 E4.79442
G1 X190.42 Y196.533 E5.1484
G1 X189.631 Y196.533 E5.18508
G1 X195.551 Y202.453 E5.57385
G1 X195.526 Y202.518 E5.57706
G1 X195.468 Y202.969 E5.5982
G1 X195.468 Y203.16 E5.60706
G1 X188.841 Y196.533 E6.04228
G1 X188.051 Y196.533 E6.07895
G1 X194.984 Y203.467 E6.53427
G1 X194.194 Y203.466 E6.57095
G1 X187.261 Y196.533 E7.02626
G1 X186.472 Y196.533 E7.06294
G1 X193.404 Y203.466 E7.51824
G1 X192.615 Y203.466 E7.55492
G1 X185.682 Y196.533 E8.01022
G1 X184.892 Y196.533 E8.0469
G1 X191.825 Y203.466 E8.50218
G1 X191.035 Y203.466 E8.53887
G1 X184.102 Y196.533 E8.99415
G1 X183.312 Y196.533 E9.03082
G1 X190.245 Y203.466 E9.4861
G1 X189.455 Y203.466 E9.52278
G1 X182.523 Y196.533 E9.97804
G1 X181.733 Y196.533 E10.01472
G1 X188.665 Y203.466 E10.46998
G1 X187.875 Y203.466 E10.50666
G1 X180.943 Y196.533 E10.96191
G1 X180.153 Y196.533 E10.99859
G1 X187.085 Y203.465 E11.45383
G1 X186.295 Y203.465 E11.49051
G1 X179.363 Y196.533 E11.94575
G1 X178.574 Y196.533 E11.98242
G1 X185.505 Y203.465 E12.43765
G1 X184.715 Y203.465 E12.47433
G1 X177.784 Y196.533 E12.92955
G1 X176.994 Y196.533 E12.96623
G1 X183.926 Y203.465 E13.42144
G1 X183.136 Y203.465 E13.45812
G1 X176.204 Y196.534 E13.91333
G1 X175.414 Y196.534 E13.95
G1 X182.346 Y203.465 E14.4052
G1 X181.556 Y203.465 E14.44188
G1 X174.625 Y196.534 E14.89707
G1 X173.835 Y196.534 E14.93375
G1 X180.766 Y203.465 E15.38893
G1 X179.976 Y203.465 E15.42562
G1 X173.074 Y196.563 E15.87887
G1 X172.763 Y196.615 E15.89351
G1 X172.43 Y196.709 E15.90958
G1 X179.186 Y203.464 E16.35325
G1 X178.396 Y203.464 E16.38993
G1 X171.887 Y196.955 E16.81739
G1 X171.395 Y197.253 E16.8441
G1 X177.606 Y203.464 E17.25203
G1 X176.816 Y203.464 E17.28871
G1 X170.978 Y197.626 E17.67211
G1 X170.773 Y197.863 E17.68668
G1 X170.63 Y198.067 E17.69826
G1 X176.026 Y203.464 E18.05268
G1 X175.237 Y203.464 E18.08936
G1 X170.354 Y198.581 E18.41
G1 X170.277 Y198.733 E18.41789
G1 X170.143 Y199.16 E18.43869
G1 X174.447 Y203.464 E18.72133
G1 X173.657 Y203.464 E18.75801
G1 X170.042 Y199.849 E18.99537
G1 X170.037 Y200.06 E19.00515
G1 X170.114 Y200.711 E19.03559
G1 X172.785 Y203.382 E19.21102
G1 X172.224 Y203.216 E19.2382
G1 X171.639 Y202.917 E19.26871
G1 X171.189 Y202.575 E19.29496
G1 X170.115 Y201.502 E19.36546
M106 S255
;LAYER_CHANGE
;Z:0.3
;HEIGHT:0.1
;WIPE_START
G1 F6240
G1 X171.189 Y202.575 E18.81071
G1 X171.639 Y202.917 E18.60416
G1 X172.224 Y203.216 E18.36414
G1 X172.785 Y203.382 E18.15024
G1 X170.114 Y200.711 E16.76995
G1 X170.037 Y200.06 E16.53044
G1 X170.038 Y200.019 E16.51546
;WIPE_END
G1 E16.36546 F2400
G92 E0
G1 Z.3 F7800
M104 S200 ; set temperature
M140 S60 ; set bed temperature
G1 X196.827 Y197.366
G1 E3 F2400
;TYPE:Perimeter
;WIDTH:0.399999
G1 F1800
G1 X197.1 Y197.566 E3.00532
G1 X197.489 Y197.65 E3.01159
G1 X231.543 Y197.65 E3.54752
G1 X231.543 Y202.35 E3.62149
G1 X197.489 Y202.35 E4.15742
G1 X197.281 Y202.373 E4.16072
G1 X196.958 Y202.513 E4.16625
G1 X196.728 Y202.734 E4.17128
G1 X196.579 Y203.035 E4.17656
G1 X196.543 Y203.296 E4.18071
G1 X196.543 Y204.605 E4.2013
G1 X173.349 Y204.602 E4.56631
G1 X172.764 Y204.54 E4.57558
G1 X172.167 Y204.389 E4.58527
G1 X171.588 Y204.183 E4.59494
G1 X171.077 Y203.914 E4.60404
G1 X170.458 Y203.453 E4.61617
G1 X169.919 Y202.89 E4.62844
G1 X169.454 Y202.191 E4.64165
G1 X169.125 Y201.425 E4.65477
G1 X168.997 Y200.875 E4.66365
G1 X168.9 Y200.197 E4.67444
G1 X168.904 Y199.725 E4.68187
G1 X169.006 Y199.029 E4.69294
G1 X169.185 Y198.395 E4.70331
G1 X169.388 Y197.929 E4.71131
G1 X169.722 Y197.377 E4.72146
G1 X170.139 Y196.854 E4.73198
G1 X170.63 Y196.407 E4.74243
G1 X171.153 Y196.039 E4.7525
G1 X171.738 Y195.752 E4.76275
G1 X172.31 Y195.553 E4.77229
G1 X172.818 Y195.448 E4.78045
G1 X173.535 Y195.395 E4.79176
G1 X196.543 Y195.395 E5.15386
G1 X196.543 Y196.704 E5.17445
G1 X196.579 Y196.965 E5.17859
G1 X196.651 Y197.143 E5.18163
G1 X196.779 Y197.33 E5.18518
G1 X197.091 Y197.088 F7800
G1 F1800
G1 X197.255 Y197.221 E5.18852
G1 X197.489 Y197.272 E5.19228
G1 X231.921 Y197.272 E5.73417
G1 X231.921 Y202.728 E5.82005
G1 X197.489 Y202.728 E6.36194
G1 X197.171 Y202.826 E6.36718
G1 X196.986 Y203.032 E6.37153
G1 X196.921 Y203.296 E6.37581
G1 X196.921 Y204.983 E6.40236
G1 X173.703 Y204.98 E6.76776
G1 X173.066 Y204.959 E6.77779
G1 X172.447 Y204.87 E6.78764
G1 X171.916 Y204.709 E6.79637
G1 X171.434 Y204.529 E6.80447
G1 X170.87 Y204.232 E6.8145
G1 X170.207 Y203.738 E6.82751
G1 X169.622 Y203.127 E6.84081
G1 X169.12 Y202.372 E6.85509
G1 X168.764 Y201.544 E6.86928
G1 X168.628 Y200.961 E6.87869
G1 X168.522 Y200.212 E6.8906
G1 X168.552 Y199.467 E6.90234
G1 X168.635 Y198.95 E6.91058
G1 X168.83 Y198.262 E6.92184
G1 X169.049 Y197.76 E6.93045
G1 X169.411 Y197.161 E6.94146
G1 X169.862 Y196.595 E6.95285
G1 X170.393 Y196.112 E6.96415
G1 X170.96 Y195.713 E6.97506
G1 X171.591 Y195.403 E6.98613
G1 X172.215 Y195.186 E6.99652
G1 X172.766 Y195.072 E7.00537
G1 X173.521 Y195.017 E7.01729
G1 X196.921 Y195.017 E7.38556
G1 X196.921 Y196.704 E7.41211
G1 X196.943 Y196.86 E7.4146
G1 X197.044 Y197.05 E7.41798
G1 X197.347 Y196.829 F7800
;TYPE:External perimeter
G1 F900
G1 X197.489 Y196.893 E7.42043
G1 X232.3 Y196.893 E7.96827
G1 X232.3 Y203.107 E8.06607
G1 X197.489 Y203.107 E8.61391
G1 X197.362 Y203.156 E8.61605
G1 X197.3 Y203.296 E8.61847
G1 X197.3 Y205.362 E8.65098
G1 X173.548 Y205.359 E9.02478
G1 X173.036 Y205.336 E9.03284
G1 X172.36 Y205.239 E9.0436
G1 X171.806 Y205.071 E9.0527
G1 X171.279 Y204.874 E9.06155
G1 X170.663 Y204.55 E9.07251
G1 X169.955 Y204.022 E9.08641
G1 X169.326 Y203.365 E9.10073
G1 X168.786 Y202.553 E9.11607
G1 X168.403 Y201.662 E9.13133
G1 X168.191 Y200.752 E9.14605
G1 X168.143 Y200.228 E9.15432
G1 X168.148 Y199.68 E9.16295
G1 X168.207 Y199.141 E9.17148
G1 X168.318 Y198.623 E9.17981
G1 X168.476 Y198.128 E9.18799
G1 X168.71 Y197.591 E9.19722
G1 X169.1 Y196.945 E9.20909
G1 X169.418 Y196.534 E9.21727
G1 X169.774 Y196.153 E9.22547
G1 X170.152 Y195.82 E9.23341
G1 X170.557 Y195.525 E9.24129
